{"compressionlevel":-1,"type":"map","version":"1.10","tiledversion":"1.12.2","orientation":"orthogonal","renderorder":"right-down","infinite":false,"width":16,"height":12,"tilewidth":64,"tileheight":64,"nextlayerid":6,"nextobjectid":7,"layers":[{"type":"tilelayer","id":1,"name":"Floor","x":0,"y":0,"width":16,"height":12,"visible":true,"opacity":1,"data":[0,0,0,0,0,0,0,0,0,0,0,0,0,0,0,0,0,0,0,0,0,0,0,0,0,0,0,0,0,0,0,0,0,0,516,516,516,516,516,516,516,516,516,516,516,516,0,0,0,0,516,516,516,516,516,516,516,516,516,516,516,516,0,0,0,0,516,516,516,516,516,516,516,516,516,516,516,516,0,0,0,0,516,516,516,516,516,516,516,516,516,516,516,516,0,0,0,0,516,516,516,516,516,516,516,516,516,516,516,516,0,0,0,0,516,516,516,516,516,516,516,516,516,516,516,516,0,0,0,0,516,516,516,516,516,516,516,516,516,516,516,516,0,0,0,0,516,516,516,516,516,516,516,516,516,516,516,516,0,0,0,0,0,0,0,0,0,516,516,0,0,0,0,0,0,0,0,0,0,0,0,0,0,516,516,0,0,0,0,0,0,0]},{"type":"tilelayer","id":2,"name":"Buildings","x":0,"y":0,"width":16,"height":12,"visible":true,"opacity":1,"data":[101,102,102,102,102,102,102,102,102,102,102,102,102,102,102,104,121,122,122,122,122,122,122,122,122,122,122,122,122,122,122,124,121,122,0,0,0,0,0,0,0,0,0,0,0,0,122,124,121,122,0,0,0,0,0,0,0,0,0,0,0,0,122,124,121,122,0,0,0,0,0,0,0,0,0,0,0,0,122,124,121,122,0,0,0,0,0,0,0,0,0,0,0,0,122,124,121,122,0,0,0,0,0,0,0,0,0,0,0,0,122,124,121,122,0,0,0,0,0,0,0,0,0,0,0,0,122,124,121,122,0,0,0,0,0,0,0,0,0,0,0,0,122,124,121,122,0,0,0,0,0,0,0,0,0,0,0,0,122,124,141,142,142,142,142,142,142,0,0,142,142,142,142,142,142,144,101,102,102,102,102,102,102,0,0,102,102,102,102,102,102,104]},{"type":"tilelayer","id":3,"name":"Decor","x":0,"y":0,"width":16,"height":12,"visible":true,"opacity":1,"data":[0,0,0,0,0,0,0,0,0,0,0,0,0,0,0,0,0,0,0,0,0,0,0,0,0,0,0,0,0,0,0,0,0,0,0,0,0,0,0,0,0,0,0,0,0,0,0,0,0,0,0,0,0,0,0,0,675,0,0,0,0,0,0,0,0,0,0,639,651,0,0,0,0,0,0,663,0,0,0,0,0,0,0,0,0,0,0,0,0,0,0,0,0,0,0,0,0,0,0,0,0,0,0,0,0,0,0,0,0,0,0,0,0,0,0,0,0,0,0,0,0,0,0,0,0,0,0,0,0,0,0,627,0,0,0,0,0,0,0,0,639,0,0,0,0,0,0,0,0,0,0,0,0,0,0,0,0,0,0,0,0,0,0,0,0,0,0,0,0,0,0,0,0,0,0,0,0,0,0,0,0,0,0,0,0,0,0,0,0,0,0,0]},{"type":"objectgroup","id":4,"name":"collisions","x":0,"y":0,"visible":true,"opacity":1,"objects":[{"id":1,"name":"wall","type":"","x":0,"y":0,"width":1024,"height":128,"rotation":0,"visible":true,"properties":[]},{"id":2,"name":"collision-2","type":"","x":0,"y":128,"width":128,"height":512,"rotation":0,"visible":true,"properties":[]},{"id":3,"name":"collision-3","type":"","x":896,"y":128,"width":128,"height":512,"rotation":0,"visible":true,"properties":[]},{"id":4,"name":"collision-4","type":"","x":0,"y":640,"width":448,"height":128,"rotation":0,"visible":true,"properties":[]},{"id":5,"name":"collision-5","type":"","x":576,"y":640,"width":448,"height":128,"rotation":0,"visible":true,"properties":[]}]},{"type":"objectgroup","id":5,"name":"doors","x":0,"y":0,"visible":true,"opacity":1,"objects":[{"id":6,"name":"door-exit","type":"","x":448,"y":640,"width":128,"height":128,"rotation":0,"visible":true,"properties":[{"name":"target","type":"string","value":"home"}]}]}],"tilesets":[{"type":"tileset","version":"1.10","tiledversion":"1.12.2","firstgid":1,"name":"TilesetRelief","tilewidth":64,"tileheight":64,"spacing":0,"margin":0,"tilecount":240,"columns":20,"image":"../../../OG/ninja-4x/TilesetRelief.png","imagewidth":1280,"imageheight":768},{"type":"tileset","version":"1.10","tiledversion":"1.12.2","firstgid":241,"name":"TilesetInteriorFloor","tilewidth":64,"tileheight":64,"spacing":0,"margin":0,"tilecount":374,"columns":22,"image":"../../../OG/ninja-4x/TilesetInteriorFloor.png","imagewidth":1408,"imageheight":1088},{"type":"tileset","version":"1.10","tiledversion":"1.12.2","firstgid":615,"name":"TilesetReliefDetail","tilewidth":64,"tileheight":64,"spacing":0,"margin":0,"tilecount":144,"columns":12,"image":"../../../OG/ninja-4x/TilesetReliefDetail.png","imagewidth":768,"imageheight":768}]}