<?xml version="1.0" encoding="UTF-8"?>
<map version="1.10" tiledversion="1.12.2" orientation="orthogonal" renderorder="right-down" width="16" height="12" tilewidth="64" tileheight="64" infinite="0" nextlayerid="6" nextobjectid="7">
 <tileset firstgid="1" source="tiled/TilesetRelief.tsx"/>
 <tileset firstgid="241" source="tiled/TilesetInteriorFloor.tsx"/>
 <tileset firstgid="615" source="tiled/TilesetReliefDetail.tsx"/>
 <layer id="1" name="Floor" width="16" height="12">
  <data encoding="csv">
0,0,0,0,0,0,0,0,0,0,0,0,0,0,0,0,
0,0,0,0,0,0,0,0,0,0,0,0,0,0,0,0,
0,0,516,516,516,516,516,516,516,516,516,516,516,516,0,0,
0,0,516,516,516,516,516,516,516,516,516,516,516,516,0,0,
0,0,516,516,516,516,516,516,516,516,516,516,516,516,0,0,
0,0,516,516,516,516,516,516,516,516,516,516,516,516,0,0,
0,0,516,516,516,516,516,516,516,516,516,516,516,516,0,0,
0,0,516,516,516,516,516,516,516,516,516,516,516,516,0,0,
0,0,516,516,516,516,516,516,516,516,516,516,516,516,0,0,
0,0,516,516,516,516,516,516,516,516,516,516,516,516,0,0,
0,0,0,0,0,0,0,516,516,0,0,0,0,0,0,0,
0,0,0,0,0,0,0,516,516,0,0,0,0,0,0,0
  </data>
 </layer>
 <layer id="2" name="Buildings" width="16" height="12">
  <data encoding="csv">
101,102,102,102,102,102,102,102,102,102,102,102,102,102,102,104,
121,122,122,122,122,122,122,122,122,122,122,122,122,122,122,124,
121,122,0,0,0,0,0,0,0,0,0,0,0,0,122,124,
121,122,0,0,0,0,0,0,0,0,0,0,0,0,122,124,
121,122,0,0,0,0,0,0,0,0,0,0,0,0,122,124,
121,122,0,0,0,0,0,0,0,0,0,0,0,0,122,124,
121,122,0,0,0,0,0,0,0,0,0,0,0,0,122,124,
121,122,0,0,0,0,0,0,0,0,0,0,0,0,122,124,
121,122,0,0,0,0,0,0,0,0,0,0,0,0,122,124,
121,122,0,0,0,0,0,0,0,0,0,0,0,0,122,124,
141,142,142,142,142,142,142,0,0,142,142,142,142,142,142,144,
101,102,102,102,102,102,102,0,0,102,102,102,102,102,102,104
  </data>
 </layer>
 <layer id="3" name="Decor" width="16" height="12">
  <data encoding="csv">
0,0,0,0,0,0,0,0,0,0,0,0,0,0,0,0,
0,0,0,0,0,0,0,0,0,0,0,0,0,0,0,0,
0,0,0,0,0,0,0,0,0,0,0,0,0,0,0,0,
0,0,0,0,0,0,0,0,675,0,0,0,0,0,0,0,
0,0,0,639,651,0,0,0,0,0,0,663,0,0,0,0,
0,0,0,0,0,0,0,0,0,0,0,0,0,0,0,0,
0,0,0,0,0,0,0,0,0,0,0,0,0,0,0,0,
0,0,0,0,0,0,0,0,0,0,0,0,0,0,0,0,
0,0,0,627,0,0,0,0,0,0,0,0,639,0,0,0,
0,0,0,0,0,0,0,0,0,0,0,0,0,0,0,0,
0,0,0,0,0,0,0,0,0,0,0,0,0,0,0,0,
0,0,0,0,0,0,0,0,0,0,0,0,0,0,0,0
  </data>
 </layer>
 <objectgroup id="4" name="collisions">
  <object id="1" name="wall" x="0" y="0" width="1024" height="128"/>
  <object id="2" name="collision-2" x="0" y="128" width="128" height="512"/>
  <object id="3" name="collision-3" x="896" y="128" width="128" height="512"/>
  <object id="4" name="collision-4" x="0" y="640" width="448" height="128"/>
  <object id="5" name="collision-5" x="576" y="640" width="448" height="128"/>
 </objectgroup>
 <objectgroup id="5" name="doors">
  <object id="6" name="door-exit" x="448" y="640" width="128" height="128">
   <properties>
    <property name="target" value="home"/>
   </properties>
  </object>
 </objectgroup>
</map>
