<?xml version="1.0" encoding="UTF-8"?>
<map version="1.10" tiledversion="1.12.2" orientation="orthogonal" renderorder="right-down" width="16" height="12" tilewidth="64" tileheight="64" infinite="0" nextlayerid="6" nextobjectid="34">
 <tileset firstgid="1" source="tiled/TilesetWallSimple.tsx"/>
 <tileset firstgid="111" source="tiled/TilesetInteriorFloor.tsx"/>
 <tileset firstgid="485" source="tiled/TilesetBed.tsx"/>
 <tileset firstgid="653" source="tiled/TilesetCamp.tsx"/>
 <tileset firstgid="860" source="tiled/TilesetElements.tsx"/>
 <layer id="1" name="Floor" width="16" height="12">
  <data encoding="csv">
0,0,0,0,0,0,0,0,0,0,0,0,0,0,0,0,
0,0,0,0,0,0,0,0,0,0,0,0,0,0,0,0,
0,0,0,0,112,112,112,112,112,112,112,112,112,0,0,0,
0,0,0,0,112,112,112,112,112,112,112,112,112,0,0,0,
0,0,0,0,112,112,112,112,112,112,112,112,112,0,0,0,
0,0,0,0,112,112,112,112,112,112,112,112,112,0,0,0,
0,0,0,0,112,112,112,112,112,112,112,112,112,0,0,0,
0,0,0,0,112,112,112,112,112,112,112,112,112,0,0,0,
0,0,0,0,112,112,112,112,112,112,112,112,112,0,0,0,
0,0,0,0,0,0,0,0,0,0,0,0,0,0,0,0,
0,0,0,0,0,0,0,0,0,0,0,0,0,0,0,0,
0,0,0,0,0,0,0,0,0,0,0,0,0,0,0,0
  </data>
 </layer>
 <layer id="2" name="Buildings" width="16" height="12">
  <data encoding="csv">
0,0,0,0,0,0,0,0,0,0,0,0,0,0,0,0,
0,0,0,0,0,0,0,0,0,0,0,0,0,0,0,0,
0,0,0,0,6,9,9,9,9,9,9,9,10,0,0,0,
0,0,0,0,16,0,0,0,0,0,0,0,20,0,0,0,
0,0,0,0,16,0,0,0,0,0,0,0,20,0,0,0,
0,0,0,0,16,0,0,0,0,0,0,0,20,0,0,0,
0,0,0,0,16,0,0,0,0,0,0,0,20,0,0,0,
0,0,0,0,16,0,0,0,0,0,0,0,20,0,0,0,
0,0,0,0,46,49,49,0,0,49,49,49,50,0,0,0,
0,0,0,0,0,0,0,0,0,0,0,0,0,0,0,0,
0,0,0,0,0,0,0,0,0,0,0,0,0,0,0,0,
0,0,0,0,0,0,0,0,0,0,0,0,0,0,0,0
  </data>
 </layer>
 <layer id="3" name="Decor" width="16" height="12">
  <data encoding="csv">
0,0,0,0,0,0,0,0,0,0,0,0,0,0,0,0,
0,0,0,0,0,0,0,0,0,0,0,0,0,0,0,0,
0,0,0,0,0,527,528,0,571,572,573,0,0,0,0,0,
0,0,0,0,0,541,542,0,585,586,587,0,0,0,0,0,
0,0,0,0,0,555,556,0,0,578,579,580,0,0,0,0,
0,0,0,0,0,0,0,0,0,592,593,594,0,0,0,0,
0,0,0,0,0,0,0,0,0,0,0,0,0,0,0,0,
0,0,0,0,727,772,0,0,0,0,726,729,0,0,0,0,
0,0,0,0,0,0,0,0,0,0,0,0,0,0,0,0,
0,0,0,0,0,0,0,0,0,0,0,0,0,0,0,0,
0,0,0,0,0,0,0,0,0,0,0,0,0,0,0,0,
0,0,0,0,0,0,0,0,0,0,0,0,0,0,0,0
  </data>
 </layer>
 <objectgroup id="4" name="collisions">
  <object id="1" name="wall" x="256" y="128" width="64" height="64"/>
  <object id="2" name="collision-2" x="320" y="128" width="64" height="64"/>
  <object id="3" name="collision-3" x="384" y="128" width="64" height="64"/>
  <object id="4" name="collision-4" x="448" y="128" width="64" height="64"/>
  <object id="5" name="collision-5" x="512" y="128" width="64" height="64"/>
  <object id="6" name="collision-6" x="576" y="128" width="64" height="64"/>
  <object id="7" name="collision-7" x="640" y="128" width="64" height="64"/>
  <object id="8" name="collision-8" x="704" y="128" width="64" height="64"/>
  <object id="9" name="collision-9" x="768" y="128" width="64" height="64"/>
  <object id="10" name="collision-10" x="256" y="192" width="64" height="64"/>
  <object id="11" name="collision-11" x="768" y="192" width="64" height="64"/>
  <object id="12" name="collision-12" x="256" y="256" width="64" height="64"/>
  <object id="13" name="collision-13" x="768" y="256" width="64" height="64"/>
  <object id="14" name="collision-14" x="256" y="320" width="64" height="64"/>
  <object id="15" name="collision-15" x="768" y="320" width="64" height="64"/>
  <object id="16" name="collision-16" x="256" y="384" width="64" height="64"/>
  <object id="17" name="collision-17" x="768" y="384" width="64" height="64"/>
  <object id="18" name="collision-18" x="256" y="448" width="64" height="64"/>
  <object id="19" name="collision-19" x="768" y="448" width="64" height="64"/>
  <object id="20" name="collision-20" x="256" y="512" width="64" height="64"/>
  <object id="21" name="collision-21" x="320" y="512" width="64" height="64"/>
  <object id="22" name="collision-22" x="384" y="512" width="64" height="64"/>
  <object id="23" name="collision-23" x="576" y="512" width="64" height="64"/>
  <object id="24" name="collision-24" x="640" y="512" width="64" height="64"/>
  <object id="25" name="collision-25" x="704" y="512" width="64" height="64"/>
  <object id="26" name="collision-26" x="768" y="512" width="64" height="64"/>
  <object id="27" name="collision-27" x="320" y="128" width="128" height="192"/>
  <object id="28" name="collision-28" x="576" y="256" width="192" height="128"/>
  <object id="29" name="collision-29" x="320" y="448" width="64" height="64"/>
  <object id="30" name="collision-30" x="704" y="448" width="64" height="64"/>
  <object id="31" name="collision-31" x="640" y="448" width="64" height="64"/>
  <object id="32" name="collision-32" x="256" y="448" width="64" height="64"/>
 </objectgroup>
 <objectgroup id="5" name="doors">
  <object id="33" name="door-exit" x="448" y="576" width="128" height="64">
   <properties>
    <property name="target" value="home"/>
   </properties>
  </object>
 </objectgroup>
</map>
