{"compressionlevel":-1,"type":"map","version":"1.10","tiledversion":"1.12.2","orientation":"orthogonal","renderorder":"right-down","infinite":false,"width":16,"height":12,"tilewidth":64,"tileheight":64,"nextlayerid":6,"nextobjectid":34,"layers":[{"type":"tilelayer","id":1,"name":"Floor","x":0,"y":0,"width":16,"height":12,"visible":true,"opacity":1,"data":[0,0,0,0,0,0,0,0,0,0,0,0,0,0,0,0,0,0,0,0,0,0,0,0,0,0,0,0,0,0,0,0,0,0,0,0,386,386,386,386,386,386,386,386,386,0,0,0,0,0,0,0,386,386,386,386,386,386,386,386,386,0,0,0,0,0,0,0,386,386,386,386,386,386,386,386,386,0,0,0,0,0,0,0,386,386,386,386,386,386,386,386,386,0,0,0,0,0,0,0,386,386,386,386,386,386,386,386,386,0,0,0,0,0,0,0,386,386,386,386,386,386,386,386,386,0,0,0,0,0,0,0,386,386,386,386,386,386,386,386,386,0,0,0,0,0,0,0,0,0,0,0,0,0,0,0,0,0,0,0,0,0,0,0,0,0,0,0,0,0,0,0,0,0,0,0,0,0,0,0,0,0,0,0,0,0,0,0,0,0,0,0]},{"type":"tilelayer","id":2,"name":"Buildings","x":0,"y":0,"width":16,"height":12,"visible":true,"opacity":1,"data":[0,0,0,0,0,0,0,0,0,0,0,0,0,0,0,0,0,0,0,0,0,0,0,0,0,0,0,0,0,0,0,0,0,0,0,0,61,64,64,64,64,64,64,64,65,0,0,0,0,0,0,0,71,0,0,0,0,0,0,0,75,0,0,0,0,0,0,0,71,0,0,0,0,0,0,0,75,0,0,0,0,0,0,0,71,0,0,0,0,0,0,0,75,0,0,0,0,0,0,0,71,0,0,0,0,0,0,0,75,0,0,0,0,0,0,0,71,0,0,0,0,0,0,0,75,0,0,0,0,0,0,0,101,104,104,0,0,104,104,104,105,0,0,0,0,0,0,0,0,0,0,0,0,0,0,0,0,0,0,0,0,0,0,0,0,0,0,0,0,0,0,0,0,0,0,0,0,0,0,0,0,0,0,0,0,0,0,0,0,0,0,0]},{"type":"tilelayer","id":3,"name":"Decor","x":0,"y":0,"width":16,"height":12,"visible":true,"opacity":1,"data":[0,0,0,0,0,0,0,0,0,0,0,0,0,0,0,0,0,0,0,0,0,0,0,0,0,0,0,0,0,0,0,0,0,0,0,0,578,579,580,0,0,0,492,493,0,0,0,0,0,0,0,0,592,593,594,0,0,0,506,507,0,0,0,0,0,0,0,0,0,0,0,0,0,0,520,521,0,0,0,0,0,0,0,0,0,611,612,0,0,0,0,773,0,0,0,0,0,0,0,0,0,625,626,0,0,0,0,0,0,0,0,0,0,0,0,0,752,639,640,0,0,0,726,772,0,0,0,0,0,0,0,0,0,0,0,0,0,0,0,0,0,0,0,0,0,0,0,0,0,0,0,0,0,0,0,0,0,0,0,0,0,0,0,0,0,0,0,0,0,0,0,0,0,0,0,0,0,0,0,0,0,0,0,0,0,0,0,0,0,0,0,0]},{"type":"objectgroup","id":4,"name":"collisions","x":0,"y":0,"visible":true,"opacity":1,"objects":[{"id":1,"name":"wall","type":"","x":256,"y":128,"width":64,"height":64,"rotation":0,"visible":true,"properties":[]},{"id":2,"name":"collision-2","type":"","x":320,"y":128,"width":64,"height":64,"rotation":0,"visible":true,"properties":[]},{"id":3,"name":"collision-3","type":"","x":384,"y":128,"width":64,"height":64,"rotation":0,"visible":true,"properties":[]},{"id":4,"name":"collision-4","type":"","x":448,"y":128,"width":64,"height":64,"rotation":0,"visible":true,"properties":[]},{"id":5,"name":"collision-5","type":"","x":512,"y":128,"width":64,"height":64,"rotation":0,"visible":true,"properties":[]},{"id":6,"name":"collision-6","type":"","x":576,"y":128,"width":64,"height":64,"rotation":0,"visible":true,"properties":[]},{"id":7,"name":"collision-7","type":"","x":640,"y":128,"width":64,"height":64,"rotation":0,"visible":true,"properties":[]},{"id":8,"name":"collision-8","type":"","x":704,"y":128,"width":64,"height":64,"rotation":0,"visible":true,"properties":[]},{"id":9,"name":"collision-9","type":"","x":768,"y":128,"width":64,"height":64,"rotation":0,"visible":true,"properties":[]},{"id":10,"name":"collision-10","type":"","x":256,"y":192,"width":64,"height":64,"rotation":0,"visible":true,"properties":[]},{"id":11,"name":"collision-11","type":"","x":768,"y":192,"width":64,"height":64,"rotation":0,"visible":true,"properties":[]},{"id":12,"name":"collision-12","type":"","x":256,"y":256,"width":64,"height":64,"rotation":0,"visible":true,"properties":[]},{"id":13,"name":"collision-13","type":"","x":768,"y":256,"width":64,"height":64,"rotation":0,"visible":true,"properties":[]},{"id":14,"name":"collision-14","type":"","x":256,"y":320,"width":64,"height":64,"rotation":0,"visible":true,"properties":[]},{"id":15,"name":"collision-15","type":"","x":768,"y":320,"width":64,"height":64,"rotation":0,"visible":true,"properties":[]},{"id":16,"name":"collision-16","type":"","x":256,"y":384,"width":64,"height":64,"rotation":0,"visible":true,"properties":[]},{"id":17,"name":"collision-17","type":"","x":768,"y":384,"width":64,"height":64,"rotation":0,"visible":true,"properties":[]},{"id":18,"name":"collision-18","type":"","x":256,"y":448,"width":64,"height":64,"rotation":0,"visible":true,"properties":[]},{"id":19,"name":"collision-19","type":"","x":768,"y":448,"width":64,"height":64,"rotation":0,"visible":true,"properties":[]},{"id":20,"name":"collision-20","type":"","x":256,"y":512,"width":64,"height":64,"rotation":0,"visible":true,"properties":[]},{"id":21,"name":"collision-21","type":"","x":320,"y":512,"width":64,"height":64,"rotation":0,"visible":true,"properties":[]},{"id":22,"name":"collision-22","type":"","x":384,"y":512,"width":64,"height":64,"rotation":0,"visible":true,"properties":[]},{"id":23,"name":"collision-23","type":"","x":576,"y":512,"width":64,"height":64,"rotation":0,"visible":true,"properties":[]},{"id":24,"name":"collision-24","type":"","x":640,"y":512,"width":64,"height":64,"rotation":0,"visible":true,"properties":[]},{"id":25,"name":"collision-25","type":"","x":704,"y":512,"width":64,"height":64,"rotation":0,"visible":true,"properties":[]},{"id":26,"name":"collision-26","type":"","x":768,"y":512,"width":64,"height":64,"rotation":0,"visible":true,"properties":[]},{"id":27,"name":"collision-27","type":"","x":640,"y":128,"width":128,"height":192,"rotation":0,"visible":true,"properties":[]},{"id":28,"name":"collision-28","type":"","x":256,"y":128,"width":192,"height":128,"rotation":0,"visible":true,"properties":[]},{"id":29,"name":"collision-29","type":"","x":256,"y":448,"width":64,"height":64,"rotation":0,"visible":true,"properties":[]},{"id":30,"name":"collision-30","type":"","x":704,"y":448,"width":64,"height":64,"rotation":0,"visible":true,"properties":[]},{"id":31,"name":"collision-31","type":"","x":704,"y":320,"width":64,"height":64,"rotation":0,"visible":true,"properties":[]},{"id":32,"name":"collision-32","type":"","x":640,"y":448,"width":64,"height":64,"rotation":0,"visible":true,"properties":[]}]},{"type":"objectgroup","id":5,"name":"doors","x":0,"y":0,"visible":true,"opacity":1,"objects":[{"id":33,"name":"door-exit","type":"","x":448,"y":576,"width":128,"height":64,"rotation":0,"visible":true,"properties":[{"name":"target","type":"string","value":"home"}]}]}],"tilesets":[{"type":"tileset","version":"1.10","tiledversion":"1.12.2","firstgid":1,"name":"TilesetWallSimple","tilewidth":64,"tileheight":64,"spacing":0,"margin":0,"tilecount":110,"columns":10,"image":"../../../OG/ninja-4x/TilesetWallSimple.png","imagewidth":640,"imageheight":704},{"type":"tileset","version":"1.10","tiledversion":"1.12.2","firstgid":111,"name":"TilesetInteriorFloor","tilewidth":64,"tileheight":64,"spacing":0,"margin":0,"tilecount":374,"columns":22,"image":"../../../OG/ninja-4x/TilesetInteriorFloor.png","imagewidth":1408,"imageheight":1088},{"type":"tileset","version":"1.10","tiledversion":"1.12.2","firstgid":485,"name":"TilesetBed","tilewidth":64,"tileheight":64,"spacing":0,"margin":0,"tilecount":168,"columns":14,"image":"../../../OG/ninja-4x/TilesetBed.png","imagewidth":896,"imageheight":768},{"type":"tileset","version":"1.10","tiledversion":"1.12.2","firstgid":653,"name":"TilesetCamp","tilewidth":64,"tileheight":64,"spacing":0,"margin":0,"tilecount":207,"columns":23,"image":"../../../OG/ninja-4x/TilesetCamp.png","imagewidth":1472,"imageheight":576},{"type":"tileset","version":"1.10","tiledversion":"1.12.2","firstgid":860,"name":"TilesetElements","tilewidth":64,"tileheight":64,"spacing":0,"margin":0,"tilecount":27,"columns":9,"image":"../../../OG/ninja-4x/TilesetElements.png","imagewidth":576,"imageheight":192}]}