{"compressionlevel":-1,"type":"map","version":"1.10","tiledversion":"1.12.2","orientation":"orthogonal","renderorder":"right-down","infinite":false,"width":16,"height":12,"tilewidth":64,"tileheight":64,"nextlayerid":6,"nextobjectid":46,"layers":[{"type":"tilelayer","id":1,"name":"Floor","x":0,"y":0,"width":16,"height":12,"visible":true,"opacity":1,"data":[0,0,0,0,0,0,0,0,0,0,0,0,0,0,0,0,0,0,112,112,112,112,112,112,112,112,112,112,112,0,0,0,0,0,112,112,112,112,112,112,112,112,112,112,112,0,0,0,0,0,112,112,112,112,112,112,112,112,112,112,112,0,0,0,0,0,112,112,112,112,112,112,112,112,112,112,112,0,0,0,0,0,112,112,112,112,112,112,112,112,112,112,112,0,0,0,0,0,112,112,112,112,112,112,112,112,112,112,112,0,0,0,0,0,112,112,112,112,112,112,112,112,112,112,112,0,0,0,0,0,112,112,112,112,112,112,112,112,112,112,112,0,0,0,0,0,112,112,112,112,112,112,112,112,112,112,112,0,0,0,0,0,0,0,0,0,0,0,0,0,0,0,0,0,0,0,0,0,0,0,0,0,0,0,0,0,0,0,0,0,0,0]},{"type":"tilelayer","id":2,"name":"Buildings","x":0,"y":0,"width":16,"height":12,"visible":true,"opacity":1,"data":[0,0,0,0,0,0,0,0,0,0,0,0,0,0,0,0,0,0,1,4,4,4,4,4,4,4,4,4,5,0,0,0,0,0,11,0,0,0,0,0,0,0,0,0,15,0,0,0,0,0,11,0,0,0,0,0,0,0,0,0,15,0,0,0,0,0,11,0,0,0,0,0,0,0,0,0,15,0,0,0,0,0,11,0,0,0,0,0,0,0,0,0,15,0,0,0,0,0,11,0,0,0,0,0,0,0,0,0,15,0,0,0,0,0,11,0,0,0,0,0,0,0,0,0,15,0,0,0,0,0,11,0,0,0,0,0,0,0,0,0,15,0,0,0,0,0,41,44,44,44,44,0,0,44,44,44,45,0,0,0,0,0,0,0,0,0,0,0,0,0,0,0,0,0,0,0,0,0,0,0,0,0,0,0,0,0,0,0,0,0,0,0]},{"type":"tilelayer","id":3,"name":"Decor","x":0,"y":0,"width":16,"height":12,"visible":true,"opacity":1,"data":[0,0,0,0,0,0,0,0,0,0,0,0,0,0,0,0,0,0,0,0,0,0,0,0,0,0,0,0,0,0,0,0,0,0,0,772,729,752,727,0,0,0,0,867,0,0,0,0,0,0,0,0,0,0,0,0,0,0,0,0,0,0,0,0,0,0,0,0,0,0,13,14,0,578,579,580,0,0,0,0,0,0,0,0,0,0,23,24,0,592,593,594,0,0,0,0,0,0,0,0,0,0,0,0,0,0,0,0,0,0,0,0,0,0,0,0,0,0,0,0,0,0,0,0,0,0,0,0,0,0,0,773,769,0,0,0,0,0,772,729,0,0,0,0,0,0,0,0,0,0,0,0,0,0,0,0,0,0,0,0,0,0,0,0,0,0,0,0,0,0,0,0,0,0,0,0,0,0,0,0,0,0,0,0,0,0,0,0,0,0,0,0]},{"type":"objectgroup","id":4,"name":"collisions","x":0,"y":0,"visible":true,"opacity":1,"objects":[{"id":1,"name":"wall","type":"","x":128,"y":64,"width":64,"height":64,"rotation":0,"visible":true,"properties":[]},{"id":2,"name":"collision-2","type":"","x":192,"y":64,"width":64,"height":64,"rotation":0,"visible":true,"properties":[]},{"id":3,"name":"collision-3","type":"","x":256,"y":64,"width":64,"height":64,"rotation":0,"visible":true,"properties":[]},{"id":4,"name":"collision-4","type":"","x":320,"y":64,"width":64,"height":64,"rotation":0,"visible":true,"properties":[]},{"id":5,"name":"collision-5","type":"","x":384,"y":64,"width":64,"height":64,"rotation":0,"visible":true,"properties":[]},{"id":6,"name":"collision-6","type":"","x":448,"y":64,"width":64,"height":64,"rotation":0,"visible":true,"properties":[]},{"id":7,"name":"collision-7","type":"","x":512,"y":64,"width":64,"height":64,"rotation":0,"visible":true,"properties":[]},{"id":8,"name":"collision-8","type":"","x":576,"y":64,"width":64,"height":64,"rotation":0,"visible":true,"properties":[]},{"id":9,"name":"collision-9","type":"","x":640,"y":64,"width":64,"height":64,"rotation":0,"visible":true,"properties":[]},{"id":10,"name":"collision-10","type":"","x":704,"y":64,"width":64,"height":64,"rotation":0,"visible":true,"properties":[]},{"id":11,"name":"collision-11","type":"","x":768,"y":64,"width":64,"height":64,"rotation":0,"visible":true,"properties":[]},{"id":12,"name":"collision-12","type":"","x":128,"y":128,"width":64,"height":64,"rotation":0,"visible":true,"properties":[]},{"id":13,"name":"collision-13","type":"","x":768,"y":128,"width":64,"height":64,"rotation":0,"visible":true,"properties":[]},{"id":14,"name":"collision-14","type":"","x":128,"y":192,"width":64,"height":64,"rotation":0,"visible":true,"properties":[]},{"id":15,"name":"collision-15","type":"","x":768,"y":192,"width":64,"height":64,"rotation":0,"visible":true,"properties":[]},{"id":16,"name":"collision-16","type":"","x":128,"y":256,"width":64,"height":64,"rotation":0,"visible":true,"properties":[]},{"id":17,"name":"collision-17","type":"","x":768,"y":256,"width":64,"height":64,"rotation":0,"visible":true,"properties":[]},{"id":18,"name":"collision-18","type":"","x":128,"y":320,"width":64,"height":64,"rotation":0,"visible":true,"properties":[]},{"id":19,"name":"collision-19","type":"","x":768,"y":320,"width":64,"height":64,"rotation":0,"visible":true,"properties":[]},{"id":20,"name":"collision-20","type":"","x":128,"y":384,"width":64,"height":64,"rotation":0,"visible":true,"properties":[]},{"id":21,"name":"collision-21","type":"","x":768,"y":384,"width":64,"height":64,"rotation":0,"visible":true,"properties":[]},{"id":22,"name":"collision-22","type":"","x":128,"y":448,"width":64,"height":64,"rotation":0,"visible":true,"properties":[]},{"id":23,"name":"collision-23","type":"","x":768,"y":448,"width":64,"height":64,"rotation":0,"visible":true,"properties":[]},{"id":24,"name":"collision-24","type":"","x":128,"y":512,"width":64,"height":64,"rotation":0,"visible":true,"properties":[]},{"id":25,"name":"collision-25","type":"","x":768,"y":512,"width":64,"height":64,"rotation":0,"visible":true,"properties":[]},{"id":26,"name":"collision-26","type":"","x":128,"y":576,"width":64,"height":64,"rotation":0,"visible":true,"properties":[]},{"id":27,"name":"collision-27","type":"","x":192,"y":576,"width":64,"height":64,"rotation":0,"visible":true,"properties":[]},{"id":28,"name":"collision-28","type":"","x":256,"y":576,"width":64,"height":64,"rotation":0,"visible":true,"properties":[]},{"id":29,"name":"collision-29","type":"","x":320,"y":576,"width":64,"height":64,"rotation":0,"visible":true,"properties":[]},{"id":30,"name":"collision-30","type":"","x":384,"y":576,"width":64,"height":64,"rotation":0,"visible":true,"properties":[]},{"id":31,"name":"collision-31","type":"","x":576,"y":576,"width":64,"height":64,"rotation":0,"visible":true,"properties":[]},{"id":32,"name":"collision-32","type":"","x":640,"y":576,"width":64,"height":64,"rotation":0,"visible":true,"properties":[]},{"id":33,"name":"collision-33","type":"","x":704,"y":576,"width":64,"height":64,"rotation":0,"visible":true,"properties":[]},{"id":34,"name":"collision-34","type":"","x":768,"y":576,"width":64,"height":64,"rotation":0,"visible":true,"properties":[]},{"id":35,"name":"collision-35","type":"","x":192,"y":128,"width":64,"height":64,"rotation":0,"visible":true,"properties":[]},{"id":36,"name":"collision-36","type":"","x":256,"y":128,"width":64,"height":64,"rotation":0,"visible":true,"properties":[]},{"id":37,"name":"collision-37","type":"","x":320,"y":128,"width":64,"height":64,"rotation":0,"visible":true,"properties":[]},{"id":38,"name":"collision-38","type":"","x":384,"y":128,"width":64,"height":64,"rotation":0,"visible":true,"properties":[]},{"id":39,"name":"collision-39","type":"","x":704,"y":128,"width":64,"height":64,"rotation":0,"visible":true,"properties":[]},{"id":40,"name":"collision-40","type":"","x":576,"y":256,"width":192,"height":128,"rotation":0,"visible":true,"properties":[]},{"id":41,"name":"collision-41","type":"","x":192,"y":512,"width":64,"height":64,"rotation":0,"visible":true,"properties":[]},{"id":42,"name":"collision-42","type":"","x":256,"y":512,"width":64,"height":64,"rotation":0,"visible":true,"properties":[]},{"id":43,"name":"collision-43","type":"","x":640,"y":512,"width":64,"height":64,"rotation":0,"visible":true,"properties":[]},{"id":44,"name":"collision-44","type":"","x":704,"y":512,"width":64,"height":64,"rotation":0,"visible":true,"properties":[]}]},{"type":"objectgroup","id":5,"name":"doors","x":0,"y":0,"visible":true,"opacity":1,"objects":[{"id":45,"name":"door-exit","type":"","x":448,"y":640,"width":128,"height":64,"rotation":0,"visible":true,"properties":[{"name":"target","type":"string","value":"home"}]}]}],"tilesets":[{"type":"tileset","version":"1.10","tiledversion":"1.12.2","firstgid":1,"name":"TilesetWallSimple","tilewidth":64,"tileheight":64,"spacing":0,"margin":0,"tilecount":110,"columns":10,"image":"../../../OG/ninja-4x/TilesetWallSimple.png","imagewidth":640,"imageheight":704},{"type":"tileset","version":"1.10","tiledversion":"1.12.2","firstgid":111,"name":"TilesetInteriorFloor","tilewidth":64,"tileheight":64,"spacing":0,"margin":0,"tilecount":374,"columns":22,"image":"../../../OG/ninja-4x/TilesetInteriorFloor.png","imagewidth":1408,"imageheight":1088},{"type":"tileset","version":"1.10","tiledversion":"1.12.2","firstgid":485,"name":"TilesetBed","tilewidth":64,"tileheight":64,"spacing":0,"margin":0,"tilecount":168,"columns":14,"image":"../../../OG/ninja-4x/TilesetBed.png","imagewidth":896,"imageheight":768},{"type":"tileset","version":"1.10","tiledversion":"1.12.2","firstgid":653,"name":"TilesetCamp","tilewidth":64,"tileheight":64,"spacing":0,"margin":0,"tilecount":207,"columns":23,"image":"../../../OG/ninja-4x/TilesetCamp.png","imagewidth":1472,"imageheight":576},{"type":"tileset","version":"1.10","tiledversion":"1.12.2","firstgid":860,"name":"TilesetElements","tilewidth":64,"tileheight":64,"spacing":0,"margin":0,"tilecount":27,"columns":9,"image":"../../../OG/ninja-4x/TilesetElements.png","imagewidth":576,"imageheight":192}]}