<?xml version="1.0" encoding="UTF-8"?>
<map version="1.10" tiledversion="1.12.2" orientation="orthogonal" renderorder="right-down" width="16" height="12" tilewidth="64" tileheight="64" infinite="0" nextlayerid="4" nextobjectid="6">
 <tileset firstgid="1" source="../tutorial/Tilemap_color1.tsx"/>
 <layer id="1" name="Floor" width="16" height="12">
  <data encoding="csv">
0,0,0,0,0,0,0,0,0,0,0,0,0,0,0,0,
0,0,0,0,0,0,0,0,0,0,0,0,0,0,0,0,
0,0,0,0,0,0,0,0,0,0,0,0,0,0,0,0,
0,0,0,0,0,0,0,0,0,0,0,0,0,0,0,0,
0,0,0,0,0,0,0,0,0,0,0,0,0,0,0,0,
0,0,0,0,0,0,0,0,0,0,0,0,0,0,0,0,
0,0,0,0,0,0,0,0,0,0,0,0,0,0,0,0,
0,0,0,0,0,0,0,0,0,0,0,0,0,0,0,0,
0,0,0,0,0,0,0,0,0,0,0,0,0,0,0,0,
0,0,0,0,0,0,0,0,0,0,0,0,0,0,0,0,
0,0,0,0,0,0,0,0,0,0,0,0,0,0,0,0,
0,0,0,0,0,0,0,0,0,0,0,0,0,0,0,0
</data>
 </layer>
 <objectgroup id="2" name="collisions">
  <object id="1" name="wall-top" type="collision" x="0" y="0" width="1024" height="128"/>
  <object id="2" name="wall-bottom" type="collision" x="0" y="640" width="1024" height="128"/>
  <object id="3" name="wall-left" type="collision" x="0" y="128" width="128" height="512"/>
  <object id="4" name="wall-right" type="collision" x="896" y="128" width="128" height="512"/>
 </objectgroup>
 <objectgroup id="3" name="doors">
  <object id="5" name="door-exit" type="door" x="488" y="608" width="48" height="64">
   <properties>
    <property name="target" value="tutorial"/>
   </properties>
  </object>
 </objectgroup>
</map>
