{
  "compressionlevel": -1,
  "type": "map",
  "version": "1.10",
  "tiledversion": "1.12.2",
  "orientation": "orthogonal",
  "renderorder": "right-down",
  "infinite": false,
  "width": 16,
  "height": 12,
  "tilewidth": 64,
  "tileheight": 64,
  "nextlayerid": 4,
  "nextobjectid": 6,
  "layers": [
    {
      "type": "tilelayer",
      "id": 1,
      "name": "Floor",
      "x": 0,
      "y": 0,
      "width": 16,
      "height": 12,
      "visible": true,
      "opacity": 1,
      "data": [
        0,
        0,
        0,
        0,
        0,
        0,
        0,
        0,
        0,
        0,
        0,
        0,
        0,
        0,
        0,
        0,
        0,
        0,
        0,
        0,
        0,
        0,
        0,
        0,
        0,
        0,
        0,
        0,
        0,
        0,
        0,
        0,
        0,
        0,
        0,
        0,
        0,
        0,
        0,
        0,
        0,
        0,
        0,
        0,
        0,
        0,
        0,
        0,
        0,
        0,
        0,
        0,
        0,
        0,
        0,
        0,
        0,
        0,
        0,
        0,
        0,
        0,
        0,
        0,
        0,
        0,
        0,
        0,
        0,
        0,
        0,
        0,
        0,
        0,
        0,
        0,
        0,
        0,
        0,
        0,
        0,
        0,
        0,
        0,
        0,
        0,
        0,
        0,
        0,
        0,
        0,
        0,
        0,
        0,
        0,
        0,
        0,
        0,
        0,
        0,
        0,
        0,
        0,
        0,
        0,
        0,
        0,
        0,
        0,
        0,
        0,
        0,
        0,
        0,
        0,
        0,
        0,
        0,
        0,
        0,
        0,
        0,
        0,
        0,
        0,
        0,
        0,
        0,
        0,
        0,
        0,
        0,
        0,
        0,
        0,
        0,
        0,
        0,
        0,
        0,
        0,
        0,
        0,
        0,
        0,
        0,
        0,
        0,
        0,
        0,
        0,
        0,
        0,
        0,
        0,
        0,
        0,
        0,
        0,
        0,
        0,
        0,
        0,
        0,
        0,
        0,
        0,
        0,
        0,
        0,
        0,
        0,
        0,
        0,
        0,
        0,
        0,
        0,
        0,
        0,
        0,
        0,
        0,
        0,
        0,
        0,
        0,
        0,
        0,
        0,
        0,
        0
      ]
    },
    {
      "type": "objectgroup",
      "id": 2,
      "name": "collisions",
      "x": 0,
      "y": 0,
      "visible": true,
      "opacity": 1,
      "objects": [
        {
          "id": 1,
          "name": "wall-top",
          "type": "collision",
          "x": 0,
          "y": 0,
          "width": 1024,
          "height": 128,
          "rotation": 0,
          "visible": true,
          "properties": []
        },
        {
          "id": 2,
          "name": "wall-bottom",
          "type": "collision",
          "x": 0,
          "y": 640,
          "width": 1024,
          "height": 128,
          "rotation": 0,
          "visible": true,
          "properties": []
        },
        {
          "id": 3,
          "name": "wall-left",
          "type": "collision",
          "x": 0,
          "y": 128,
          "width": 128,
          "height": 512,
          "rotation": 0,
          "visible": true,
          "properties": []
        },
        {
          "id": 4,
          "name": "wall-right",
          "type": "collision",
          "x": 896,
          "y": 128,
          "width": 128,
          "height": 512,
          "rotation": 0,
          "visible": true,
          "properties": []
        }
      ]
    },
    {
      "type": "objectgroup",
      "id": 3,
      "name": "doors",
      "x": 0,
      "y": 0,
      "visible": true,
      "opacity": 1,
      "objects": [
        {
          "id": 5,
          "name": "door-exit",
          "type": "door",
          "x": 488,
          "y": 608,
          "width": 48,
          "height": 64,
          "rotation": 0,
          "visible": true,
          "properties": [
            {
              "name": "target",
              "type": "string",
              "value": "tutorial"
            }
          ]
        }
      ]
    }
  ],
  "tilesets": [
    {
      "type": "tileset",
      "version": "1.10",
      "tiledversion": "1.12.2",
      "firstgid": 1,
      "name": "Tilemap_color1",
      "tilewidth": 64,
      "tileheight": 64,
      "spacing": 0,
      "margin": 0,
      "tilecount": 54,
      "columns": 9,
      "image": "../../OG/tiny-swords/Terrain/Tileset/Tilemap_color1.png",
      "imagewidth": 576,
      "imageheight": 384
    }
  ]
}