{"compressionlevel":-1,"type":"map","version":"1.10","tiledversion":"1.12.2","orientation":"orthogonal","renderorder":"right-down","infinite":false,"width":80,"height":45,"tilewidth":64,"tileheight":64,"nextlayerid":6,"nextobjectid":131,"tilesets":[{"firstgid":1,"name":"TilesetWater","tilewidth":64,"tileheight":64,"spacing":0,"margin":0,"tilecount":476,"columns":28,"image":"../../OG/ninja-4x/TilesetWater.png","imagewidth":1792,"imageheight":1088},{"firstgid":477,"name":"TilesetField","tilewidth":64,"tileheight":64,"spacing":0,"margin":0,"tilecount":75,"columns":5,"image":"../../OG/ninja-4x/TilesetField.png","imagewidth":320,"imageheight":960},{"firstgid":552,"name":"TilesetNature","tilewidth":64,"tileheight":64,"spacing":0,"margin":0,"tilecount":504,"columns":24,"image":"../../OG/ninja-4x/TilesetNature.png","imagewidth":1536,"imageheight":1344}],"layers":[{"type":"tilelayer","name":"Water","id":1,"x":0,"y":0,"width":80,"height":45,"opacity":1,"visible":true,"data":[12,12,12,12,12,12,12,12,12,12,12,12,12,12,12,12,12,12,12,12,12,12,12,12,12,12,12,12,12,12,12,12,12,12,12,12,12,12,12,12,12,12,12,12,12,12,12,12,12,12,12,12,12,12,12,12,12,12,12,12,12,12,12,12,12,12,12,12,12,12,12,12,12,109,12,12,12,12,12,12,12,12,12,12,12,12,12,12,12,12,12,12,12,12,12,12,12,12,12,12,12,12,12,12,12,12,12,12,12,12,12,12,12,12,12,12,12,12,12,12,12,12,12,12,12,12,12,12,12,12,12,12,12,12,12,12,12,12,12,12,12,12,12,12,12,12,12,12,12,12,12,12,12,12,12,12,12,12,12,12,12,12,12,12,12,12,12,12,12,12,96,12,12,12,12,12,12,12,12,12,12,12,12,12,12,12,12,12,12,12,12,12,12,12,12,12,12,12,12,12,12,12,12,12,12,12,12,12,12,12,12,12,12,12,12,12,12,12,12,12,12,12,12,12,12,12,12,12,12,12,12,12,12,12,12,12,12,12,12,12,12,12,12,12,12,12,12,12,12,12,12,12,12,12,12,12,12,12,12,12,12,12,12,12,12,12,12,12,12,12,12,12,12,12,12,12,12,12,12,12,12,12,12,12,12,12,12,12,12,12,12,12,12,12,12,12,12,12,12,12,12,109,12,12,12,12,12,12,12,12,12,12,12,12,12,12,12,12,12,12,12,12,12,12,12,12,12,12,12,12,12,12,12,12,12,12,12,12,12,12,12,12,12,12,12,12,12,12,12,12,12,12,12,12,12,12,12,12,12,12,12,12,12,12,12,12,12,12,12,12,12,12,12,12,12,12,12,12,12,12,12,12,12,12,12,12,12,12,12,12,12,12,12,12,12,12,12,12,12,12,12,12,12,12,12,12,12,12,12,12,12,12,12,12,12,12,12,12,12,12,12,12,12,12,12,12,12,12,12,12,12,12,12,12,12,12,12,12,12,12,12,12,12,12,12,12,12,12,12,12,12,12,12,12,12,12,12,12,12,12,12,12,12,12,12,12,12,12,12,12,12,12,12,12,12,12,12,12,12,12,12,12,12,12,12,12,12,12,12,12,12,12,12,12,12,12,12,12,12,12,12,12,12,12,12,12,12,12,12,12,12,12,12,12,12,12,12,12,12,12,12,12,12,12,12,12,12,12,12,12,12,12,12,12,12,12,12,12,12,12,12,12,12,12,12,12,12,12,12,12,12,12,12,12,12,12,12,12,12,12,12,12,12,12,12,12,12,12,12,12,12,12,12,12,12,12,12,12,12,12,12,12,12,12,12,12,12,12,12,12,12,12,12,12,12,12,12,12,12,12,12,12,12,12,12,12,12,12,12,12,12,12,12,12,12,12,12,12,12,12,12,12,12,12,12,12,12,12,12,12,12,12,12,12,12,12,12,12,12,12,12,12,12,12,12,12,12,12,12,12,12,12,12,12,12,12,12,12,12,12,12,12,12,12,12,12,12,12,12,12,12,12,12,12,12,12,12,12,12,12,12,12,12,12,12,12,12,12,12,12,12,12,12,12,12,12,12,12,12,12,12,12,12,12,12,12,12,12,12,12,12,12,12,12,12,12,12,12,12,12,12,12,12,12,12,12,12,12,12,12,12,12,12,12,12,12,12,12,12,12,12,12,12,12,12,12,12,12,12,12,12,12,12,12,12,12,12,12,12,12,12,12,12,12,12,12,12,12,12,12,12,12,12,12,12,12,12,12,12,12,12,12,12,12,12,12,12,12,12,12,12,12,12,12,12,12,12,12,12,12,12,12,12,12,12,12,12,12,12,12,12,12,12,12,12,12,12,12,12,12,12,12,12,12,12,12,12,12,12,12,12,12,12,12,12,12,12,12,12,12,12,12,12,12,12,12,12,12,12,12,12,12,12,12,12,12,12,12,12,12,12,12,12,12,12,12,12,12,12,12,12,12,12,12,12,12,12,12,12,12,12,12,12,12,12,12,12,12,12,12,12,12,12,12,12,12,12,12,12,12,12,12,12,12,12,12,12,12,12,12,12,12,12,12,12,12,12,12,12,12,12,12,12,12,12,12,12,12,12,12,12,12,12,12,12,12,12,12,12,12,12,12,12,12,12,12,12,12,12,12,12,12,12,12,12,12,12,12,12,12,12,12,12,12,12,12,12,12,12,12,12,12,12,12,12,12,12,12,12,12,12,12,12,12,12,12,12,12,12,12,12,12,12,12,12,12,12,12,12,12,12,12,12,12,12,12,12,12,12,12,12,12,12,12,12,12,12,12,12,12,12,12,12,12,12,12,12,12,12,12,12,12,12,12,12,12,12,12,12,12,12,12,12,12,12,12,12,12,12,12,12,12,12,12,12,12,12,12,12,12,12,12,12,12,12,12,12,12,12,12,12,12,12,12,12,12,12,12,12,12,12,12,12,12,12,12,12,12,12,12,12,12,12,12,12,12,12,12,12,12,12,12,12,12,12,12,12,12,12,12,12,12,12,12,12,12,12,12,12,12,12,12,12,12,12,12,12,12,12,12,12,12,12,12,12,12,12,12,12,12,12,12,12,12,12,12,12,12,12,12,12,12,12,12,12,12,12,12,12,12,12,12,12,12,12,12,12,12,12,12,12,12,12,12,12,12,12,12,12,12,12,12,12,12,12,12,12,12,12,12,12,12,12,12,12,12,12,12,12,12,12,12,12,12,12,12,12,12,12,12,12,12,12,12,12,12,12,12,12,12,12,12,12,12,12,12,12,12,12,12,12,12,12,12,12,12,12,12,12,12,12,12,12,12,12,12,12,12,12,12,12,12,12,12,12,12,12,12,12,12,12,12,12,12,12,12,12,12,12,12,12,12,12,12,12,12,12,12,12,12,12,12,12,12,12,12,12,12,12,12,12,12,12,12,12,12,12,12,12,12,12,12,12,12,12,12,12,12,12,12,12,12,12,12,12,12,12,12,12,12,12,12,12,12,12,12,12,12,12,12,12,12,12,12,12,12,12,12,12,12,12,12,12,12,12,12,12,12,12,12,12,12,12,12,12,12,12,12,12,12,12,12,12,12,12,12,12,12,12,12,12,12,12,12,12,12,12,12,12,12,12,12,12,12,12,12,12,12,12,12,12,12,12,12,12,12,12,12,12,12,12,12,12,12,12,12,12,12,12,12,12,12,12,12,12,12,12,12,12,12,12,12,12,12,12,12,12,12,12,12,12,12,12,12,12,12,12,12,12,12,12,12,12,12,12,12,12,12,12,12,12,12,12,12,12,12,12,12,12,12,12,12,12,12,12,12,12,12,12,12,12,12,12,12,12,12,12,12,12,12,12,12,12,12,12,12,12,12,12,12,12,12,12,12,12,12,12,12,12,12,12,12,12,12,12,12,12,12,12,12,12,12,12,12,12,12,12,12,12,12,12,12,12,12,12,12,12,12,12,12,12,12,12,12,12,12,12,12,12,12,12,12,12,12,12,12,12,12,12,12,12,12,12,12,12,12,12,12,12,12,12,12,12,12,12,12,12,12,12,12,12,12,12,12,12,12,12,12,12,12,12,12,12,12,12,12,12,12,12,12,12,12,12,12,12,12,12,12,12,12,12,12,12,12,12,12,12,12,12,12,12,12,12,12,12,12,12,12,12,12,12,12,12,12,12,12,12,12,12,12,12,12,12,12,12,12,12,12,12,12,12,12,12,12,12,12,12,12,12,12,12,12,12,12,12,12,12,12,12,12,12,12,12,12,12,12,12,12,12,12,12,12,12,12,12,12,12,12,12,12,12,12,12,12,12,12,12,12,12,12,12,12,12,12,12,12,12,12,12,12,12,12,12,12,12,12,12,12,12,12,12,12,12,12,12,12,12,12,12,12,12,12,12,12,12,12,12,12,12,12,12,12,12,12,12,12,12,12,12,12,12,12,12,12,12,12,12,12,12,12,12,12,12,12,12,12,12,12,12,12,12,12,12,12,12,12,12,12,12,12,12,12,12,12,12,12,12,12,12,12,12,12,12,12,12,12,12,12,12,12,12,12,12,12,12,12,12,12,12,12,12,12,12,12,12,12,12,12,12,12,12,12,12,12,12,12,12,12,12,12,12,12,12,12,12,12,12,12,12,12,12,12,12,12,12,12,12,12,12,12,12,12,12,12,12,12,12,12,12,12,12,12,12,12,12,12,12,12,12,12,12,12,12,12,12,12,12,12,12,12,12,12,12,12,12,12,12,12,12,12,12,12,12,12,12,12,12,12,12,12,12,12,12,12,12,12,12,12,12,12,12,12,12,12,12,12,12,12,12,12,12,12,12,12,12,12,12,12,12,12,12,12,12,12,12,12,12,12,12,12,12,12,12,12,12,12,12,12,12,12,12,12,12,12,12,12,12,12,12,12,12,12,12,12,12,12,12,12,12,12,12,12,12,12,12,12,12,12,12,12,12,12,12,12,12,12,12,12,12,12,12,12,12,12,12,12,12,12,12,12,12,12,12,12,12,12,12,12,12,12,12,12,12,12,12,12,12,12,12,12,12,12,12,12,12,12,12,12,12,12,12,12,12,12,12,12,12,12,12,12,12,12,12,12,12,12,12,12,12,12,12,12,12,12,12,12,12,12,12,12,12,12,12,12,12,12,12,12,12,12,12,12,12,12,12,12,12,12,12,12,12,12,12,12,12,12,12,12,12,12,12,12,12,12,12,12,12,12,12,12,12,12,12,12,12,12,12,12,12,12,12,12,12,12,12,12,12,12,12,12,12,12,12,12,12,12,12,12,12,12,12,12,12,12,12,12,12,12,12,12,12,12,12,12,12,12,12,12,12,12,12,12,12,12,12,12,12,12,12,12,12,12,12,12,12,12,12,12,12,12,12,12,12,12,12,12,12,12,12,12,12,12,12,12,12,12,12,12,12,12,12,12,12,12,12,12,12,12,12,12,12,12,12,12,12,12,12,12,12,12,12,12,12,12,12,12,12,12,12,12,12,12,12,12,12,12,12,12,12,12,12,12,12,12,12,12,12,12,12,12,12,12,12,12,12,12,12,12,12,12,12,12,12,12,12,12,12,12,12,12,12,12,12,12,12,12,12,12,12,12,12,12,12,12,12,12,12,12,12,12,12,12,12,12,12,12,12,12,12,12,12,12,12,12,12,12,12,12,12,12,12,12,12,12,12,12,12,12,12,12,12,12,12,12,12,12,12,12,12,12,12,12,12,12,12,12,12,12,12,12,12,12,12,12,12,12,12,12,12,12,12,12,12,12,12,12,12,12,12,12,12,12,12,12,12,12,12,12,12,12,12,12,12,12,12,12,12,12,12,12,12,12,12,12,12,12,12,12,12,12,12,12,12,12,12,12,12,12,12,12,12,12,12,12,12,12,12,12,12,12,12,12,12,12,12,12,12,12,12,12,12,12,12,12,12,12,12,12,12,12,12,12,12,12,12,12,12,12,12,12,12,12,12,12,12,12,12,12,12,12,12,12,12,12,12,12,12,12,12,12,12,12,12,12,12,12,12,12,12,12,12,12,12,12,12,12,12,12,12,12,12,12,12,12,12,12,12,12,12,12,12,12,12,12,12,12,12,12,12,12,12,12,12,12,12,12,12,12,12,12,12,12,12,12,12,12,12,12,12,12,12,12,12,12,12,12,12,12,12,12,12,12,12,12,12,12,12,12,12,12,12,12,12,12,12,12,12,12,12,12,12,12,12,12,12,12,12,12,12,12,12,12,12,12,12,12,12,12,12,12,12,12,12,12,12,12,12,12,12,12,12,12,12,12,12,12,12,12,12,12,12,12,12,12,12,12,12,12,12,12,12,12,12,12,12,12,12,12,12,12,12,12,12,12,12,12,12,12,12,12,12,12,12,12,12,12,12,12,12,12,12,12,12,12,12,12,12,12,12,12,12,12,12,12,12,12,12,12,12,12,12,12,12,12,12,12,12,12,12,12,12,12,12,12,12,12,12,12,12,12,12,12,12,12,12,12,12,12,12,12,12,12,12,12,12,12,12,12,12,12,12,12,12,12,12,12,12,12,12,12,12,12,12,12,12,12,12,12,12,12,12,12,12,12,12,12,12,12,12,12,12,12,12,12,12,12,12,12,12,12,12,12,12,12,12,12,12,12,96,12,12,12,12,12,12,12,12,12,12,12,12,12,12,12,12,12,12,12,12,12,12,12,12,12,12,12,12,12,12,12,12,12,12,12,12,12,12,12,12,12,12,12,12,12,12,12,12,12,12,12,12,12,12,12,12,12,12,12,12,12,12,12,12,12,12,12,12,12,12,12,12,12,12,12,12,12,12,12,12,12,12,12,12,12,12,12,12,12,12,12,12,12,12,12,12,12,12,12,12,12,12,12,12,12,12,12,12,12,12,12,12,12,12,12,12,12,12,12,12,12,12,12,12,12,12,12,12,12,12,12,12,12,12,12,12,12,12,12,12,12,12,12,12,12,12,12,12,12,12,12,12,12,12,12,12,12,12,12,12,12,12,12,12,109,12,12,12,12,12,12,12,12,12,12,12,12,12,12,12,12,12,12,12,12,12,12,12,12,12,12,12,12,12,12,12,12,12,12,12,12,12,12,12,12,12,12,12,12,12,12,12,12,12,12,12,12,12,12,12,12,12,12,12,12,12,12,12,12,12,12,12,12,12,12,12,12,12,12,12,12,12,12,12,12,12,12,12,12,12,12,12,12,12,12,12,12,12,12,12,12,12,12,12,12,12,12,12,12,12,12,12,12,12,12,12,12,12,12,12,12,12,12,12,12,12,12,12,12,12,12,12,12,12,12,12,12,12,12,12,12,12,12,12,12,12,12,12,12,12,12,12,12,12,12,12,12,12,12,12,12,12,12,12,109,12,12,12,12,12,12,12,12,12,12,12,12,12,12,12,12,12,12,12,12,12,12,12,12,12,12,12,12,12,12,12,12,12,12,12,12,12,12,12,12,12,12,12,12,12,12,12,12,12,12,12,12,12,12,12,12,12,12,12,12,12,12,12,12,12,12,12,12,12,12,12,12,12,12,12,12,12,12,12,12,12,12,12,12,12,12,12,12,12,12,12,12,12,12,12,12,12,12,12,12,12,12,12,12,12,12,12,12,12,12,12,12,12,12,12,12,12,12,12,12,12,12,12,12,12,12,12,12,12,12,12,12,12,12,12,12,12,12,12,12,12,12,12,12,12,12,12,12,12,12,12,12,12,12,12,12,12,12,12,12,12,12,12,12,12,12,12,12,12,12,12,12,12,12,12,12,12,12,12,12,12,12,12,12,12,12,12,12,12,12,12,12,12,12,12,12,12,12,12,12,12,12,12,12,12,12,12,12,12,12,12,12,12,12,12,12,12,12,12,12,12,12,12,12,12,12,12,12,12,12,12,12,12,12,12,12,12,12,12,12,12,12,12,12,12,12,12,12,12,12,12,12,12,12,12,12,12,12,12,12,12,12,12,12,12,12,12,12,12,12,12,12,12,12,12,12,12,12,12,12,12,12,12,12,12,12,12,12,12,12,12,12,12,12,12,12,12,12,12,12,12,12,12,12,12,12,12,12,12,12,12,12,12,12,12,12,12,12,12,12,12,12,12,12,12,12,12,12,12,12,12,12,12,12,12,12,12,12,12,12,12,12,12,12,12,12,12,12,12,12,12,12,12,12,12,12,12,12,12,12,12,12,12,12,12,12,12,12,12,12,12,12,12,12,12,12,12,12,12,12,12,12,12,12,12,12,12,12,12,12,12,12,12,12,12,12,12,12,12,12,12,12,12,12,12,12,12,12,12,12,12,12,12,12,12,12,12,12,12,12,12,12,12,12,12,12,12,12,12,12,12,12,12,12,12,12,12,12,12,12,12,12,12,12,12,12,12,96,12,12,12,12,12,12,12,12,12,12,12,12,12,12,12,12,12,12,12,12,12,12,12,12,12,12,12,12,12,12,12,12,12,12,12,12,12,12,12,12,12,12,12,12,12,12,12,12,12,12,12,12,12,12,12,12,12,12,12,12,12,12,12,12,12,12,12,12,12,12,12,12,12,12,12,12,12,12,12,12,12,12,12,12,12,12,12,12,12,12,12,12,12,12,12,12,12,12,12,12,12,12,12,12,12,12,12,12]},{"type":"tilelayer","name":"Ground","id":2,"x":0,"y":0,"width":80,"height":45,"opacity":1,"visible":true,"data":[0,0,0,0,0,0,0,0,0,0,0,0,0,0,0,0,0,0,0,0,0,0,0,0,0,0,0,0,0,0,0,0,0,0,0,0,0,477,1073742312,1073742312,1073742312,1073742312,1073742312,1073742312,479,0,0,0,0,0,0,0,0,0,0,0,0,0,0,0,0,0,0,0,0,0,0,0,0,0,0,0,0,0,0,0,0,0,0,0,0,0,0,0,0,0,0,0,0,0,0,0,0,0,0,0,0,0,0,0,0,0,0,0,0,0,0,0,0,0,0,0,0,0,0,0,477,1073742309,480,480,480,480,480,486,489,0,0,0,0,0,0,0,0,0,0,0,0,0,0,0,0,0,0,0,0,0,0,0,0,0,0,0,0,0,0,0,0,0,0,0,0,0,0,0,0,0,0,0,0,0,0,0,0,0,0,0,0,0,0,0,0,0,0,0,0,0,0,0,0,0,0,0,0,0,0,477,1073742309,480,480,480,480,480,480,484,0,0,0,0,0,0,0,0,0,0,0,0,0,0,0,0,0,0,0,0,0,0,0,0,0,0,0,0,0,0,0,0,0,0,0,0,0,0,0,0,0,0,0,0,0,0,0,0,0,0,0,0,0,0,0,0,0,0,0,0,0,0,0,0,0,0,0,0,0,0,477,1073742309,480,480,480,480,480,480,480,484,0,0,0,0,0,0,0,0,0,0,0,0,0,0,0,0,0,0,0,0,0,0,0,0,0,0,0,0,0,0,0,0,0,0,0,0,0,0,0,0,0,0,0,0,0,0,0,0,0,0,0,0,0,0,0,0,0,0,0,0,0,0,0,0,0,0,0,0,0,477,1073742309,480,480,480,480,480,480,480,480,484,0,0,0,0,0,0,0,0,0,0,0,0,0,0,0,0,0,0,0,0,0,0,0,0,0,0,0,0,0,0,0,0,0,0,0,0,0,0,0,0,0,0,0,0,0,0,0,0,0,0,0,0,0,0,0,0,0,0,0,0,0,0,0,0,0,0,0,0,477,1073742309,480,480,480,480,480,480,480,480,480,484,0,0,0,0,0,0,0,477,1073742312,479,0,0,0,0,0,0,0,0,0,0,0,0,0,0,0,0,0,0,0,0,0,0,0,0,0,0,0,0,0,0,0,0,0,0,0,0,0,0,0,0,0,0,0,477,1073742312,479,0,0,0,0,0,0,0,0,0,0,477,2147484126,1073742309,480,480,480,480,480,480,480,480,480,480,484,0,0,0,0,0,0,0,482,480,484,0,0,0,0,0,0,0,0,0,0,0,0,0,0,0,0,0,0,0,0,0,0,0,0,0,0,0,0,0,0,0,0,0,0,0,0,0,0,0,0,0,0,0,482,480,484,0,0,0,0,0,0,0,0,0,477,1073742309,480,480,480,480,480,480,480,480,480,480,480,480,484,0,0,0,0,0,0,0,482,480,484,0,0,0,0,0,0,0,0,0,0,0,0,0,0,0,0,0,0,0,0,0,0,0,0,0,0,0,0,0,0,0,0,0,0,0,0,0,0,0,0,0,0,0,487,488,489,0,0,0,0,0,0,0,0,477,1073742309,480,480,480,480,480,480,480,480,480,480,480,480,480,484,0,0,0,0,0,0,0,487,488,489,0,0,0,0,0,0,0,0,0,0,0,0,0,0,0,0,0,0,0,0,0,0,0,0,0,0,0,0,0,0,0,0,0,0,0,0,0,0,0,0,0,0,0,0,0,0,477,1073742312,1073742312,479,0,0,0,477,1073742309,480,480,480,480,480,480,480,480,480,480,480,480,480,480,1073742310,479,0,0,0,0,0,0,0,0,0,0,0,0,0,0,0,0,0,0,0,0,0,0,0,0,0,0,0,0,0,0,0,0,0,0,0,0,0,0,0,0,0,0,0,0,0,0,0,0,0,0,0,0,0,0,0,482,480,480,1073742310,478,1073742312,2147484126,1073742309,480,480,480,480,480,480,480,480,480,480,480,480,480,480,480,480,1073742310,479,0,0,0,0,0,0,0,0,0,0,0,0,0,0,0,0,0,477,1073742312,479,0,0,0,0,0,0,0,0,0,0,0,477,0,0,0,0,0,0,0,0,0,0,0,0,0,0,0,0,0,0,0,0,0,0,482,480,480,480,480,480,486,1073742302,488,488,3221225950,485,480,480,480,480,480,480,480,480,480,480,480,480,480,1073742310,479,0,0,0,0,0,0,0,0,0,0,0,0,0,0,0,477,1073742309,480,1073742310,479,0,0,0,0,0,0,0,0,0,477,1073742309,479,0,0,0,0,0,0,0,0,0,0,0,0,0,0,0,0,0,0,0,0,477,1073742309,480,480,480,480,486,489,0,0,0,0,487,488,3221225950,485,480,480,480,480,480,480,480,480,480,480,480,1073742310,479,0,0,0,0,0,0,0,0,0,0,0,0,0,477,1073742309,480,480,480,1073742310,479,0,0,0,0,0,0,0,0,482,480,484,0,0,0,0,0,0,0,0,0,0,477,1073742312,1073742312,1073742312,479,0,0,0,0,0,482,480,480,480,480,480,484,0,0,0,0,0,0,0,0,482,480,480,480,480,480,480,480,480,480,480,480,480,1073742310,479,0,0,0,0,0,0,477,1073742312,1073742312,1073742312,1073742312,2147484126,1073742309,480,480,480,480,480,1073742310,479,0,0,0,0,0,0,0,487,488,489,0,0,0,0,0,0,0,0,0,0,482,480,480,480,484,0,0,0,0,0,482,480,480,480,480,480,484,0,0,0,0,0,0,0,0,482,480,480,480,480,480,480,480,480,480,480,480,480,480,484,0,0,0,0,0,477,1073742309,480,480,480,480,480,480,480,480,480,480,480,480,484,0,0,0,0,0,0,0,0,0,0,0,0,0,0,0,0,0,0,0,0,482,480,480,480,1073742310,479,0,0,0,477,1073742309,480,480,480,480,480,484,0,0,0,0,0,0,0,0,482,480,480,480,480,480,480,480,480,480,480,480,480,480,1073742310,479,0,0,0,477,1073742309,480,480,480,480,480,480,480,480,480,480,480,480,480,1073742310,479,0,0,0,0,0,0,0,0,0,0,0,0,0,0,0,0,0,0,0,487,485,480,480,480,1073742310,478,1073742312,2147484126,1073742309,480,480,480,480,480,480,1073742310,479,0,0,0,0,0,0,477,1073742309,480,480,480,480,480,480,480,480,480,480,480,480,480,480,1073742310,478,1073742312,2147484126,1073742309,480,480,480,480,480,480,480,480,480,480,480,480,480,480,480,1073742310,479,0,0,0,0,0,0,0,0,0,0,0,0,0,0,0,0,0,0,0,482,480,480,480,480,480,480,480,480,480,480,480,480,480,480,480,484,0,0,0,0,477,2147484126,1073742309,480,480,480,480,480,480,480,480,480,480,480,480,480,480,480,480,480,480,480,480,480,480,480,480,480,480,480,480,480,480,480,480,480,480,480,480,1073742310,478,479,0,0,0,0,0,0,0,0,0,0,0,0,0,0,0,0,0,482,480,480,480,480,480,480,480,480,480,480,480,480,480,480,480,1073742310,478,1073742312,1073742312,2147484126,1073742309,480,480,480,480,480,480,480,480,480,480,480,480,480,480,480,480,480,480,480,480,480,480,480,480,480,480,480,480,480,480,480,480,480,480,480,480,480,480,480,480,1073742310,479,0,0,0,0,0,0,477,1073742312,479,0,0,0,0,0,0,477,1073742309,480,480,480,480,480,480,480,480,480,480,480,480,480,480,480,480,480,480,480,480,480,480,480,480,480,480,480,480,480,480,480,480,480,480,480,480,480,480,480,480,480,480,480,480,480,480,480,480,480,480,480,480,480,480,480,480,480,480,480,480,480,480,1073742310,478,1073742312,1073742312,1073742312,1073742312,479,482,480,1073742310,478,1073742312,1073742312,1073742312,1073742312,2147484126,1073742309,480,480,480,480,480,480,480,480,480,480,480,480,480,480,480,480,480,480,480,480,480,480,480,480,480,480,480,480,480,480,480,480,480,480,480,480,480,480,480,480,480,480,480,480,480,480,480,480,480,480,480,480,480,480,480,480,480,480,480,480,480,480,480,480,480,480,480,480,480,484,482,480,480,480,480,480,480,480,480,480,480,480,480,480,480,480,480,480,480,480,480,480,480,480,480,480,480,480,480,480,480,480,480,480,480,480,480,480,480,480,480,480,480,480,480,480,480,480,480,480,480,480,480,480,480,480,480,480,480,480,480,480,480,480,480,480,480,480,480,480,480,480,480,480,480,480,480,480,480,484,482,480,480,480,480,480,480,480,480,480,480,480,480,480,480,480,480,480,480,480,480,480,480,480,480,480,480,480,480,480,480,480,480,480,480,480,480,480,480,480,480,480,480,480,480,480,480,480,480,480,480,480,480,480,480,480,480,480,480,480,480,480,480,480,480,480,480,480,480,480,480,480,480,480,480,480,480,480,480,484,482,480,480,480,480,480,480,480,480,480,480,480,480,480,480,480,480,480,480,480,480,480,480,480,480,480,480,480,480,480,480,480,480,480,480,480,480,480,480,480,480,480,480,480,480,480,480,480,480,480,480,480,480,480,480,480,480,480,480,480,480,480,480,480,480,480,480,480,480,480,480,480,480,480,480,480,480,480,480,484,482,480,480,480,480,480,480,480,480,480,480,480,480,480,480,480,480,480,480,480,480,480,480,480,480,480,480,480,480,480,480,480,480,480,480,480,480,480,480,480,480,480,480,480,480,480,480,480,480,480,480,480,480,480,480,480,480,480,480,480,480,480,480,480,480,480,480,480,480,480,480,480,480,480,480,480,480,480,480,484,482,480,480,480,480,480,480,480,480,480,480,480,480,480,480,480,480,486,1073742302,488,488,488,3221225950,485,480,480,480,480,480,480,480,480,480,480,480,480,480,480,480,480,480,480,480,480,480,480,480,480,480,480,480,480,480,480,480,480,480,480,480,480,480,480,480,480,480,480,480,486,1073742302,488,488,488,488,488,488,488,488,488,488,489,487,488,488,488,3221225950,485,480,480,480,480,480,486,1073742302,488,488,488,488,489,0,0,0,0,0,487,485,480,480,480,480,480,480,480,480,480,480,480,480,480,480,480,480,480,480,480,480,480,480,480,480,480,480,480,480,480,480,480,480,480,480,480,480,480,480,480,480,480,486,489,0,0,0,0,0,0,0,0,0,0,0,0,0,0,0,0,0,487,485,480,480,480,486,489,0,0,0,0,0,0,0,0,0,0,0,0,487,485,480,480,480,480,480,480,480,480,480,480,480,480,480,480,480,480,480,480,480,480,480,480,480,480,480,480,480,480,480,480,480,480,480,480,480,480,480,480,480,486,489,0,0,0,0,0,0,0,0,0,0,0,0,0,0,0,0,0,0,0,482,480,480,486,489,0,0,0,0,0,0,0,0,0,0,0,0,0,0,482,480,480,480,480,480,480,480,480,480,480,480,480,480,480,480,480,480,480,480,480,480,480,480,480,480,480,480,486,1073742302,488,3221225950,485,480,480,480,480,480,480,480,484,0,0,0,0,0,0,0,0,0,0,0,0,0,0,0,0,0,0,0,0,482,480,486,489,0,0,0,0,0,0,0,0,0,0,0,0,0,0,0,487,485,480,480,480,480,480,480,480,480,480,480,480,480,480,480,480,480,480,480,480,480,480,480,486,1073742302,488,488,489,0,0,0,487,488,488,3221225950,485,480,480,486,489,0,0,0,0,0,0,0,0,0,0,0,0,0,0,0,0,0,0,0,0,487,488,489,0,0,0,0,0,0,0,0,0,0,0,0,0,0,0,0,0,482,480,480,480,480,480,480,480,480,480,480,480,480,480,480,480,480,480,480,480,480,480,480,484,0,0,0,0,0,0,0,0,0,0,0,487,488,488,489,0,0,0,0,0,0,0,0,0,0,0,0,0,0,0,0,0,0,0,0,0,0,0,0,0,0,0,0,0,0,0,0,0,0,0,477,0,0,0,0,0,487,3221225950,485,480,480,480,480,480,480,480,480,480,480,480,480,480,480,480,480,480,480,480,480,484,0,0,0,0,0,0,0,0,0,0,0,0,0,0,0,0,0,0,0,0,0,0,0,0,0,0,0,0,0,0,0,0,0,0,0,0,0,0,0,0,0,0,0,0,0,0,0,0,0,477,1073742309,479,0,0,0,0,0,0,487,485,480,480,480,480,480,480,480,480,480,480,480,480,480,480,480,480,480,480,480,1073742310,479,0,0,0,0,0,0,0,0,0,0,0,0,0,0,0,0,0,0,0,0,0,0,0,0,0,0,0,0,0,0,0,0,0,0,0,0,0,0,0,0,0,0,0,0,0,0,0,0,482,480,1073742310,479,0,0,0,0,0,0,487,485,480,480,480,480,480,480,480,480,480,480,480,480,480,480,480,480,480,480,480,1073742310,478,1073742312,479,0,0,479,0,0,0,0,0,0,0,0,0,0,0,0,0,0,0,0,0,0,0,0,0,0,0,0,0,0,0,0,0,0,0,0,0,0,0,0,0,0,0,0,0,0,487,485,480,1073742310,479,0,0,0,0,0,0,482,480,480,480,480,480,480,480,480,480,480,480,480,480,480,480,486,1073742302,488,3221225950,485,480,480,1073742310,478,2147484126,484,0,0,0,0,0,0,0,0,0,0,0,0,0,0,0,0,0,0,0,0,0,0,0,0,0,0,0,0,0,0,0,0,0,0,0,0,0,0,0,0,0,0,0,482,480,480,484,0,0,0,0,0,0,482,480,480,480,480,480,480,480,480,480,480,480,480,480,480,486,489,0,0,0,487,485,1073742302,488,3221225950,485,486,479,0,0,0,0,0,0,0,0,0,0,0,0,0,0,0,0,0,0,0,0,0,0,0,0,0,0,0,0,0,0,0,0,0,0,0,0,0,0,0,0,0,0,487,485,480,484,0,0,0,0,0,0,482,480,480,480,480,480,480,480,480,480,480,480,480,480,486,489,0,0,0,0,0,487,0,0,0,487,489,0,0,0,0,0,0,0,0,0,0,0,0,0,0,0,0,0,0,0,0,0,0,0,0,0,0,0,0,0,0,0,0,0,0,0,0,0,0,0,0,0,0,0,0,482,480,484,0,0,0,0,0,0,487,485,480,480,480,480,480,480,480,480,480,480,480,486,489,0,0,0,0,0,0,0,0,0,0,0,0,0,0,0,0,0,0,0,0,0,0,0,0,0,0,0,0,0,0,0,0,0,0,0,0,0,0,0,0,0,0,0,0,0,0,0,0,0,0,0,0,0,0,0,0,487,3221225950,485,479,0,0,0,0,0,0,487,485,480,480,480,480,480,480,480,480,480,480,484,0,0,0,0,0,0,0,0,0,0,0,0,0,0,0,0,0,0,0,0,0,0,0,0,0,0,0,0,0,0,0,0,0,0,0,0,0,0,0,0,0,0,0,0,0,0,0,0,0,0,0,0,0,0,0,0,0,0,0,487,485,478,1073742312,1073742312,479,0,0,0,487,485,480,480,480,480,480,480,480,480,480,484,0,0,0,0,0,0,0,0,0,0,0,0,0,0,0,0,0,0,0,0,0,0,0,0,0,0,0,0,0,0,0,0,0,0,0,0,0,0,0,0,0,0,0,0,0,0,0,0,0,0,0,0,0,0,0,0,0,0,0,0,482,480,480,480,484,0,0,0,0,487,488,3221225950,485,480,480,480,480,480,480,484,0,0,0,0,0,0,0,0,0,0,0,0,0,0,0,0,0,0,0,0,0,0,0,0,0,0,0,0,0,0,0,0,0,0,0,0,0,0,0,0,0,0,0,0,0,0,0,0,0,0,0,0,0,0,0,0,0,0,0,0,482,480,480,480,484,0,0,0,0,0,0,0,487,485,480,480,480,480,480,484,0,0,0,0,0,0,0,0,0,0,0,0,0,0,0,0,0,0,0,0,0,0,0,0,0,0,0,0,0,0,0,0,0,0,0,0,0,0,0,0,0,0,0,0,0,0,0,0,0,0,0,0,0,0,0,0,0,0,0,0,482,480,480,480,484,0,0,0,0,0,0,0,0,482,480,480,480,480,480,484,0,0,0,0,0,0,0,0,0,0,0,0,0,0,0,0,477,479,0,0,0,0,0,0,0,0,0,0,0,0,0,0,0,0,0,0,0,0,0,0,0,0,0,0,0,0,0,0,0,0,0,0,0,0,0,0,0,0,0,0,487,485,480,480,1073742310,479,0,0,0,0,0,0,0,482,480,480,480,480,480,484,0,0,0,0,0,0,0,0,0,0,0,0,0,0,0,0,487,489,0,0,0,0,0,0,0,0,0,0,0,0,0,0,0,0,0,0,0,0,0,0,0,0,0,0,0,0,0,0,0,0,0,0,0,0,0,0,0,0,0,0,0,487,488,488,488,489,0,0,0,0,0,0,0,487,488,488,488,488,488,489,0,0,0,0,0,0,0,0,0,0,0,0,0,0,0,0,0,0,0,0,0,0,0,0,0,0,0,0,0,0,0,0,0,0,0,0]},{"type":"tilelayer","name":"Grass","id":3,"x":0,"y":0,"width":80,"height":45,"opacity":1,"visible":true,"data":[0,0,0,0,0,0,0,0,0,0,0,0,0,0,0,0,0,0,0,0,0,0,0,0,0,0,0,0,0,0,0,0,0,0,0,0,0,0,0,0,0,0,0,0,0,0,0,0,0,0,0,0,0,0,0,0,0,0,0,0,0,0,0,0,0,0,0,0,0,0,0,0,0,0,0,0,0,0,0,0,0,0,0,0,0,0,0,0,0,0,0,0,0,0,0,0,0,0,0,0,0,0,0,0,0,0,0,0,0,0,0,0,0,0,0,0,0,0,0,0,0,0,0,0,0,0,0,0,0,0,0,0,0,0,0,0,0,0,0,0,0,0,0,0,0,0,0,0,0,0,0,0,0,0,0,0,0,0,0,0,0,0,0,0,0,0,0,0,0,0,0,0,0,0,0,0,0,0,0,0,0,0,0,0,0,0,0,0,0,0,0,0,0,0,0,0,0,0,0,0,0,0,0,0,0,0,0,0,0,0,0,0,0,0,0,0,0,0,0,0,0,0,0,0,0,0,0,0,0,0,0,0,0,0,0,0,0,0,0,0,0,0,0,0,0,0,0,0,0,0,0,0,0,0,0,0,0,0,0,0,0,0,0,0,0,0,0,0,0,0,0,0,0,0,0,0,492,494,0,0,0,0,0,0,0,0,0,0,0,0,0,0,0,0,0,0,0,0,0,0,0,0,0,0,0,0,0,0,0,0,0,0,0,0,0,0,0,0,0,0,0,0,0,0,0,0,0,0,0,0,0,0,0,0,0,0,0,0,0,0,0,0,0,0,0,0,0,0,0,0,0,0,0,0,0,492,1073742324,1073742325,494,0,0,0,0,0,0,0,0,0,0,0,0,0,0,0,0,0,0,0,0,0,0,0,0,0,0,0,0,0,0,0,0,0,0,0,0,0,0,0,0,0,0,0,0,0,0,0,0,0,0,0,0,0,0,0,0,0,0,0,0,0,0,0,0,0,0,0,0,0,0,0,0,0,0,0,492,1073742324,495,495,499,0,0,0,0,0,0,0,0,0,0,0,0,0,0,0,0,0,0,0,0,0,0,0,0,0,0,0,0,0,0,0,0,0,0,0,0,0,0,0,0,0,0,0,0,0,0,0,0,0,0,0,0,0,0,0,0,0,0,0,0,0,0,0,0,0,0,0,0,0,0,0,0,0,0,492,1073742324,495,495,495,499,0,0,0,0,0,0,0,0,0,0,0,0,0,0,0,0,0,0,0,0,0,0,0,0,0,0,0,0,0,0,0,0,0,0,0,0,0,0,0,0,0,0,0,0,0,0,0,0,0,0,0,0,0,0,0,0,0,0,0,0,0,0,0,0,0,0,0,0,0,0,0,0,492,2147484141,1073742324,495,495,495,501,504,0,0,0,0,0,0,0,0,0,0,0,0,0,0,0,0,0,0,0,0,0,0,0,0,0,0,0,0,0,0,0,0,0,0,0,0,0,0,0,0,0,0,0,0,0,0,0,0,0,0,0,0,0,0,0,0,0,0,0,0,0,0,0,0,0,0,0,0,0,0,0,492,1073742324,495,495,495,495,495,499,0,0,0,0,0,0,0,0,0,0,0,0,0,0,0,0,0,0,0,0,0,0,0,0,0,0,0,0,0,0,0,0,0,0,0,0,0,0,0,0,0,0,0,0,0,0,0,0,0,0,0,0,0,0,0,0,0,0,0,0,0,0,0,0,0,0,0,0,0,0,0,0,502,500,495,495,495,495,495,499,0,0,0,0,0,0,0,0,0,0,0,0,0,0,0,0,0,0,0,0,0,0,0,0,0,0,0,0,0,0,0,0,0,0,0,0,0,0,0,0,0,0,0,0,0,0,0,0,0,0,0,0,0,0,0,0,0,0,0,0,0,0,0,0,0,0,0,0,0,0,0,0,0,502,500,495,495,495,495,499,0,0,0,0,492,494,0,0,0,0,0,0,0,0,0,0,0,0,0,0,0,0,0,0,0,0,0,0,0,0,0,0,0,0,0,0,0,0,0,0,0,0,0,0,0,0,0,0,0,0,0,0,0,0,0,0,0,0,0,0,0,0,0,0,492,494,0,0,0,0,0,0,0,0,502,503,3221225965,500,495,499,0,0,0,492,1073742324,1073742325,494,0,0,0,0,0,0,0,0,0,0,0,0,0,0,0,0,0,0,0,0,0,0,0,0,0,0,0,0,0,0,0,0,0,0,0,0,0,0,0,0,0,0,0,0,0,0,0,0,0,0,0,0,0,0,0,0,492,1073742324,1073742325,494,0,0,0,0,0,0,0,0,0,0,497,495,499,0,0,0,497,495,495,1073742325,494,0,0,0,0,0,0,0,0,0,0,0,0,0,0,0,0,0,492,1073742327,494,0,0,0,0,0,0,0,0,0,0,0,0,0,0,0,0,0,0,0,0,0,0,0,0,0,0,0,0,0,0,0,0,0,0,492,1073742324,495,495,499,0,0,0,0,0,0,0,0,0,0,497,495,499,0,0,0,497,495,495,495,1073742325,494,0,0,0,0,0,0,0,0,0,0,0,0,0,0,0,492,1073742324,495,1073742325,494,0,0,0,0,0,0,0,0,0,0,0,0,0,0,0,0,0,0,0,0,0,0,0,0,0,0,0,0,0,0,0,0,0,497,495,495,495,499,0,0,0,0,0,0,0,0,0,0,497,495,499,0,0,0,497,495,495,495,495,1073742325,494,0,0,0,0,0,0,0,0,492,1073742327,1073742327,1073742327,1073742327,2147484141,1073742324,495,495,495,1073742325,494,0,0,0,0,0,0,0,0,0,0,0,0,0,0,0,0,0,0,0,0,0,0,0,0,0,0,0,0,0,0,0,0,497,495,495,495,499,0,0,0,0,0,0,0,0,0,0,497,495,499,0,0,0,502,500,495,495,495,495,499,0,0,0,0,0,0,0,492,1073742324,495,495,495,495,495,495,495,495,495,495,499,0,0,0,0,0,0,0,0,0,0,0,0,0,0,0,0,0,0,0,0,0,0,0,0,492,494,0,0,0,0,0,492,1073742324,495,495,495,499,0,0,0,0,0,0,0,0,0,0,497,495,1073742325,494,0,0,0,497,495,495,495,495,1073742325,494,0,0,0,0,0,492,1073742324,495,495,495,495,495,495,495,495,495,495,495,1073742325,494,0,0,0,0,0,0,0,0,0,0,0,0,0,0,0,0,0,0,0,0,0,0,492,1073742324,1073742325,493,1073742327,1073742327,1073742327,2147484141,1073742324,495,495,495,495,1073742325,494,0,0,0,0,0,0,0,0,492,1073742324,495,501,504,0,0,0,502,500,495,495,495,495,1073742325,493,1073742327,1073742327,1073742327,2147484141,1073742324,495,495,495,495,495,495,495,495,495,495,495,495,495,1073742325,494,0,0,0,0,0,0,0,0,0,0,0,0,0,0,0,0,0,0,0,0,0,497,495,495,495,495,495,495,495,495,495,495,495,495,495,499,0,0,0,0,0,0,492,2147484141,1073742324,501,1073742317,504,0,0,0,0,0,502,503,503,3221225965,500,495,495,495,495,495,495,495,495,495,495,495,495,495,495,495,495,495,495,495,495,495,1073742325,494,0,0,0,0,0,0,0,0,0,0,0,0,0,0,0,0,0,0,0,0,502,500,495,495,501,1073742317,503,503,503,503,3221225965,500,495,495,1073742325,493,1073742327,1073742327,1073742327,1073742327,2147484141,1073742324,495,495,499,0,0,0,0,0,0,0,0,0,0,0,502,503,3221225965,500,495,495,495,495,495,495,495,495,495,495,495,495,495,495,495,495,495,495,501,504,0,0,0,0,0,0,0,0,0,0,0,0,0,0,0,0,0,0,0,0,0,502,503,503,504,0,0,0,0,0,0,502,503,3221225965,500,495,495,495,495,495,495,495,495,495,499,0,0,0,0,0,0,0,0,0,0,0,0,0,0,502,503,3221225965,500,495,495,495,495,495,495,495,495,495,495,495,501,1073742317,503,503,504,0,0,0,0,0,0,0,0,0,0,0,0,0,0,0,0,0,0,0,0,0,0,0,0,0,0,0,0,0,0,0,0,0,0,0,502,503,3221225965,500,495,495,495,495,495,501,504,0,0,0,0,0,0,0,0,0,0,0,0,0,0,0,0,0,502,3221225965,500,495,495,495,495,495,495,501,1073742317,503,504,0,0,0,0,0,0,0,0,0,0,0,0,0,0,0,0,0,0,0,0,0,0,0,0,0,0,0,0,0,0,0,0,0,0,0,0,0,0,0,0,0,0,502,503,3221225965,500,495,501,504,0,0,0,0,0,0,0,0,0,0,0,0,0,0,0,0,0,0,0,0,502,503,503,503,503,503,503,504,0,0,0,0,0,0,0,0,0,0,0,0,0,0,0,0,0,0,0,0,0,0,0,0,0,0,0,0,0,0,0,0,0,492,0,0,0,0,0,0,0,0,0,0,0,0,0,0,502,503,504,0,0,0,0,0,0,0,0,0,0,0,0,492,1073742327,1073742327,494,0,0,0,0,0,0,0,0,0,0,0,0,0,0,0,0,0,0,0,0,0,0,0,0,0,0,0,0,0,0,0,0,0,0,0,0,0,0,0,0,0,0,0,0,0,0,502,504,0,0,0,0,0,0,0,0,0,0,0,0,0,0,0,0,0,0,0,0,0,0,0,0,0,0,0,492,1073742324,495,495,1073742325,493,1073742327,494,0,0,0,0,0,0,0,0,0,0,0,0,0,0,0,0,0,0,0,0,0,0,0,0,0,0,0,0,0,0,0,0,0,0,0,0,0,0,0,0,0,0,0,0,0,0,0,0,0,0,0,0,0,0,0,0,0,0,0,0,0,0,0,0,0,0,0,0,0,0,0,0,497,495,495,495,495,495,495,1073742325,493,494,0,0,0,0,0,0,0,0,0,0,0,0,0,0,0,0,0,0,0,0,0,0,0,0,0,0,0,0,0,0,0,0,0,0,0,0,0,0,0,0,0,0,0,0,0,0,0,0,0,0,0,492,1073742327,1073742327,1073742327,494,0,0,0,492,494,0,0,0,0,0,0,0,0,0,497,495,495,495,495,495,495,495,495,1073742325,493,1073742327,1073742327,1073742327,1073742327,1073742327,1073742327,1073742327,1073742327,494,0,0,0,0,0,0,0,0,0,0,0,0,0,0,0,0,0,0,0,0,0,0,0,0,0,0,0,0,0,0,0,0,0,0,0,0,0,0,0,0,0,497,495,495,495,1073742325,493,1073742327,2147484141,1073742324,1073742325,493,494,0,0,0,0,0,492,2147484141,1073742324,495,495,495,495,495,495,501,1073742317,503,503,503,3221225965,500,495,495,495,495,495,499,0,0,0,0,0,0,0,0,0,0,0,0,0,0,0,0,0,0,0,0,0,0,0,0,0,0,0,0,0,0,0,0,0,0,0,0,0,0,0,0,0,502,500,495,495,495,495,495,495,495,495,495,1073742325,494,0,0,0,492,1073742324,495,495,495,495,501,1073742317,503,503,504,0,0,0,0,0,502,503,503,3221225965,500,501,504,0,0,0,0,0,0,0,0,0,0,0,0,0,0,0,0,0,0,0,0,0,0,0,0,0,0,0,0,0,0,0,0,0,0,0,0,0,0,0,0,0,0,502,500,495,495,495,495,495,495,495,495,501,504,0,0,0,497,495,495,495,495,495,499,0,0,0,0,0,0,0,0,0,0,0,0,0,502,504,0,0,0,0,0,0,0,0,0,0,0,0,0,0,0,0,0,0,0,0,0,0,0,0,0,0,0,0,0,0,0,0,0,0,0,0,0,0,0,0,0,0,0,0,502,500,495,495,495,495,495,495,495,499,0,0,0,492,1073742324,495,495,495,495,495,499,0,0,0,0,0,0,0,0,0,0,0,0,0,0,0,0,0,0,0,0,0,0,0,0,0,0,0,0,0,0,0,0,0,0,0,0,0,0,0,0,0,0,0,0,0,0,0,0,0,0,0,0,0,0,0,0,0,0,0,0,502,500,495,495,495,495,495,495,499,0,0,0,497,495,495,495,495,495,495,499,0,0,0,0,0,0,0,0,0,0,0,0,0,0,0,0,0,0,0,0,0,0,0,0,0,0,0,0,0,0,0,0,0,0,0,0,0,0,0,0,0,0,0,0,0,0,0,0,0,0,0,0,0,0,0,0,0,0,0,0,0,502,500,495,495,495,495,495,499,0,0,0,497,495,495,495,495,495,501,504,0,0,0,0,0,0,0,0,0,0,0,0,0,0,0,0,0,0,0,0,0,0,0,0,0,0,0,0,0,0,0,0,0,0,0,0,0,0,0,0,0,0,0,0,0,0,0,0,0,0,0,0,0,0,0,0,0,0,0,0,0,0,497,495,495,495,495,495,499,0,0,0,497,495,495,495,501,1073742317,504,0,0,0,0,0,0,0,0,0,0,0,0,0,0,0,0,0,0,0,0,0,0,0,0,0,0,0,0,0,0,0,0,0,0,0,0,0,0,0,0,0,0,0,0,0,0,0,0,0,0,0,0,0,0,0,0,0,0,0,0,0,0,0,497,495,495,495,495,495,499,0,0,0,497,495,495,501,504,0,0,0,0,0,0,0,0,0,0,0,0,0,0,0,0,0,0,0,0,0,0,0,0,0,0,0,0,0,0,0,0,0,0,0,0,0,0,0,0,0,0,0,0,0,0,0,0,0,0,0,0,0,0,0,0,0,0,0,0,0,0,0,0,0,497,495,495,495,495,495,499,0,0,0,502,500,501,504,0,0,0,0,0,0,0,0,0,0,0,0,0,0,0,0,0,0,0,0,0,0,0,0,0,0,0,0,0,0,0,0,0,0,0,0,0,0,0,0,0,0,0,0,0,0,0,0,0,0,0,0,0,0,0,0,0,0,0,0,0,0,0,0,0,0,502,500,495,495,495,495,499,0,0,0,0,502,504,0,0,0,0,0,0,0,0,0,0,0,0,0,0,0,0,0,0,0,0,0,0,0,0,0,0,0,0,0,0,0,0,0,0,0,0,0,0,0,0,0,0,0,0,0,0,0,0,0,0,0,0,0,0,0,0,0,0,0,0,0,0,0,0,0,0,0,0,502,500,495,495,495,499,0,0,0,0,0,0,0,0,0,0,0,0,0,0,0,0,0,0,0,0,0,0,0,0,0,0,0,0,0,0,0,0,0,0,0,0,0,0,0,0,0,0,0,0,0,0,0,0,0,0,0,0,0,0,0,0,0,0,0,0,0,0,0,0,0,0,0,0,0,0,0,0,0,0,0,502,500,495,501,504,0,0,0,0,0,0,0,0,0,0,0,0,0,0,0,0,0,0,0,0,0,0,0,0,0,0,0,0,0,0,0,0,0,0,0,0,0,0,0,0,0,0,0,0,0,0,0,0,0,0,0,0,0,0,0,0,0,0,0,0,0,0,0,0,0,0,0,0,0,0,0,0,0,0,0,0,502,503,504,0,0,0,0,0,0,0,0,0,0,0,0,0,0,0,0,0,0,0,0,0,0,0,0,0,0,0,0,0,0,0,0,0,0,0,0,0,0,0,0,0,0,0,0,0,0,0,0,0,0,0,0,0,0,0,0,0,0,0,0,0,0,0,0,0,0,0,0,0,0,0,0,0,0,0,0,0,0,0,0,0,0,0,0,0,0,0,0,0,0,0,0,0,0,0,0,0,0,0,0,0,0,0,0,0,0,0,0,0,0,0,0,0,0,0,0,0,0,0,0,0,0,0,0,0,0,0,0,0,0,0,0,0,0,0,0,0,0,0,0,0,0,0,0,0,0,0,0,0,0,0,0,0,0,0,0,0,0,0,0,0,0,0,0,0,0,0,0,0,0,0,0,0,0,0,0,0,0,0,0,0,0,0,0,0,0,0,0,0,0,0,0,0,0,0,0,0,0,0,0,0,0,0,0,0,0,0,0,0,0,0,0,0,0,0,0,0,0,0,0,0,0,0,0,0,0,0,0,0,0,0,0,0,0,0,0,0,0,0,0,0,0,0,0,0,0,0,0,0,0,0,0,0,0,0,0,0,0,0,0,0,0,0,0,0,0,0,0,0,0,0,0,0,0,0,0,0,0,0,0,0,0,0,0,0,0,0,0,0,0,0,0,0,0,0,0,0,0,0,0,0,0,0,0,0,0,0,0,0,0,0,0,0,0,0,0,0,0,0,0,0,0,0,0,0,0,0,0,0,0,0,0,0,0,0,0,0,0,0,0,0,0,0,0,0,0,0,0,0,0,0,0,0,0,0,0,0,0,0,0,0,0,0,0,0,0,0,0,0,0,0,0,0,0,0,0,0,0,0,0,0,0,0,0,0,0,0,0,0,0,0,0,0,0,0,0,0,0,0,0,0,0,0,0,0,0,0,0,0,0,0,0,0,0,0,0,0,0,0,0,0,0,0,0,0,0,0,0,0,0,0,0,0,0,0,0,0,0,0,0,0,0,0]},{"type":"tilelayer","name":"Decor","id":4,"x":0,"y":0,"width":80,"height":45,"opacity":1,"visible":true,"data":[0,0,0,0,0,0,0,0,0,0,0,0,0,0,0,0,0,0,0,0,0,0,0,0,0,0,0,0,0,0,0,0,0,0,0,0,0,0,0,0,0,0,0,0,0,0,0,0,0,0,0,0,0,0,0,0,0,0,0,0,0,0,0,0,0,0,0,0,0,0,0,0,0,0,0,0,0,0,0,0,0,0,0,0,0,0,0,0,0,0,0,0,0,0,0,0,0,0,0,0,0,0,0,0,0,0,0,0,0,0,0,0,0,0,0,0,0,0,0,0,0,0,0,0,0,0,0,0,0,0,0,0,0,0,0,0,0,0,0,0,0,0,0,0,0,0,0,0,0,0,0,0,0,0,0,0,0,0,0,0,0,0,0,0,0,0,0,0,0,0,0,0,0,0,0,0,0,0,0,0,0,0,0,0,0,0,0,0,0,0,0,0,0,0,0,0,0,0,0,0,0,0,0,0,0,0,0,0,0,0,0,0,0,0,0,0,0,0,0,0,0,0,0,0,0,0,0,0,0,0,0,0,0,0,0,0,0,0,0,0,0,0,0,0,0,0,0,0,0,0,0,0,0,0,0,0,0,0,0,0,0,0,0,0,0,0,0,0,0,0,0,0,0,0,0,604,605,606,607,0,0,0,0,0,0,0,0,0,0,0,0,0,0,0,0,0,0,0,0,0,0,0,0,0,0,0,0,0,0,0,0,0,0,0,0,0,0,0,0,0,0,0,0,0,0,0,0,0,0,0,0,0,0,0,0,0,0,0,0,0,0,0,0,0,0,0,0,0,0,0,0,0,0,0,0,628,629,630,631,0,0,0,0,0,0,0,0,0,0,0,0,0,0,0,0,0,0,0,0,0,0,0,0,0,0,0,0,0,0,0,0,0,0,0,0,0,0,0,0,0,0,0,0,0,0,0,0,0,0,0,0,0,0,0,0,0,0,0,0,0,0,0,0,0,0,0,0,0,0,0,0,0,0,0,0,652,653,654,655,0,0,0,0,0,0,0,0,0,0,0,0,0,0,0,0,0,0,0,0,0,0,0,0,0,0,0,0,0,0,0,0,0,0,0,0,0,0,0,0,0,0,0,0,0,0,0,0,0,0,0,0,0,0,0,0,0,0,0,0,0,0,0,0,0,0,0,0,0,0,0,604,605,606,607,0,0,568,569,0,0,0,0,0,0,0,0,0,0,0,0,0,0,0,0,0,0,0,0,0,0,0,0,0,0,0,0,0,0,0,0,0,0,0,0,0,0,0,0,0,0,0,0,0,0,0,0,0,0,0,0,0,0,0,0,0,0,0,0,0,0,0,0,0,0,0,0,0,0,0,0,628,629,630,631,0,0,592,593,0,0,0,0,0,0,0,0,0,0,0,0,0,0,0,0,0,0,0,0,0,0,0,0,0,0,0,0,0,0,0,0,0,0,0,0,0,0,0,0,0,0,0,0,0,0,0,0,0,0,0,0,0,0,0,0,0,0,0,0,0,0,0,0,0,0,0,0,0,0,0,0,652,653,654,655,0,0,0,0,0,0,0,0,0,0,0,0,0,0,0,0,0,0,0,0,0,0,0,0,0,0,0,0,0,0,0,0,0,0,0,0,0,0,0,0,0,0,0,0,0,0,0,0,0,0,0,0,0,0,0,0,0,0,0,0,0,0,0,0,0,0,0,0,0,0,0,0,0,0,0,0,0,0,0,0,0,780,0,0,0,0,0,0,0,0,0,0,0,0,0,0,0,0,0,0,0,0,0,0,0,0,0,0,0,0,0,0,0,0,0,0,0,0,0,0,0,0,0,0,0,0,0,0,0,0,0,0,0,0,0,0,0,0,0,0,0,0,0,0,0,0,0,0,0,0,0,0,780,0,780,0,0,822,0,0,0,0,0,0,0,0,0,0,0,0,0,0,0,0,0,0,0,0,0,0,0,0,0,0,0,0,0,0,0,0,0,0,0,0,0,0,0,0,0,0,0,0,0,0,0,0,0,0,0,0,0,0,0,0,0,0,0,0,0,0,0,0,0,0,0,0,780,0,0,819,0,0,0,0,0,0,0,0,0,0,822,0,0,0,0,0,0,0,0,0,0,0,0,0,0,0,0,0,0,0,0,0,0,0,0,0,0,0,0,0,0,0,0,0,0,0,0,0,0,0,0,0,0,0,0,0,0,0,0,0,0,0,0,0,0,0,0,0,0,0,0,0,0,0,0,0,0,0,0,0,0,0,0,0,0,0,0,0,0,0,0,0,0,0,0,0,0,0,0,798,817,0,0,0,0,0,0,0,0,0,0,0,0,0,0,0,0,0,804,0,0,0,0,0,0,0,0,0,0,0,0,0,0,0,0,0,0,0,0,0,0,0,0,0,0,0,0,0,0,0,0,0,0,0,0,0,0,0,0,0,0,0,0,0,0,0,0,0,0,0,0,0,0,0,0,0,0,0,0,0,0,0,0,0,0,0,0,0,0,0,0,0,0,0,0,0,0,0,0,604,605,606,607,0,0,0,0,0,0,0,0,0,0,0,0,0,0,0,0,0,0,0,0,0,0,0,0,0,0,0,0,0,0,0,0,0,0,0,0,0,0,0,0,0,0,0,0,0,0,0,0,0,0,0,0,0,0,0,0,0,0,0,816,0,0,0,0,0,0,0,0,0,0,0,0,0,0,0,0,628,629,630,631,0,0,0,0,0,0,0,0,0,0,0,0,0,0,0,0,0,0,0,0,0,0,0,0,0,0,0,0,0,0,0,0,0,0,0,0,0,0,0,0,0,0,0,0,0,0,0,0,0,0,0,0,0,0,794,0,0,0,0,0,0,0,0,0,0,0,0,0,0,0,0,0,0,0,0,0,652,653,654,655,0,0,0,0,0,0,0,0,0,0,0,0,0,0,0,0,0,0,0,0,0,0,0,0,0,0,0,0,0,0,0,0,0,0,0,0,0,0,0,0,0,0,0,0,0,0,0,0,0,0,0,0,0,0,0,0,0,568,569,0,0,0,0,0,0,0,0,0,0,795,0,0,0,0,0,0,0,0,0,0,0,0,0,0,0,0,0,0,0,0,0,0,0,0,0,0,0,0,0,0,0,0,0,0,0,0,0,0,0,0,0,0,0,0,0,560,561,0,0,0,0,0,0,0,0,0,0,0,0,0,0,0,0,0,0,0,0,592,593,0,0,0,0,0,0,0,0,0,792,0,564,565,0,0,0,0,0,0,0,0,0,0,0,0,0,0,0,0,0,0,0,0,0,0,0,0,0,0,0,0,0,0,0,0,558,559,554,555,0,0,0,0,0,0,0,584,585,0,0,0,0,0,0,0,0,0,0,0,0,0,0,0,0,0,0,0,0,0,0,0,0,0,0,0,0,757,758,0,0,0,588,589,0,0,0,0,0,0,0,0,0,786,0,801,0,0,0,0,0,0,0,0,0,0,0,0,0,0,0,0,0,0,0,0,582,583,578,579,0,0,0,0,0,0,0,0,0,0,0,0,0,0,0,0,0,792,0,0,0,0,0,0,0,0,0,0,0,0,0,0,0,0,0,0,0,781,782,0,792,0,0,0,0,0,0,0,0,0,0,0,0,0,0,0,0,0,0,0,0,0,0,0,0,0,0,0,0,0,0,0,0,0,0,0,0,0,0,0,0,0,0,0,0,0,0,0,0,0,0,0,0,0,0,0,0,0,0,0,0,0,0,0,0,0,0,0,0,0,0,0,0,0,0,0,780,0,0,0,0,0,0,0,0,0,0,554,555,0,0,0,0,0,0,0,0,0,0,0,0,0,0,0,0,0,0,0,0,0,0,0,0,0,0,0,0,0,0,0,0,0,0,0,0,0,0,0,0,0,0,0,0,0,0,0,0,0,0,0,0,0,0,0,0,0,0,0,0,0,0,0,0,0,0,0,0,0,0,0,0,0,0,0,0,0,0,578,579,0,0,0,0,0,0,0,0,0,0,0,0,0,0,0,0,0,0,0,0,0,0,0,0,0,0,0,0,0,0,0,0,0,0,0,0,0,0,0,0,0,0,0,0,0,0,0,0,0,0,0,0,0,0,0,0,0,0,0,0,0,0,0,0,0,0,0,0,0,0,0,0,0,0,0,0,0,0,825,0,0,0,0,0,0,0,0,0,0,0,0,0,0,0,0,0,0,0,0,0,0,0,0,0,0,0,0,0,0,0,0,0,0,0,0,0,0,0,0,0,0,0,0,0,0,0,0,0,0,0,0,0,0,0,0,0,0,0,0,0,0,0,0,0,556,557,0,0,0,0,0,0,0,0,0,0,0,0,0,0,0,0,0,0,0,0,0,0,0,0,0,0,0,0,0,0,0,0,0,0,0,0,0,0,0,0,0,0,0,0,0,0,0,0,0,0,0,0,0,0,0,0,0,0,0,0,0,0,0,0,0,0,0,0,0,0,0,0,0,0,0,819,0,0,580,581,0,0,0,0,0,0,0,0,0,0,0,0,0,0,0,0,0,0,0,0,0,0,0,0,0,0,0,0,0,0,0,0,0,0,0,0,0,0,0,0,0,0,0,0,0,0,0,0,0,0,0,0,0,0,0,0,0,0,0,0,0,0,0,0,0,0,0,0,0,0,0,0,0,0,0,562,563,0,0,0,0,0,0,0,0,0,0,0,0,0,0,0,0,0,0,0,0,0,0,0,0,0,0,0,0,0,0,0,0,0,0,0,0,0,0,0,0,0,0,0,0,0,0,0,0,0,0,0,0,0,0,0,0,0,0,0,0,780,0,0,0,0,0,0,0,0,0,0,0,0,0,0,0,0,0,586,587,0,0,0,0,0,0,0,566,567,604,605,606,607,0,0,0,0,0,0,0,0,0,0,0,0,0,0,0,0,0,0,0,0,0,0,0,0,0,0,0,0,0,0,0,0,0,0,0,0,0,0,0,0,0,0,0,0,0,0,0,0,0,0,0,0,0,0,0,608,609,610,611,0,0,0,0,0,0,0,0,0,0,780,0,0,0,0,590,591,628,629,630,631,0,0,564,565,0,0,0,0,0,0,0,0,0,0,0,0,0,0,0,0,0,0,0,0,0,0,0,0,0,0,0,0,0,0,0,0,0,0,0,0,0,0,0,0,0,0,0,0,0,760,761,0,0,0,0,632,633,634,635,0,0,0,0,757,758,0,0,0,0,0,0,0,0,0,0,0,652,653,654,655,800,0,588,589,0,0,0,0,0,0,0,0,0,0,0,0,0,0,0,0,0,0,0,0,0,0,0,0,0,0,0,0,0,0,0,0,0,0,0,0,0,0,0,0,0,0,0,0,0,784,785,0,0,0,0,656,657,658,659,0,0,0,0,781,782,0,0,0,0,0,0,0,0,0,0,0,0,0,0,0,0,0,0,0,0,0,0,0,0,0,0,0,0,0,0,0,0,0,0,0,0,0,0,0,0,0,0,0,0,0,0,0,0,0,0,0,0,0,0,0,0,0,0,0,0,0,0,798,0,0,566,567,0,0,560,561,0,0,0,0,0,0,0,0,0,0,0,0,0,0,0,0,0,0,0,0,0,0,0,0,0,0,0,0,0,0,0,0,0,0,0,0,0,0,0,0,0,0,0,0,0,0,0,0,0,0,0,0,0,0,0,0,0,0,0,0,0,0,0,0,0,0,0,0,0,0,0,0,0,0,590,591,0,0,584,585,794,0,0,0,0,0,0,0,0,0,0,0,0,0,0,0,0,0,0,0,0,0,0,0,0,0,0,0,0,0,0,0,0,0,0,0,0,0,0,0,0,0,0,0,0,0,0,0,0,0,0,0,0,0,0,0,0,0,0,0,0,0,0,0,0,0,0,0,0,0,0,0,0,0,0,562,563,556,557,0,0,0,0,0,0,562,563,0,783,0,0,0,0,0,0,0,0,0,0,0,0,0,0,0,0,0,0,0,0,0,0,0,0,0,0,0,0,0,0,0,0,0,0,0,0,0,0,0,0,0,0,0,0,0,0,0,0,0,0,0,0,0,0,0,0,0,0,0,0,0,0,0,0,0,0,586,587,580,581,0,0,0,0,0,0,586,587,0,0,0,0,0,0,0,0,0,0,0,0,0,0,0,0,0,0,0,0,0,0,0,0,0,0,0,0,0,0,0,0,0,0,0,0,0,0,0,0,0,0,0,0,0,0,0,0,0,0,0,0,0,0,0,0,0,0,0,0,0,0,0,0,0,0,0,0,0,0,0,0,0,0,0,0,0,0,0,0,0,0,0,0,0,0,0,0,0,0,0,0,0,0,0,0,0,0,0,0,0,0,0,0,0,0,0,0,0,0,0,0,0,0,0,0,0,0,0,0,0,0,0,0,0,0,0,0,0,0,0,0,0,0,0,0,0,0,0,0,0,0,0,0,0,0,0,0,0,0,566,567,0,0,0,0,0,0,0,796,0,0,0,0,0,0,0,0,0,783,0,0,0,0,0,0,0,0,0,0,0,0,0,0,0,0,0,0,0,0,0,0,0,0,0,0,0,0,0,0,0,0,0,0,0,0,0,0,0,0,0,0,0,0,0,0,0,0,0,0,0,0,0,0,0,0,0,0,0,0,590,591,0,0,0,0,0,0,0,0,0,0,0,0,0,0,0,0,0,0,0,0,0,0,0,0,0,0,0,0,0,0,0,0,0,0,0,0,0,0,0,0,0,0,0,0,0,0,0,0,0,0,0,0,0,0,0,0,0,0,0,0,0,0,0,0,0,0,0,0,0,0,0,0,0,0,0,0,0,0,560,561,794,0,0,0,0,0,0,0,0,0,0,0,0,0,0,0,0,0,0,0,0,0,0,0,0,0,0,0,0,0,0,0,0,0,0,0,0,0,0,0,0,0,0,0,0,0,0,0,0,0,0,0,0,0,0,0,0,0,0,0,0,0,0,0,0,0,0,0,0,0,0,0,0,0,0,0,0,0,584,585,760,761,0,0,0,0,0,0,0,0,0,0,0,0,0,0,0,0,0,0,0,0,0,0,0,0,0,0,0,0,0,0,0,0,0,0,0,0,0,0,0,0,0,0,0,0,0,0,0,0,0,0,0,0,0,0,0,0,0,0,0,0,0,0,0,0,0,0,0,0,0,0,0,0,0,0,0,0,0,0,784,785,0,0,0,0,0,0,0,0,0,0,0,0,0,0,0,0,0,0,0,0,0,0,0,0,0,0,0,0,0,0,0,0,0,0,0,0,0,0,0,0,0,0,0,0,0,0,0,0,0,0,0,0,0,0,0,0,0,0,0,0,0,0,0,0,0,0,0,0,0,0,0,0,0,0,0,0,0,0,0,0,0,0,0,0,0,0,0,0,0,0,0,0,0,0,0,0,0,0,0,0,0,0,0,0,0,0,0,0,0,0,0,0,0,0,0,0,0,0,0,0,0,0,0,0,0,0,0,0,0,0,0,0,0,0,0,0,0,0,0,0,0,0,0,0,0,0,0,0,0,0,0,0,0,0,0,0,0,0,0,0,0,0,0,0,0,0,0,0,0,0,0,0,0,0,0,0,0,0,0,0,0,0,0,0,0,0,0,0,0,0,0,0,0,0,0,0,0,0,0,0,0,0,0,0,0,0,0,0,0,0,0,0,0,0,0,0,0,0,0,0,0,0,0,0,0,0,0,0,0,0,0,0,0,0,0,0,0,0,0,0,0,0,0,0,0,0,0,0,0,0,0,0,0,0,0,0,0,0,0,0,0,0,0,0,0,0,0,0,0,0,0,0,0,0,0,0,0,0,0,0,0,0,0,0,0,0,0,0,0,0,0,0,0,0,0,0,0,0,0,0,0,0,0,0,0,0,0,0,0,0,0,0,0,0,0,0,0,0,0,0,0,0,0,0,0,0,0,0,0,0,0,0,0,0,0,0,0,0,0,0,0,0,0,0,0,0,0,0,0,0,0,0,0,0,0,0,0,0,0,0,0,0,0,0,0,0,0,0,0,0,0,0,0,0,0,0,0,0,0,0,0,0,0,0,0,0,0,0,0,0,0,0,0,0,0,0,0,0,0,0,0,0,0,0,0,0,0,0,0,0,0,0,0,0,0,0,0,0,0,0,0,0,0,0,0,0,0,0,0,0,0,0,0,0,0,0,0,0,0,0,0,0,0]},{"type":"objectgroup","name":"collisions","id":5,"x":0,"y":0,"width":5120,"height":2880,"opacity":1,"visible":true,"draworder":"topdown","objects":[{"id":1,"name":"water","x":0,"y":0,"width":2368,"height":64,"rotation":0,"visible":true,"type":"","properties":[]},{"id":2,"name":"water","x":2880,"y":0,"width":2240,"height":64,"rotation":0,"visible":true,"type":"","properties":[]},{"id":3,"name":"water","x":0,"y":64,"width":2304,"height":64,"rotation":0,"visible":true,"type":"","properties":[]},{"id":4,"name":"water","x":2880,"y":64,"width":2240,"height":64,"rotation":0,"visible":true,"type":"","properties":[]},{"id":5,"name":"water","x":0,"y":128,"width":2240,"height":64,"rotation":0,"visible":true,"type":"","properties":[]},{"id":6,"name":"water","x":2816,"y":128,"width":2304,"height":64,"rotation":0,"visible":true,"type":"","properties":[]},{"id":7,"name":"water","x":0,"y":192,"width":2176,"height":64,"rotation":0,"visible":true,"type":"","properties":[]},{"id":8,"name":"water","x":2816,"y":192,"width":2304,"height":64,"rotation":0,"visible":true,"type":"","properties":[]},{"id":9,"name":"water","x":0,"y":256,"width":2112,"height":64,"rotation":0,"visible":true,"type":"","properties":[]},{"id":10,"name":"water","x":2816,"y":256,"width":2304,"height":64,"rotation":0,"visible":true,"type":"","properties":[]},{"id":11,"name":"water","x":0,"y":320,"width":2048,"height":64,"rotation":0,"visible":true,"type":"","properties":[]},{"id":12,"name":"water","x":2816,"y":320,"width":448,"height":64,"rotation":0,"visible":true,"type":"","properties":[]},{"id":13,"name":"water","x":3456,"y":320,"width":1664,"height":64,"rotation":0,"visible":true,"type":"","properties":[]},{"id":14,"name":"water","x":0,"y":384,"width":1088,"height":64,"rotation":0,"visible":true,"type":"","properties":[]},{"id":15,"name":"water","x":1280,"y":384,"width":640,"height":64,"rotation":0,"visible":true,"type":"","properties":[]},{"id":16,"name":"water","x":2816,"y":384,"width":448,"height":64,"rotation":0,"visible":true,"type":"","properties":[]},{"id":17,"name":"water","x":3456,"y":384,"width":1664,"height":64,"rotation":0,"visible":true,"type":"","properties":[]},{"id":18,"name":"water","x":0,"y":448,"width":1088,"height":64,"rotation":0,"visible":true,"type":"","properties":[]},{"id":19,"name":"water","x":1280,"y":448,"width":576,"height":64,"rotation":0,"visible":true,"type":"","properties":[]},{"id":20,"name":"water","x":2816,"y":448,"width":448,"height":64,"rotation":0,"visible":true,"type":"","properties":[]},{"id":21,"name":"water","x":3456,"y":448,"width":1664,"height":64,"rotation":0,"visible":true,"type":"","properties":[]},{"id":22,"name":"water","x":0,"y":512,"width":1088,"height":64,"rotation":0,"visible":true,"type":"","properties":[]},{"id":23,"name":"water","x":1280,"y":512,"width":512,"height":64,"rotation":0,"visible":true,"type":"","properties":[]},{"id":24,"name":"water","x":2816,"y":512,"width":448,"height":64,"rotation":0,"visible":true,"type":"","properties":[]},{"id":25,"name":"water","x":3456,"y":512,"width":1664,"height":64,"rotation":0,"visible":true,"type":"","properties":[]},{"id":26,"name":"water","x":0,"y":576,"width":1280,"height":64,"rotation":0,"visible":true,"type":"","properties":[]},{"id":27,"name":"water","x":1536,"y":576,"width":192,"height":64,"rotation":0,"visible":true,"type":"","properties":[]},{"id":28,"name":"water","x":2880,"y":576,"width":2240,"height":64,"rotation":0,"visible":true,"type":"","properties":[]},{"id":29,"name":"water","x":0,"y":640,"width":1280,"height":64,"rotation":0,"visible":true,"type":"","properties":[]},{"id":30,"name":"water","x":2944,"y":640,"width":1088,"height":64,"rotation":0,"visible":true,"type":"","properties":[]},{"id":31,"name":"water","x":4224,"y":640,"width":704,"height":64,"rotation":0,"visible":true,"type":"","properties":[]},{"id":32,"name":"water","x":4992,"y":640,"width":128,"height":64,"rotation":0,"visible":true,"type":"","properties":[]},{"id":33,"name":"water","x":0,"y":704,"width":1280,"height":64,"rotation":0,"visible":true,"type":"","properties":[]},{"id":34,"name":"water","x":3008,"y":704,"width":960,"height":64,"rotation":0,"visible":true,"type":"","properties":[]},{"id":35,"name":"water","x":4288,"y":704,"width":576,"height":64,"rotation":0,"visible":true,"type":"","properties":[]},{"id":36,"name":"water","x":5056,"y":704,"width":64,"height":64,"rotation":0,"visible":true,"type":"","properties":[]},{"id":37,"name":"water","x":0,"y":768,"width":1216,"height":64,"rotation":0,"visible":true,"type":"","properties":[]},{"id":38,"name":"water","x":1728,"y":768,"width":256,"height":64,"rotation":0,"visible":true,"type":"","properties":[]},{"id":39,"name":"water","x":3072,"y":768,"width":832,"height":64,"rotation":0,"visible":true,"type":"","properties":[]},{"id":40,"name":"water","x":4352,"y":768,"width":512,"height":64,"rotation":0,"visible":true,"type":"","properties":[]},{"id":41,"name":"water","x":5056,"y":768,"width":64,"height":64,"rotation":0,"visible":true,"type":"","properties":[]},{"id":42,"name":"water","x":0,"y":832,"width":576,"height":64,"rotation":0,"visible":true,"type":"","properties":[]},{"id":43,"name":"water","x":896,"y":832,"width":320,"height":64,"rotation":0,"visible":true,"type":"","properties":[]},{"id":44,"name":"water","x":1664,"y":832,"width":512,"height":64,"rotation":0,"visible":true,"type":"","properties":[]},{"id":45,"name":"water","x":3136,"y":832,"width":384,"height":64,"rotation":0,"visible":true,"type":"","properties":[]},{"id":46,"name":"water","x":4416,"y":832,"width":448,"height":64,"rotation":0,"visible":true,"type":"","properties":[]},{"id":47,"name":"water","x":5056,"y":832,"width":64,"height":64,"rotation":0,"visible":true,"type":"","properties":[]},{"id":48,"name":"water","x":0,"y":896,"width":576,"height":64,"rotation":0,"visible":true,"type":"","properties":[]},{"id":49,"name":"water","x":896,"y":896,"width":320,"height":64,"rotation":0,"visible":true,"type":"","properties":[]},{"id":50,"name":"water","x":1664,"y":896,"width":512,"height":64,"rotation":0,"visible":true,"type":"","properties":[]},{"id":51,"name":"water","x":3136,"y":896,"width":320,"height":64,"rotation":0,"visible":true,"type":"","properties":[]},{"id":52,"name":"water","x":4416,"y":896,"width":704,"height":64,"rotation":0,"visible":true,"type":"","properties":[]},{"id":53,"name":"water","x":0,"y":960,"width":576,"height":64,"rotation":0,"visible":true,"type":"","properties":[]},{"id":54,"name":"water","x":960,"y":960,"width":192,"height":64,"rotation":0,"visible":true,"type":"","properties":[]},{"id":55,"name":"water","x":1664,"y":960,"width":512,"height":64,"rotation":0,"visible":true,"type":"","properties":[]},{"id":56,"name":"water","x":3200,"y":960,"width":192,"height":64,"rotation":0,"visible":true,"type":"","properties":[]},{"id":57,"name":"water","x":4480,"y":960,"width":640,"height":64,"rotation":0,"visible":true,"type":"","properties":[]},{"id":58,"name":"water","x":0,"y":1024,"width":576,"height":64,"rotation":0,"visible":true,"type":"","properties":[]},{"id":59,"name":"water","x":1728,"y":1024,"width":384,"height":64,"rotation":0,"visible":true,"type":"","properties":[]},{"id":60,"name":"water","x":4544,"y":1024,"width":576,"height":64,"rotation":0,"visible":true,"type":"","properties":[]},{"id":61,"name":"water","x":0,"y":1088,"width":640,"height":64,"rotation":0,"visible":true,"type":"","properties":[]},{"id":62,"name":"water","x":1728,"y":1088,"width":256,"height":64,"rotation":0,"visible":true,"type":"","properties":[]},{"id":63,"name":"water","x":4672,"y":1088,"width":448,"height":64,"rotation":0,"visible":true,"type":"","properties":[]},{"id":64,"name":"water","x":0,"y":1152,"width":640,"height":64,"rotation":0,"visible":true,"type":"","properties":[]},{"id":65,"name":"water","x":4736,"y":1152,"width":384,"height":64,"rotation":0,"visible":true,"type":"","properties":[]},{"id":66,"name":"water","x":192,"y":1216,"width":384,"height":64,"rotation":0,"visible":true,"type":"","properties":[]},{"id":67,"name":"water","x":1152,"y":1664,"width":320,"height":64,"rotation":0,"visible":true,"type":"","properties":[]},{"id":68,"name":"water","x":4352,"y":1664,"width":768,"height":64,"rotation":0,"visible":true,"type":"","properties":[]},{"id":69,"name":"water","x":0,"y":1728,"width":320,"height":64,"rotation":0,"visible":true,"type":"","properties":[]},{"id":70,"name":"water","x":768,"y":1728,"width":768,"height":64,"rotation":0,"visible":true,"type":"","properties":[]},{"id":71,"name":"water","x":4288,"y":1728,"width":832,"height":64,"rotation":0,"visible":true,"type":"","properties":[]},{"id":72,"name":"water","x":0,"y":1792,"width":384,"height":64,"rotation":0,"visible":true,"type":"","properties":[]},{"id":73,"name":"water","x":704,"y":1792,"width":896,"height":64,"rotation":0,"visible":true,"type":"","properties":[]},{"id":74,"name":"water","x":4224,"y":1792,"width":896,"height":64,"rotation":0,"visible":true,"type":"","properties":[]},{"id":75,"name":"water","x":0,"y":1856,"width":384,"height":64,"rotation":0,"visible":true,"type":"","properties":[]},{"id":76,"name":"water","x":640,"y":1856,"width":960,"height":64,"rotation":0,"visible":true,"type":"","properties":[]},{"id":77,"name":"water","x":3456,"y":1856,"width":192,"height":64,"rotation":0,"visible":true,"type":"","properties":[]},{"id":78,"name":"water","x":4224,"y":1856,"width":896,"height":64,"rotation":0,"visible":true,"type":"","properties":[]},{"id":79,"name":"water","x":0,"y":1920,"width":384,"height":64,"rotation":0,"visible":true,"type":"","properties":[]},{"id":80,"name":"water","x":576,"y":1920,"width":1088,"height":64,"rotation":0,"visible":true,"type":"","properties":[]},{"id":81,"name":"water","x":3200,"y":1920,"width":704,"height":64,"rotation":0,"visible":true,"type":"","properties":[]},{"id":82,"name":"water","x":4160,"y":1920,"width":960,"height":64,"rotation":0,"visible":true,"type":"","properties":[]},{"id":83,"name":"water","x":0,"y":1984,"width":1280,"height":64,"rotation":0,"visible":true,"type":"","properties":[]},{"id":84,"name":"water","x":1344,"y":1984,"width":320,"height":64,"rotation":0,"visible":true,"type":"","properties":[]},{"id":85,"name":"water","x":3200,"y":1984,"width":1920,"height":64,"rotation":0,"visible":true,"type":"","properties":[]},{"id":86,"name":"water","x":0,"y":2048,"width":1216,"height":64,"rotation":0,"visible":true,"type":"","properties":[]},{"id":87,"name":"water","x":1408,"y":2048,"width":384,"height":64,"rotation":0,"visible":true,"type":"","properties":[]},{"id":88,"name":"water","x":3264,"y":2048,"width":1856,"height":64,"rotation":0,"visible":true,"type":"","properties":[]},{"id":89,"name":"water","x":0,"y":2112,"width":1216,"height":64,"rotation":0,"visible":true,"type":"","properties":[]},{"id":90,"name":"water","x":1472,"y":2112,"width":384,"height":64,"rotation":0,"visible":true,"type":"","properties":[]},{"id":91,"name":"water","x":3456,"y":2112,"width":128,"height":64,"rotation":0,"visible":true,"type":"","properties":[]},{"id":92,"name":"water","x":3648,"y":2112,"width":1472,"height":64,"rotation":0,"visible":true,"type":"","properties":[]},{"id":93,"name":"water","x":0,"y":2176,"width":1216,"height":64,"rotation":0,"visible":true,"type":"","properties":[]},{"id":94,"name":"water","x":1536,"y":2176,"width":384,"height":64,"rotation":0,"visible":true,"type":"","properties":[]},{"id":95,"name":"water","x":3648,"y":2176,"width":1472,"height":64,"rotation":0,"visible":true,"type":"","properties":[]},{"id":96,"name":"water","x":0,"y":2240,"width":1280,"height":64,"rotation":0,"visible":true,"type":"","properties":[]},{"id":97,"name":"water","x":1536,"y":2240,"width":384,"height":64,"rotation":0,"visible":true,"type":"","properties":[]},{"id":98,"name":"water","x":3008,"y":2240,"width":192,"height":64,"rotation":0,"visible":true,"type":"","properties":[]},{"id":99,"name":"water","x":3712,"y":2240,"width":1408,"height":64,"rotation":0,"visible":true,"type":"","properties":[]},{"id":100,"name":"water","x":0,"y":2304,"width":1280,"height":64,"rotation":0,"visible":true,"type":"","properties":[]},{"id":101,"name":"water","x":1536,"y":2304,"width":384,"height":64,"rotation":0,"visible":true,"type":"","properties":[]},{"id":102,"name":"water","x":2944,"y":2304,"width":320,"height":64,"rotation":0,"visible":true,"type":"","properties":[]},{"id":103,"name":"water","x":3328,"y":2304,"width":192,"height":64,"rotation":0,"visible":true,"type":"","properties":[]},{"id":104,"name":"water","x":3648,"y":2304,"width":1472,"height":64,"rotation":0,"visible":true,"type":"","properties":[]},{"id":105,"name":"water","x":0,"y":2368,"width":1344,"height":64,"rotation":0,"visible":true,"type":"","properties":[]},{"id":106,"name":"water","x":1536,"y":2368,"width":384,"height":64,"rotation":0,"visible":true,"type":"","properties":[]},{"id":107,"name":"water","x":2880,"y":2368,"width":2240,"height":64,"rotation":0,"visible":true,"type":"","properties":[]},{"id":108,"name":"water","x":0,"y":2432,"width":1344,"height":64,"rotation":0,"visible":true,"type":"","properties":[]},{"id":109,"name":"water","x":1600,"y":2432,"width":384,"height":64,"rotation":0,"visible":true,"type":"","properties":[]},{"id":110,"name":"water","x":2816,"y":2432,"width":2304,"height":64,"rotation":0,"visible":true,"type":"","properties":[]},{"id":111,"name":"water","x":0,"y":2496,"width":1472,"height":64,"rotation":0,"visible":true,"type":"","properties":[]},{"id":112,"name":"water","x":1856,"y":2496,"width":192,"height":64,"rotation":0,"visible":true,"type":"","properties":[]},{"id":113,"name":"water","x":2816,"y":2496,"width":2304,"height":64,"rotation":0,"visible":true,"type":"","properties":[]},{"id":114,"name":"water","x":0,"y":2560,"width":1536,"height":64,"rotation":0,"visible":true,"type":"","properties":[]},{"id":115,"name":"water","x":1856,"y":2560,"width":256,"height":64,"rotation":0,"visible":true,"type":"","properties":[]},{"id":116,"name":"water","x":2816,"y":2560,"width":2304,"height":64,"rotation":0,"visible":true,"type":"","properties":[]},{"id":117,"name":"water","x":0,"y":2624,"width":1536,"height":64,"rotation":0,"visible":true,"type":"","properties":[]},{"id":118,"name":"water","x":1856,"y":2624,"width":448,"height":64,"rotation":0,"visible":true,"type":"","properties":[]},{"id":119,"name":"water","x":2816,"y":2624,"width":2304,"height":64,"rotation":0,"visible":true,"type":"","properties":[]},{"id":120,"name":"water","x":0,"y":2688,"width":1536,"height":64,"rotation":0,"visible":true,"type":"","properties":[]},{"id":121,"name":"water","x":1856,"y":2688,"width":512,"height":64,"rotation":0,"visible":true,"type":"","properties":[]},{"id":122,"name":"water","x":2816,"y":2688,"width":1024,"height":64,"rotation":0,"visible":true,"type":"","properties":[]},{"id":123,"name":"water","x":3968,"y":2688,"width":1152,"height":64,"rotation":0,"visible":true,"type":"","properties":[]},{"id":124,"name":"water","x":0,"y":2752,"width":1536,"height":64,"rotation":0,"visible":true,"type":"","properties":[]},{"id":125,"name":"water","x":1920,"y":2752,"width":448,"height":64,"rotation":0,"visible":true,"type":"","properties":[]},{"id":126,"name":"water","x":2816,"y":2752,"width":1024,"height":64,"rotation":0,"visible":true,"type":"","properties":[]},{"id":127,"name":"water","x":3968,"y":2752,"width":1152,"height":64,"rotation":0,"visible":true,"type":"","properties":[]},{"id":128,"name":"water","x":0,"y":2816,"width":1600,"height":64,"rotation":0,"visible":true,"type":"","properties":[]},{"id":129,"name":"water","x":1920,"y":2816,"width":448,"height":64,"rotation":0,"visible":true,"type":"","properties":[]},{"id":130,"name":"water","x":2816,"y":2816,"width":2304,"height":64,"rotation":0,"visible":true,"type":"","properties":[]}]}]}