{"compressionlevel":-1,"type":"map","version":"1.10","tiledversion":"1.12.2","orientation":"orthogonal","renderorder":"right-down","infinite":false,"width":80,"height":45,"tilewidth":64,"tileheight":64,"nextlayerid":8,"nextobjectid":169,"tilesets":[{"firstgid":1,"name":"TilesetWater","tilewidth":64,"tileheight":64,"spacing":0,"margin":0,"tilecount":476,"columns":28,"image":"../../../OG/ninja-4x/TilesetWater.png","imagewidth":1792,"imageheight":1088},{"firstgid":477,"name":"TilesetField","tilewidth":64,"tileheight":64,"spacing":0,"margin":0,"tilecount":75,"columns":5,"image":"../../../OG/ninja-4x/TilesetField.png","imagewidth":320,"imageheight":960},{"firstgid":552,"name":"TilesetNature","tilewidth":64,"tileheight":64,"spacing":0,"margin":0,"tilecount":504,"columns":24,"image":"../../../OG/ninja-4x/TilesetNature.png","imagewidth":1536,"imageheight":1344}],"layers":[{"type":"tilelayer","name":"Water","id":1,"x":0,"y":0,"width":80,"height":45,"opacity":1,"visible":true,"data":[12,12,12,12,12,12,12,12,12,12,12,12,12,12,12,12,12,12,12,12,12,12,12,12,12,12,12,12,12,12,12,12,12,12,12,12,12,12,12,12,12,12,12,12,12,12,12,12,12,12,12,12,12,12,12,12,12,12,12,12,12,12,12,12,12,12,12,12,12,12,12,12,12,109,12,12,12,12,12,12,12,12,12,12,12,12,12,12,12,12,12,12,12,12,12,12,12,12,12,12,12,12,12,12,12,12,12,12,12,12,12,12,12,12,12,12,12,12,12,12,12,12,12,12,12,12,12,12,12,12,12,12,12,12,12,12,12,12,12,12,12,12,12,12,12,12,12,12,12,12,12,12,12,12,12,12,12,12,12,12,12,12,12,12,12,12,12,12,12,12,96,12,12,12,12,12,12,12,12,12,12,12,12,12,12,12,12,12,12,12,12,12,12,12,12,12,12,12,12,12,12,12,12,12,12,12,12,12,12,12,12,12,12,12,12,12,12,12,12,12,12,12,12,12,12,12,12,12,12,12,12,12,12,12,12,12,12,12,12,12,12,12,12,12,12,12,12,12,12,12,12,12,12,12,12,12,12,12,12,12,12,12,12,12,12,12,12,12,12,12,12,12,12,12,12,12,12,12,12,12,12,12,12,12,12,12,12,12,12,12,12,12,12,12,12,12,12,12,12,12,12,109,12,12,12,12,12,12,12,12,12,12,12,12,12,12,12,12,12,12,12,12,12,12,12,12,12,12,12,12,12,12,12,12,12,12,12,12,12,12,12,12,12,12,12,12,12,12,12,12,12,12,12,12,12,12,12,12,12,12,12,12,12,12,12,12,12,12,12,12,12,12,12,12,12,12,12,12,12,12,12,12,12,12,12,12,12,12,12,12,12,12,12,12,12,12,12,12,12,12,12,12,12,12,12,12,12,12,12,12,12,12,12,12,12,12,12,12,12,12,12,12,12,12,12,12,12,12,12,12,12,12,12,12,12,12,12,12,12,12,12,12,12,12,12,12,12,12,12,12,12,12,12,12,12,12,12,12,12,12,12,12,12,12,12,12,12,12,12,12,12,12,12,12,12,12,12,12,12,12,12,12,12,12,12,12,12,12,12,12,12,12,12,12,12,12,12,12,12,12,12,12,12,12,12,12,12,12,12,12,12,12,12,12,12,12,12,12,12,12,12,12,12,12,12,12,12,12,12,12,12,12,12,12,12,12,12,12,12,12,12,12,12,12,12,12,12,12,12,12,12,12,12,12,12,12,12,12,12,12,12,12,12,12,12,12,12,12,12,12,12,12,12,12,12,12,12,12,12,12,12,12,12,12,12,12,12,12,12,12,12,12,12,12,12,12,12,12,12,12,12,12,12,12,12,12,12,12,12,12,12,12,12,12,12,12,12,12,12,12,12,12,12,12,12,12,12,12,12,12,12,12,12,12,12,12,12,12,12,12,12,12,12,12,12,12,12,12,12,12,12,12,12,12,12,12,12,12,12,12,12,12,12,12,12,12,12,12,12,12,12,12,12,12,12,12,12,12,12,12,12,12,12,12,12,12,12,12,12,12,12,12,12,12,12,12,12,12,12,12,12,12,12,12,12,12,12,12,12,12,12,12,12,12,12,12,12,12,12,12,12,12,12,12,12,12,12,12,12,12,12,12,12,12,12,12,12,12,12,12,12,12,12,12,12,12,12,12,12,12,12,12,12,12,12,12,12,12,12,12,12,12,12,12,12,12,12,12,12,12,12,12,12,12,12,12,12,12,12,12,12,12,12,12,12,12,12,12,12,12,12,12,12,12,12,12,12,12,12,12,12,12,12,12,12,12,12,12,12,12,12,12,12,12,12,12,12,12,12,12,12,12,12,12,12,12,12,12,12,12,12,12,12,12,12,12,12,12,12,12,12,12,12,12,12,12,12,12,12,12,12,12,12,12,12,12,12,12,12,12,12,12,12,12,12,12,12,12,12,12,12,12,12,12,12,12,12,12,12,12,12,12,12,12,12,12,12,12,12,12,12,12,12,12,12,12,12,12,12,12,12,12,12,12,12,12,12,12,12,12,12,12,12,12,12,12,12,12,12,12,12,12,12,12,12,12,12,12,12,12,12,12,12,12,12,12,12,12,12,12,12,12,12,12,12,12,12,12,12,12,12,12,12,12,12,12,12,12,12,12,12,12,12,12,12,12,12,12,12,12,12,12,12,12,12,12,12,12,12,12,12,12,12,12,12,12,12,12,12,12,12,12,12,12,12,12,12,12,12,12,12,12,12,12,12,12,12,12,12,12,12,12,12,12,12,12,12,12,12,12,12,12,12,12,12,12,12,12,12,12,12,12,12,12,12,12,12,12,12,12,12,12,12,12,12,12,12,12,12,12,12,12,12,12,12,12,12,12,12,12,12,12,12,12,12,12,12,12,12,12,12,12,12,12,12,12,12,12,12,12,12,12,12,12,12,12,12,12,12,12,12,12,12,12,12,12,12,12,12,12,12,12,12,12,12,12,12,12,12,12,12,12,12,12,12,12,12,12,12,12,12,12,12,12,12,12,12,12,12,12,12,12,12,12,12,12,12,12,12,12,12,12,12,12,12,12,12,12,12,12,12,12,12,12,12,12,12,12,12,12,12,12,12,12,12,12,12,12,12,12,12,12,12,12,12,12,12,12,12,12,12,12,12,12,12,12,12,12,12,12,12,12,12,12,12,12,12,12,12,12,12,12,12,12,12,12,12,12,12,12,12,12,12,12,12,12,12,12,12,12,12,12,12,12,12,12,12,12,12,12,12,12,12,12,12,12,12,12,12,12,12,12,12,12,12,12,12,12,12,12,12,12,12,12,12,12,12,12,12,12,12,12,12,12,12,12,12,12,12,12,12,12,12,12,12,12,12,12,12,12,12,12,12,12,12,12,12,12,12,12,12,12,12,12,12,12,12,12,12,12,12,12,12,12,12,12,12,12,12,12,12,12,12,12,12,12,12,12,12,12,12,12,12,12,12,12,12,12,12,12,12,12,12,12,12,12,12,12,12,12,12,12,12,12,12,12,12,12,12,12,12,12,12,12,12,12,12,12,12,12,12,12,12,12,12,12,12,12,12,12,12,12,12,12,12,12,12,12,12,12,12,12,12,12,12,12,12,12,12,12,12,12,12,12,12,12,12,12,12,12,12,12,12,12,12,12,12,12,12,12,12,12,12,12,12,12,12,12,12,12,12,12,12,12,12,12,12,12,12,12,12,12,12,12,12,12,12,12,12,12,12,12,12,12,12,12,12,12,12,12,12,12,12,12,12,12,12,12,12,12,12,12,12,12,12,12,12,12,12,12,12,12,12,12,12,12,12,12,12,12,12,12,12,12,12,12,12,12,12,12,12,12,12,12,12,12,12,12,12,12,12,12,12,12,12,12,12,12,12,12,12,12,12,12,12,12,12,12,12,12,12,12,12,12,12,12,12,12,12,12,12,12,12,12,12,12,12,12,12,12,12,12,12,12,12,12,12,12,12,12,12,12,12,12,12,12,12,12,12,12,12,12,12,12,12,12,12,12,12,12,12,12,12,12,12,12,12,12,12,12,12,12,12,12,12,12,12,12,12,12,12,12,12,12,12,12,12,12,12,12,12,12,12,12,12,12,12,12,12,12,12,12,12,12,12,12,12,12,12,12,12,12,12,12,12,12,12,12,12,12,12,12,12,12,12,12,12,12,12,12,12,12,12,12,12,12,12,12,12,12,12,12,12,12,12,12,12,12,12,12,12,12,12,12,12,12,12,12,12,12,12,12,12,12,12,12,12,12,12,12,12,12,12,12,12,12,12,12,12,12,12,12,12,12,12,12,12,12,12,12,12,12,12,12,12,12,12,12,12,12,12,12,12,12,12,12,12,12,12,12,12,12,12,12,12,12,12,12,12,12,12,12,12,12,12,12,12,12,12,12,12,12,12,12,12,12,12,12,12,12,12,12,12,12,12,12,12,12,12,12,12,12,12,12,12,12,12,12,12,12,12,12,12,12,12,12,12,12,12,12,12,12,12,12,12,12,12,12,12,12,12,12,12,12,12,12,12,12,12,12,12,12,12,12,12,12,12,12,12,12,12,12,12,12,12,12,12,12,12,12,12,12,12,12,12,12,12,12,12,12,12,12,12,12,12,12,12,12,12,12,12,12,12,12,12,12,12,12,12,12,12,12,12,12,12,12,12,12,12,12,12,12,12,12,12,12,12,12,12,12,12,12,12,12,12,12,12,12,12,12,12,12,12,12,12,12,12,12,12,12,12,12,12,12,12,12,12,12,12,12,12,12,12,12,12,12,12,12,12,12,12,12,12,12,12,12,12,12,12,12,12,12,12,12,12,12,12,12,12,12,12,12,12,12,12,12,12,12,12,12,12,12,12,12,12,12,12,12,12,12,12,12,12,12,12,12,12,12,12,12,12,12,12,12,12,12,12,12,12,12,12,12,12,12,12,12,12,12,12,12,12,12,12,12,12,12,12,12,12,12,12,12,12,12,12,12,12,12,12,12,12,12,12,12,12,12,12,12,12,12,12,12,12,12,12,12,12,12,12,12,12,12,12,12,12,12,12,12,12,12,12,12,12,12,12,12,12,12,12,12,12,12,12,12,12,12,12,12,12,12,12,12,12,12,12,12,12,12,12,12,12,12,12,12,12,12,12,12,12,12,12,12,12,12,12,12,12,12,12,12,12,12,12,12,12,12,12,12,12,12,12,12,12,12,12,12,12,12,12,12,12,12,12,12,12,12,12,12,12,12,12,12,12,12,12,12,12,12,12,12,12,12,12,12,12,12,12,12,12,12,12,12,12,12,12,12,12,12,12,12,12,12,12,12,12,12,12,12,12,12,12,12,12,12,12,12,12,12,12,12,12,12,12,12,12,12,12,12,12,12,12,12,12,12,12,12,12,12,12,12,12,12,12,12,12,12,12,12,12,12,12,12,12,12,12,12,12,12,12,12,12,12,12,12,12,12,12,12,12,12,12,12,12,12,12,12,12,12,12,12,12,12,12,12,12,12,12,12,12,12,12,12,12,12,12,12,12,12,12,12,12,12,12,12,12,12,12,12,12,12,12,12,12,12,12,12,12,12,12,12,12,12,12,12,12,12,12,12,12,12,12,12,12,12,12,12,12,12,12,12,12,12,12,12,12,12,12,12,12,12,12,12,12,12,12,12,12,12,12,12,12,12,12,12,12,12,12,12,12,12,12,12,12,12,12,12,12,12,12,12,12,12,12,12,12,12,12,12,12,12,12,12,12,12,12,12,12,12,12,12,12,12,12,12,12,12,12,12,12,12,12,12,12,12,12,12,12,12,12,12,12,12,12,12,12,12,12,12,12,12,12,12,12,12,12,12,12,12,12,12,12,12,12,12,12,12,12,12,12,12,12,12,12,12,12,12,12,12,12,12,12,12,12,12,12,12,12,12,12,12,12,12,12,12,12,12,12,12,12,12,12,12,12,12,12,12,12,12,12,12,12,12,12,12,12,12,12,12,12,12,12,12,12,12,12,12,12,12,12,12,12,12,12,12,12,12,12,12,12,12,12,12,12,12,12,12,12,12,12,12,12,12,12,12,12,12,12,12,12,12,12,12,12,12,12,12,12,12,12,12,12,12,12,12,12,12,12,12,12,12,12,12,12,12,12,12,12,12,12,12,12,12,12,12,12,12,12,12,12,12,12,12,12,12,12,12,12,12,12,12,12,12,12,12,12,12,12,12,12,12,12,12,12,12,12,12,12,12,12,12,12,12,12,12,12,12,12,12,12,12,12,12,12,12,12,12,12,12,12,12,12,12,12,12,12,12,12,12,12,12,12,12,12,12,12,12,12,12,12,12,12,12,12,12,12,12,12,12,12,12,12,12,12,12,12,12,12,12,12,12,12,12,12,12,12,12,12,12,12,12,12,12,12,12,12,12,12,12,12,12,12,12,12,12,12,12,12,12,12,12,12,12,12,12,12,12,12,12,12,12,12,12,12,12,12,12,12,12,12,12,12,12,12,12,12,12,12,12,12,12,12,12,12,12,12,12,12,12,12,12,12,12,12,12,12,12,12,12,12,12,12,12,12,12,12,12,12,12,12,12,12,12,12,12,12,12,12,12,12,12,12,12,12,12,12,12,12,12,96,12,12,12,12,12,12,12,12,12,12,12,12,12,12,12,12,12,12,12,12,12,12,12,12,12,12,12,12,12,12,12,12,12,12,12,12,12,12,12,12,12,12,12,12,12,12,12,12,12,12,12,12,12,12,12,12,12,12,12,12,12,12,12,12,12,12,12,12,12,12,12,12,12,12,12,12,12,12,12,12,12,12,12,12,12,12,12,12,12,12,12,12,12,12,12,12,12,12,12,12,12,12,12,12,12,12,12,12,12,12,12,12,12,12,12,12,12,12,12,12,12,12,12,12,12,12,12,12,12,12,12,12,12,12,12,12,12,12,12,12,12,12,12,12,12,12,12,12,12,12,12,12,12,12,12,12,12,12,12,12,12,12,12,12,109,12,12,12,12,12,12,12,12,12,12,12,12,12,12,12,12,12,12,12,12,12,12,12,12,12,12,12,12,12,12,12,12,12,12,12,12,12,12,12,12,12,12,12,12,12,12,12,12,12,12,12,12,12,12,12,12,12,12,12,12,12,12,12,12,12,12,12,12,12,12,12,12,12,12,12,12,12,12,12,12,12,12,12,12,12,12,12,12,12,12,12,12,12,12,12,12,12,12,12,12,12,12,12,12,12,12,12,12,12,12,12,12,12,12,12,12,12,12,12,12,12,12,12,12,12,12,12,12,12,12,12,12,12,12,12,12,12,12,12,12,12,12,12,12,12,12,12,12,12,12,12,12,12,12,12,12,12,12,12,109,12,12,12,12,12,12,12,12,12,12,12,12,12,12,12,12,12,12,12,12,12,12,12,12,12,12,12,12,12,12,12,12,12,12,12,12,12,12,12,12,12,12,12,12,12,12,12,12,12,12,12,12,12,12,12,12,12,12,12,12,12,12,12,12,12,12,12,12,12,12,12,12,12,12,12,12,12,12,12,12,12,12,12,12,12,12,12,12,12,12,12,12,12,12,12,12,12,12,12,12,12,12,12,12,12,12,12,12,12,12,12,12,12,12,12,12,12,12,12,12,12,12,12,12,12,12,12,12,12,12,12,12,12,12,12,12,12,12,12,12,12,12,12,12,12,12,12,12,12,12,12,12,12,12,12,12,12,12,12,12,12,12,12,12,12,12,12,12,12,12,12,12,12,12,12,12,12,12,12,12,12,12,12,12,12,12,12,12,12,12,12,12,12,12,12,12,12,12,12,12,12,12,12,12,12,12,12,12,12,12,12,12,12,12,12,12,12,12,12,12,12,12,12,12,12,12,12,12,12,12,12,12,12,12,12,12,12,12,12,12,12,12,12,12,12,12,12,12,12,12,12,12,12,12,12,12,12,12,12,12,12,12,12,12,12,12,12,12,12,12,12,12,12,12,12,12,12,12,12,12,12,12,12,12,12,12,12,12,12,12,12,12,12,12,12,12,12,12,12,12,12,12,12,12,12,12,12,12,12,12,12,12,12,12,12,12,12,12,12,12,12,12,12,12,12,12,12,12,12,12,12,12,12,12,12,12,12,12,12,12,12,12,12,12,12,12,12,12,12,12,12,12,12,12,12,12,12,12,12,12,12,12,12,12,12,12,12,12,12,12,12,12,12,12,12,12,12,12,12,12,12,12,12,12,12,12,12,12,12,12,12,12,12,12,12,12,12,12,12,12,12,12,12,12,12,12,12,12,12,12,12,12,12,12,12,12,12,12,12,12,12,12,12,12,12,12,12,12,12,12,12,12,12,12,12,12,12,12,12,12,12,12,12,12,12,12,12,96,12,12,12,12,12,12,12,12,12,12,12,12,12,12,12,12,12,12,12,12,12,12,12,12,12,12,12,12,12,12,12,12,12,12,12,12,12,12,12,12,12,12,12,12,12,12,12,12,12,12,12,12,12,12,12,12,12,12,12,12,12,12,12,12,12,12,12,12,12,12,12,12,12,12,12,12,12,12,12,12,12,12,12,12,12,12,12,12,12,12,12,12,12,12,12,12,12,12,12,12,12,12,12,12,12,12,12,12]},{"type":"tilelayer","name":"Ground","id":2,"x":0,"y":0,"width":80,"height":45,"opacity":1,"visible":true,"data":[0,0,0,0,0,0,0,0,0,0,0,0,0,0,0,0,0,0,0,0,0,0,0,0,0,0,0,0,0,0,0,0,0,0,0,0,0,477,1073742312,1073742312,1073742312,1073742312,1073742312,1073742312,479,0,0,0,0,0,0,0,0,0,0,0,0,0,0,0,0,0,0,0,0,0,0,0,0,0,0,0,0,0,0,0,0,0,0,0,0,0,0,0,0,0,0,0,0,0,0,0,0,0,0,0,0,0,0,0,0,0,0,0,0,0,0,0,0,0,0,0,0,0,0,0,477,1073742309,483,483,483,483,483,486,489,0,0,0,0,0,0,0,0,0,0,0,0,0,0,0,0,0,0,0,0,0,0,0,0,0,0,0,0,0,0,0,0,0,0,0,0,0,0,0,0,0,0,0,0,0,0,0,0,0,0,0,0,0,0,0,0,0,0,0,0,0,0,0,0,0,0,0,0,0,0,477,1073742309,483,483,483,483,483,483,484,0,0,0,0,0,0,0,0,0,0,0,0,0,0,0,0,0,0,0,0,0,0,0,0,0,0,0,0,0,0,0,0,0,0,0,0,0,0,0,0,0,0,0,0,0,0,0,0,0,0,0,0,0,0,0,0,0,0,0,0,0,0,0,0,0,0,0,0,0,0,477,1073742309,483,483,483,483,483,483,483,484,0,0,0,0,0,0,0,0,0,0,0,0,0,0,0,0,0,0,0,0,0,0,0,0,0,0,0,0,0,0,0,0,0,0,0,0,0,0,0,0,0,0,0,0,0,0,0,0,0,0,0,0,0,0,0,0,0,0,0,0,0,0,0,0,0,0,0,0,0,477,1073742309,483,483,483,483,483,483,483,483,484,0,0,0,0,0,0,0,0,0,0,0,0,0,0,0,0,0,0,0,0,0,0,0,0,0,0,0,0,0,0,0,0,0,0,0,0,0,0,0,0,0,0,0,0,0,0,0,0,0,0,0,0,0,0,0,0,0,0,0,0,0,0,0,0,0,0,0,0,477,1073742309,483,483,483,483,483,483,483,483,483,484,0,0,0,0,0,0,0,477,1073742312,479,0,0,0,0,0,0,0,0,0,0,0,0,0,0,0,0,0,0,0,0,0,0,0,0,0,0,0,0,0,0,0,0,0,0,0,0,0,0,0,0,0,0,0,477,1073742312,479,0,0,0,0,0,0,0,0,0,0,477,2147484126,1073742309,483,483,483,483,483,483,483,483,483,483,484,0,0,0,0,0,0,0,482,483,484,0,0,0,0,0,0,0,0,0,0,0,0,0,0,0,0,0,0,0,0,0,0,0,0,0,0,0,0,0,0,0,0,0,0,0,0,0,0,0,0,0,0,0,482,483,484,0,0,0,0,0,0,0,0,0,477,1073742309,483,483,483,483,483,483,483,483,483,483,483,483,484,0,0,0,0,0,0,0,482,483,484,0,0,0,0,0,0,0,0,0,0,0,0,0,0,0,0,0,0,0,0,0,0,0,0,0,0,0,0,0,0,0,0,0,0,0,0,0,0,0,0,0,0,0,487,488,489,0,0,0,0,0,0,0,0,477,1073742309,483,483,483,483,483,483,483,483,483,483,483,483,483,484,0,0,0,0,0,0,0,487,488,489,0,0,0,0,0,0,0,0,0,0,0,0,0,0,0,0,0,0,0,0,0,0,0,0,0,0,0,0,0,0,0,0,0,0,0,0,0,0,0,0,0,0,0,0,0,0,477,1073742312,1073742312,479,0,0,0,477,1073742309,483,483,483,483,483,483,483,483,483,483,483,483,483,483,1073742310,479,0,0,0,0,0,0,0,0,0,0,0,0,0,0,0,0,0,0,0,0,0,0,0,0,0,0,0,0,0,0,0,0,0,0,0,0,0,0,0,0,0,0,0,0,0,0,0,0,0,0,0,0,0,0,0,482,483,483,1073742310,478,1073742312,2147484126,1073742309,483,483,483,483,483,483,483,483,483,483,483,483,483,483,483,483,1073742310,479,0,0,0,0,0,0,0,0,0,0,0,0,0,0,0,0,0,477,1073742312,479,0,0,0,0,0,0,0,0,0,0,0,477,0,0,0,0,0,0,0,0,0,0,0,0,0,0,0,0,0,0,0,0,0,0,482,483,483,483,483,483,486,1073742302,488,488,3221225950,485,483,483,483,483,483,483,483,483,483,483,483,483,483,1073742310,479,0,0,0,0,0,0,0,0,0,0,0,0,0,0,0,477,1073742309,483,1073742310,479,0,0,0,0,0,0,0,0,0,477,1073742309,479,0,0,0,0,0,0,0,0,0,0,0,0,0,0,0,0,0,0,0,0,477,1073742309,483,483,483,483,486,489,0,0,0,0,487,488,3221225950,485,483,483,483,483,483,483,483,483,483,483,483,1073742310,479,0,0,0,0,0,0,0,0,0,0,0,0,0,477,1073742309,483,483,483,1073742310,479,0,0,0,0,0,0,0,0,482,483,484,0,0,0,0,0,0,0,0,0,0,477,1073742312,1073742312,1073742312,479,0,0,0,0,0,482,483,483,483,483,483,484,0,0,0,0,0,0,0,0,482,483,483,483,483,483,483,483,483,483,483,483,483,1073742310,479,0,0,0,0,0,0,477,1073742312,1073742312,1073742312,1073742312,2147484126,1073742309,483,483,483,483,483,1073742310,479,0,0,0,0,0,0,0,487,488,489,0,0,0,0,0,0,0,0,0,0,482,483,483,483,484,0,0,0,0,0,482,483,483,483,483,483,484,0,0,0,0,0,0,0,0,482,483,483,483,483,483,483,483,483,483,483,483,483,483,484,0,0,0,0,0,477,1073742309,483,483,483,483,483,483,483,483,483,483,483,483,484,0,0,0,0,0,0,0,0,0,0,0,0,0,0,0,0,0,0,0,0,482,483,483,483,1073742310,479,0,0,0,477,1073742309,483,483,483,483,483,484,0,0,0,0,0,0,0,0,482,483,483,483,483,483,483,483,483,483,483,483,483,483,1073742310,479,0,0,0,477,1073742309,483,483,483,483,483,483,483,483,483,483,483,483,483,1073742310,479,0,0,0,0,0,0,0,0,0,0,0,0,0,0,0,0,0,0,0,487,485,483,483,483,1073742310,478,1073742312,2147484126,1073742309,483,483,483,483,483,483,1073742310,479,0,0,0,0,0,0,477,1073742309,483,483,483,483,483,483,483,483,483,483,483,483,483,483,1073742310,478,1073742312,2147484126,1073742309,483,483,483,483,483,483,483,483,483,483,483,483,483,483,483,1073742310,479,0,0,0,0,0,0,0,0,0,0,0,0,0,0,0,0,0,0,0,482,483,483,483,483,483,483,483,483,483,483,483,483,483,483,483,484,0,0,0,0,477,2147484126,1073742309,483,483,483,483,483,483,483,483,483,483,483,483,483,483,483,483,483,483,483,483,483,483,483,483,483,483,483,483,483,483,483,483,483,483,483,483,1073742310,478,479,0,0,0,0,0,0,0,0,0,0,0,0,0,0,0,0,0,482,483,483,483,483,483,483,483,483,483,483,483,483,483,483,483,1073742310,478,1073742312,1073742312,2147484126,1073742309,483,483,483,483,483,483,483,483,483,483,483,483,483,483,483,483,483,483,483,483,483,483,483,483,483,483,483,483,483,483,483,483,483,483,483,483,483,483,483,483,1073742310,479,0,0,0,0,0,0,477,1073742312,479,0,0,0,0,0,0,477,1073742309,483,483,483,483,483,483,483,483,483,483,483,483,483,483,483,483,483,483,483,483,483,483,483,483,483,483,483,483,483,483,483,483,483,483,483,483,483,483,483,483,483,483,483,483,483,483,483,483,483,483,483,483,483,483,483,483,483,483,483,483,483,483,1073742310,478,1073742312,1073742312,1073742312,1073742312,479,482,483,1073742310,478,1073742312,1073742312,1073742312,1073742312,2147484126,1073742309,483,483,483,483,483,483,483,483,483,483,483,483,483,483,483,483,483,483,483,483,483,483,483,483,483,483,483,483,483,483,483,483,483,483,483,483,483,483,483,483,483,483,483,483,483,483,483,483,483,483,483,483,483,483,483,483,483,483,483,483,483,483,483,483,483,483,483,483,483,484,482,483,483,483,483,483,483,483,483,483,483,483,483,483,483,483,483,483,483,483,483,483,483,483,483,483,483,483,483,483,483,483,483,483,483,483,483,483,483,483,483,483,483,483,483,483,483,483,483,483,483,483,483,483,483,483,483,483,483,483,483,483,483,483,483,483,483,483,483,483,483,483,483,483,483,483,483,483,483,484,482,483,483,483,483,483,483,483,483,483,483,483,483,483,483,483,483,483,483,483,483,483,483,483,483,483,483,483,483,483,483,483,483,483,483,483,483,483,483,483,483,483,483,483,483,483,483,483,483,483,483,483,483,483,483,483,483,483,483,483,483,483,483,483,483,483,483,483,483,483,483,483,483,483,483,483,483,483,483,484,482,483,483,483,483,483,483,483,483,483,483,483,483,483,483,483,483,483,483,483,483,483,483,483,483,483,483,483,483,483,483,483,483,483,483,483,483,483,483,483,483,483,483,483,483,483,483,483,483,483,483,483,483,483,483,483,483,483,483,483,483,483,483,483,483,483,483,483,483,483,483,483,483,483,483,483,483,483,483,484,482,483,483,483,483,483,483,483,483,483,483,483,483,483,483,483,483,483,483,483,483,483,483,483,483,483,483,483,483,483,483,483,483,483,483,483,483,483,483,483,483,483,483,483,483,483,483,483,483,483,483,483,483,483,483,483,483,483,483,483,483,483,483,483,483,483,483,483,483,483,483,483,483,483,483,483,483,483,483,484,482,483,483,483,483,483,483,483,483,483,483,483,483,483,483,483,483,486,1073742302,488,488,488,3221225950,485,483,483,483,483,483,483,483,483,483,483,483,483,483,483,483,483,483,483,483,483,483,483,483,483,483,483,483,483,483,483,483,483,483,483,483,483,483,483,483,483,483,483,483,486,1073742302,488,488,488,488,488,488,488,488,488,488,489,487,488,488,488,3221225950,485,483,483,483,483,483,486,1073742302,488,488,488,488,489,0,0,0,0,0,487,485,483,483,483,483,483,483,483,483,483,483,483,483,483,483,483,483,483,483,483,483,483,483,483,483,483,483,483,483,483,483,483,483,483,483,483,483,483,483,483,483,483,486,489,0,0,0,0,0,0,0,0,0,0,0,0,0,0,0,0,0,487,485,483,483,483,486,489,0,0,0,0,0,0,0,0,0,0,0,0,487,485,483,483,483,483,483,483,483,483,483,483,483,483,483,483,483,483,483,483,483,483,483,483,483,483,483,483,483,483,483,483,483,483,483,483,483,483,483,483,483,486,489,0,0,0,0,0,0,0,0,0,0,0,0,0,0,0,0,0,0,0,482,483,483,486,489,0,0,0,0,0,0,0,0,0,0,0,0,0,0,482,483,483,483,483,483,483,483,483,483,483,483,483,483,483,483,483,483,483,483,483,483,483,483,483,483,483,483,486,1073742302,488,3221225950,485,483,483,483,483,483,483,483,484,0,0,0,0,0,0,0,0,0,0,0,0,0,0,0,0,0,0,0,0,482,483,486,489,0,0,0,0,0,0,0,0,0,0,0,0,0,0,0,487,485,483,483,483,483,483,483,483,483,483,483,483,483,483,483,483,483,483,483,483,483,483,483,486,1073742302,488,488,489,0,0,0,487,488,488,3221225950,485,483,483,486,489,0,0,0,0,0,0,0,0,0,0,0,0,0,0,0,0,0,0,0,0,487,488,489,0,0,0,0,0,0,0,0,0,0,0,0,0,0,0,0,0,482,483,483,483,483,483,483,483,483,483,483,483,483,483,483,483,483,483,483,483,483,483,483,484,0,0,0,0,0,0,0,0,0,0,0,487,488,488,489,0,0,0,0,0,0,0,0,0,0,0,0,0,0,0,0,0,0,0,0,0,0,0,0,0,0,0,0,0,0,0,0,0,0,0,477,0,0,0,0,0,487,3221225950,485,483,483,483,483,483,483,483,483,483,483,483,483,483,483,483,483,483,483,483,483,484,0,0,0,0,0,0,0,0,0,0,0,0,0,0,0,0,0,0,0,0,0,0,0,0,0,0,0,0,0,0,0,0,0,0,0,0,0,0,0,0,0,0,0,0,0,0,0,0,0,477,1073742309,479,0,0,0,0,0,0,487,485,483,483,483,483,483,483,483,483,483,483,483,483,483,483,483,483,483,483,483,1073742310,479,0,0,0,0,0,0,0,0,0,0,0,0,0,0,0,0,0,0,0,0,0,0,0,0,0,0,0,0,0,0,0,0,0,0,0,0,0,0,0,0,0,0,0,0,0,0,0,0,482,483,1073742310,479,0,0,0,0,0,0,487,485,483,483,483,483,483,483,483,483,483,483,483,483,483,483,483,483,483,483,483,1073742310,478,1073742312,479,0,0,479,0,0,0,0,0,0,0,0,0,0,0,0,0,0,0,0,0,0,0,0,0,0,0,0,0,0,0,0,0,0,0,0,0,0,0,0,0,0,0,0,0,0,487,485,483,1073742310,479,0,0,0,0,0,0,482,483,483,483,483,483,483,483,483,483,483,483,483,483,483,483,486,1073742302,488,3221225950,485,483,483,1073742310,478,2147484126,484,0,0,0,0,0,0,0,0,0,0,0,0,0,0,0,0,0,0,0,0,0,0,0,0,0,0,0,0,0,0,0,0,0,0,0,0,0,0,0,0,0,0,0,482,483,483,484,0,0,0,0,0,0,482,483,483,483,483,483,483,483,483,483,483,483,483,483,483,486,489,0,0,0,487,485,1073742302,488,3221225950,485,486,479,0,0,0,0,0,0,0,0,0,0,0,0,0,0,0,0,0,0,0,0,0,0,0,0,0,0,0,0,0,0,0,0,0,0,0,0,0,0,0,0,0,0,487,485,483,484,0,0,0,0,0,0,482,483,483,483,483,483,483,483,483,483,483,483,483,483,486,489,0,0,0,0,0,487,0,0,0,487,489,0,0,0,0,0,0,0,0,0,0,0,0,0,0,0,0,0,0,0,0,0,0,0,0,0,0,0,0,0,0,0,0,0,0,0,0,0,0,0,0,0,0,0,0,482,483,484,0,0,0,0,0,0,487,485,483,483,483,483,483,483,483,483,483,483,483,486,489,0,0,0,0,0,0,0,0,0,0,0,0,0,0,0,0,0,0,0,0,0,0,0,0,0,0,0,0,0,0,0,0,0,0,0,0,0,0,0,0,0,0,0,0,0,0,0,0,0,0,0,0,0,0,0,0,487,3221225950,485,479,0,0,0,0,0,0,487,485,483,483,483,483,483,483,483,483,483,483,484,0,0,0,0,0,0,0,0,0,0,0,0,0,0,0,0,0,0,0,0,0,0,0,0,0,0,0,0,0,0,0,0,0,0,0,0,0,0,0,0,0,0,0,0,0,0,0,0,0,0,0,0,0,0,0,0,0,0,0,487,485,478,1073742312,1073742312,479,0,0,0,487,485,483,483,483,483,483,483,483,483,483,484,0,0,0,0,0,0,0,0,0,0,0,0,0,0,0,0,0,0,0,0,0,0,0,0,0,0,0,0,0,0,0,0,0,0,0,0,0,0,0,0,0,0,0,0,0,0,0,0,0,0,0,0,0,0,0,0,0,0,0,0,482,483,483,483,484,0,0,0,0,487,488,3221225950,485,483,483,483,483,483,483,484,0,0,0,0,0,0,0,0,0,0,0,0,0,0,0,0,0,0,0,0,0,0,0,0,0,0,0,0,0,0,0,0,0,0,0,0,0,0,0,0,0,0,0,0,0,0,0,0,0,0,0,0,0,0,0,0,0,0,0,0,482,483,483,483,484,0,0,0,0,0,0,0,487,485,483,483,483,483,483,484,0,0,0,0,0,0,0,0,0,0,0,0,0,0,0,0,0,0,0,0,0,0,0,0,0,0,0,0,0,0,0,0,0,0,0,0,0,0,0,0,0,0,0,0,0,0,0,0,0,0,0,0,0,0,0,0,0,0,0,0,482,483,483,483,484,0,0,0,0,0,0,0,0,482,483,483,483,483,483,484,0,0,0,0,0,0,0,0,0,0,0,0,0,0,0,0,477,479,0,0,0,0,0,0,0,0,0,0,0,0,0,0,0,0,0,0,0,0,0,0,0,0,0,0,0,0,0,0,0,0,0,0,0,0,0,0,0,0,0,0,487,485,483,483,1073742310,479,0,0,0,0,0,0,0,482,483,483,483,483,483,484,0,0,0,0,0,0,0,0,0,0,0,0,0,0,0,0,487,489,0,0,0,0,0,0,0,0,0,0,0,0,0,0,0,0,0,0,0,0,0,0,0,0,0,0,0,0,0,0,0,0,0,0,0,0,0,0,0,0,0,0,0,487,488,488,488,489,0,0,0,0,0,0,0,487,488,488,488,488,488,489,0,0,0,0,0,0,0,0,0,0,0,0,0,0,0,0,0,0,0,0,0,0,0,0,0,0,0,0,0,0,0,0,0,0,0,0]},{"type":"tilelayer","name":"Grass","id":3,"x":0,"y":0,"width":80,"height":45,"opacity":1,"visible":true,"data":[0,0,0,0,0,0,0,0,0,0,0,0,0,0,0,0,0,0,0,0,0,0,0,0,0,0,0,0,0,0,0,0,0,0,0,0,0,0,0,0,0,0,0,0,0,0,0,0,0,0,0,0,0,0,0,0,0,0,0,0,0,0,0,0,0,0,0,0,0,0,0,0,0,0,0,0,0,0,0,0,0,0,0,0,0,0,0,0,0,0,0,0,0,0,0,0,0,0,0,0,0,0,0,0,0,0,0,0,0,0,0,0,0,0,0,0,0,0,0,0,0,0,0,0,0,0,0,0,0,0,0,0,0,0,0,0,0,0,0,0,0,0,0,0,0,0,0,0,0,0,0,0,0,0,0,0,0,0,0,0,0,0,0,0,0,0,0,0,0,0,0,0,0,0,0,0,0,0,0,0,0,0,0,0,0,0,0,0,0,0,0,0,0,0,0,0,0,0,0,0,0,0,0,0,0,0,0,0,0,0,0,0,0,0,0,0,0,0,0,0,0,0,0,0,0,0,0,0,0,0,0,0,0,0,0,0,0,0,0,0,0,0,0,0,0,0,0,0,0,0,0,0,0,0,0,0,0,0,0,0,0,0,0,0,0,0,0,0,0,0,0,0,0,0,0,0,492,494,0,0,0,0,0,0,0,0,0,0,0,0,0,0,0,0,0,0,0,0,0,0,0,0,0,0,0,0,0,0,0,0,0,0,0,0,0,0,0,0,0,0,0,0,0,0,0,0,0,0,0,0,0,0,0,0,0,0,0,0,0,0,0,0,0,0,0,0,0,0,0,0,0,0,0,0,0,492,1073742324,1073742325,494,0,0,0,0,0,0,0,0,0,0,0,0,0,0,0,0,0,0,0,0,0,0,0,0,0,0,0,0,0,0,0,0,0,0,0,0,0,0,0,0,0,0,0,0,0,0,0,0,0,0,0,0,0,0,0,0,0,0,0,0,0,0,0,0,0,0,0,0,0,0,0,0,0,0,0,492,1073742324,498,498,499,0,0,0,0,0,0,0,0,0,0,0,0,0,0,0,0,0,0,0,0,0,0,0,0,0,0,0,0,0,0,0,0,0,0,0,0,0,0,0,0,0,0,0,0,0,0,0,0,0,0,0,0,0,0,0,0,0,0,0,0,0,0,0,0,0,0,0,0,0,0,0,0,0,0,492,1073742324,498,498,498,499,0,0,0,0,0,0,0,0,0,0,0,0,0,0,0,0,0,0,0,0,0,0,0,0,0,0,0,0,0,0,0,0,0,0,0,0,0,0,0,0,0,0,0,0,0,0,0,0,0,0,0,0,0,0,0,0,0,0,0,0,0,0,0,0,0,0,0,0,0,0,0,0,492,2147484141,1073742324,498,498,498,501,504,0,0,0,0,0,0,0,0,0,0,0,0,0,0,0,0,0,0,0,0,0,0,0,0,0,0,0,0,0,0,0,0,0,0,0,0,0,0,0,0,0,0,0,0,0,0,0,0,0,0,0,0,0,0,0,0,0,0,0,0,0,0,0,0,0,0,0,0,0,0,0,492,1073742324,498,498,498,498,498,499,0,0,0,0,0,0,0,0,0,0,0,0,0,0,0,0,0,0,0,0,0,0,0,0,0,0,0,0,0,0,0,0,0,0,0,0,0,0,0,0,0,0,0,0,0,0,0,0,0,0,0,0,0,0,0,0,0,0,0,0,0,0,0,0,0,0,0,0,0,0,0,0,502,500,498,498,498,498,498,499,0,0,0,0,0,0,0,0,0,0,0,0,0,0,0,0,0,0,0,0,0,0,0,0,0,0,0,0,0,0,0,0,0,0,0,0,0,0,0,0,0,0,0,0,0,0,0,0,0,0,0,0,0,0,0,0,0,0,0,0,0,0,0,0,0,0,0,0,0,0,0,0,0,502,500,498,498,498,498,499,0,0,0,0,492,494,0,0,0,0,0,0,0,0,0,0,0,0,0,0,0,0,0,0,0,0,0,0,0,0,0,0,0,0,0,0,0,0,0,0,0,0,0,0,0,0,0,0,0,0,0,0,0,0,0,0,0,0,0,0,0,0,0,0,492,494,0,0,0,0,0,0,0,0,502,503,3221225965,500,498,499,0,0,0,492,1073742324,1073742325,494,0,0,0,0,0,0,0,0,0,0,0,0,0,0,0,0,0,0,0,0,0,0,0,0,0,0,0,0,0,0,0,0,0,0,0,0,0,0,0,0,0,0,0,0,0,0,0,0,0,0,0,0,0,0,0,0,492,1073742324,1073742325,494,0,0,0,0,0,0,0,0,0,0,497,498,499,0,0,0,497,498,498,1073742325,494,0,0,0,0,0,0,0,0,0,0,0,0,0,0,0,0,0,492,1073742327,494,0,0,0,0,0,0,0,0,0,0,0,0,0,0,0,0,0,0,0,0,0,0,0,0,0,0,0,0,0,0,0,0,0,0,492,1073742324,498,498,499,0,0,0,0,0,0,0,0,0,0,497,498,499,0,0,0,497,498,498,498,1073742325,494,0,0,0,0,0,0,0,0,0,0,0,0,0,0,0,492,1073742324,498,1073742325,494,0,0,0,0,0,0,0,0,0,0,0,0,0,0,0,0,0,0,0,0,0,0,0,0,0,0,0,0,0,0,0,0,0,497,498,498,498,499,0,0,0,0,0,0,0,0,0,0,497,498,499,0,0,0,497,498,498,498,498,1073742325,494,0,0,0,0,0,0,0,0,492,1073742327,1073742327,1073742327,1073742327,2147484141,1073742324,498,498,498,1073742325,494,0,0,0,0,0,0,0,0,0,0,0,0,0,0,0,0,0,0,0,0,0,0,0,0,0,0,0,0,0,0,0,0,497,498,498,498,499,0,0,0,0,0,0,0,0,0,0,497,498,499,0,0,0,502,500,498,498,498,498,499,0,0,0,0,0,0,0,492,1073742324,498,498,498,498,498,498,498,498,498,498,499,0,0,0,0,0,0,0,0,0,0,0,0,0,0,0,0,0,0,0,0,0,0,0,0,492,494,0,0,0,0,0,492,1073742324,498,498,498,499,0,0,0,0,0,0,0,0,0,0,497,498,1073742325,494,0,0,0,497,498,498,498,498,1073742325,494,0,0,0,0,0,492,1073742324,498,498,498,498,498,498,498,498,498,498,498,1073742325,494,0,0,0,0,0,0,0,0,0,0,0,0,0,0,0,0,0,0,0,0,0,0,492,1073742324,1073742325,493,1073742327,1073742327,1073742327,2147484141,1073742324,498,498,498,498,1073742325,494,0,0,0,0,0,0,0,0,492,1073742324,498,501,504,0,0,0,502,500,498,498,498,498,1073742325,493,1073742327,1073742327,1073742327,2147484141,1073742324,498,498,498,498,498,498,498,498,498,498,498,498,498,1073742325,494,0,0,0,0,0,0,0,0,0,0,0,0,0,0,0,0,0,0,0,0,0,497,498,498,498,498,498,498,498,498,498,498,498,498,498,499,0,0,0,0,0,0,492,2147484141,1073742324,501,1073742317,504,0,0,0,0,0,502,503,503,3221225965,500,498,498,498,498,498,498,498,498,498,498,498,498,498,498,498,498,498,498,498,498,498,1073742325,494,0,0,0,0,0,0,0,0,0,0,0,0,0,0,0,0,0,0,0,0,502,500,498,498,501,1073742317,503,503,503,503,3221225965,500,498,498,1073742325,493,1073742327,1073742327,1073742327,1073742327,2147484141,1073742324,498,498,499,0,0,0,0,0,0,0,0,0,0,0,502,503,3221225965,500,498,498,498,498,498,498,498,498,498,498,498,498,498,498,498,498,498,498,501,504,0,0,0,0,0,0,0,0,0,0,0,0,0,0,0,0,0,0,0,0,0,502,503,503,504,0,0,0,0,0,0,502,503,3221225965,500,498,498,498,498,498,498,498,498,498,499,0,0,0,0,0,0,0,0,0,0,0,0,0,0,502,503,3221225965,500,498,498,498,498,498,498,498,498,498,498,498,501,1073742317,503,503,504,0,0,0,0,0,0,0,0,0,0,0,0,0,0,0,0,0,0,0,0,0,0,0,0,0,0,0,0,0,0,0,0,0,0,0,502,503,3221225965,500,498,498,498,498,498,501,504,0,0,0,0,0,0,0,0,0,0,0,0,0,0,0,0,0,502,3221225965,500,498,498,498,498,498,498,501,1073742317,503,504,0,0,0,0,0,0,0,0,0,0,0,0,0,0,0,0,0,0,0,0,0,0,0,0,0,0,0,0,0,0,0,0,0,0,0,0,0,0,0,0,0,0,502,503,3221225965,500,498,501,504,0,0,0,0,0,0,0,0,0,0,0,0,0,0,0,0,0,0,0,0,502,503,503,503,503,503,503,504,0,0,0,0,0,0,0,0,0,0,0,0,0,0,0,0,0,0,0,0,0,0,0,0,0,0,0,0,0,0,0,0,0,492,0,0,0,0,0,0,0,0,0,0,0,0,0,0,502,503,504,0,0,0,0,0,0,0,0,0,0,0,0,492,1073742327,1073742327,494,0,0,0,0,0,0,0,0,0,0,0,0,0,0,0,0,0,0,0,0,0,0,0,0,0,0,0,0,0,0,0,0,0,0,0,0,0,0,0,0,0,0,0,0,0,0,502,504,0,0,0,0,0,0,0,0,0,0,0,0,0,0,0,0,0,0,0,0,0,0,0,0,0,0,0,492,1073742324,498,498,1073742325,493,1073742327,494,0,0,0,0,0,0,0,0,0,0,0,0,0,0,0,0,0,0,0,0,0,0,0,0,0,0,0,0,0,0,0,0,0,0,0,0,0,0,0,0,0,0,0,0,0,0,0,0,0,0,0,0,0,0,0,0,0,0,0,0,0,0,0,0,0,0,0,0,0,0,0,0,497,498,498,498,498,498,498,1073742325,493,494,0,0,0,0,0,0,0,0,0,0,0,0,0,0,0,0,0,0,0,0,0,0,0,0,0,0,0,0,0,0,0,0,0,0,0,0,0,0,0,0,0,0,0,0,0,0,0,0,0,0,0,492,1073742327,1073742327,1073742327,494,0,0,0,492,494,0,0,0,0,0,0,0,0,0,497,498,498,498,498,498,498,498,498,1073742325,493,1073742327,1073742327,1073742327,1073742327,1073742327,1073742327,1073742327,1073742327,494,0,0,0,0,0,0,0,0,0,0,0,0,0,0,0,0,0,0,0,0,0,0,0,0,0,0,0,0,0,0,0,0,0,0,0,0,0,0,0,0,0,497,498,498,498,1073742325,493,1073742327,2147484141,1073742324,1073742325,493,494,0,0,0,0,0,492,2147484141,1073742324,498,498,498,498,498,498,501,1073742317,503,503,503,3221225965,500,498,498,498,498,498,499,0,0,0,0,0,0,0,0,0,0,0,0,0,0,0,0,0,0,0,0,0,0,0,0,0,0,0,0,0,0,0,0,0,0,0,0,0,0,0,0,0,502,500,498,498,498,498,498,498,498,498,498,1073742325,494,0,0,0,492,1073742324,498,498,498,498,501,1073742317,503,503,504,0,0,0,0,0,502,503,503,3221225965,500,501,504,0,0,0,0,0,0,0,0,0,0,0,0,0,0,0,0,0,0,0,0,0,0,0,0,0,0,0,0,0,0,0,0,0,0,0,0,0,0,0,0,0,0,502,500,498,498,498,498,498,498,498,498,501,504,0,0,0,497,498,498,498,498,498,499,0,0,0,0,0,0,0,0,0,0,0,0,0,502,504,0,0,0,0,0,0,0,0,0,0,0,0,0,0,0,0,0,0,0,0,0,0,0,0,0,0,0,0,0,0,0,0,0,0,0,0,0,0,0,0,0,0,0,0,502,500,498,498,498,498,498,498,498,499,0,0,0,492,1073742324,498,498,498,498,498,499,0,0,0,0,0,0,0,0,0,0,0,0,0,0,0,0,0,0,0,0,0,0,0,0,0,0,0,0,0,0,0,0,0,0,0,0,0,0,0,0,0,0,0,0,0,0,0,0,0,0,0,0,0,0,0,0,0,0,0,0,502,500,498,498,498,498,498,498,499,0,0,0,497,498,498,498,498,498,498,499,0,0,0,0,0,0,0,0,0,0,0,0,0,0,0,0,0,0,0,0,0,0,0,0,0,0,0,0,0,0,0,0,0,0,0,0,0,0,0,0,0,0,0,0,0,0,0,0,0,0,0,0,0,0,0,0,0,0,0,0,0,502,500,498,498,498,498,498,499,0,0,0,497,498,498,498,498,498,501,504,0,0,0,0,0,0,0,0,0,0,0,0,0,0,0,0,0,0,0,0,0,0,0,0,0,0,0,0,0,0,0,0,0,0,0,0,0,0,0,0,0,0,0,0,0,0,0,0,0,0,0,0,0,0,0,0,0,0,0,0,0,0,497,498,498,498,498,498,499,0,0,0,497,498,498,498,501,1073742317,504,0,0,0,0,0,0,0,0,0,0,0,0,0,0,0,0,0,0,0,0,0,0,0,0,0,0,0,0,0,0,0,0,0,0,0,0,0,0,0,0,0,0,0,0,0,0,0,0,0,0,0,0,0,0,0,0,0,0,0,0,0,0,0,497,498,498,498,498,498,499,0,0,0,497,498,498,501,504,0,0,0,0,0,0,0,0,0,0,0,0,0,0,0,0,0,0,0,0,0,0,0,0,0,0,0,0,0,0,0,0,0,0,0,0,0,0,0,0,0,0,0,0,0,0,0,0,0,0,0,0,0,0,0,0,0,0,0,0,0,0,0,0,0,497,498,498,498,498,498,499,0,0,0,502,500,501,504,0,0,0,0,0,0,0,0,0,0,0,0,0,0,0,0,0,0,0,0,0,0,0,0,0,0,0,0,0,0,0,0,0,0,0,0,0,0,0,0,0,0,0,0,0,0,0,0,0,0,0,0,0,0,0,0,0,0,0,0,0,0,0,0,0,0,502,500,498,498,498,498,499,0,0,0,0,502,504,0,0,0,0,0,0,0,0,0,0,0,0,0,0,0,0,0,0,0,0,0,0,0,0,0,0,0,0,0,0,0,0,0,0,0,0,0,0,0,0,0,0,0,0,0,0,0,0,0,0,0,0,0,0,0,0,0,0,0,0,0,0,0,0,0,0,0,0,502,500,498,498,498,499,0,0,0,0,0,0,0,0,0,0,0,0,0,0,0,0,0,0,0,0,0,0,0,0,0,0,0,0,0,0,0,0,0,0,0,0,0,0,0,0,0,0,0,0,0,0,0,0,0,0,0,0,0,0,0,0,0,0,0,0,0,0,0,0,0,0,0,0,0,0,0,0,0,0,0,502,500,498,501,504,0,0,0,0,0,0,0,0,0,0,0,0,0,0,0,0,0,0,0,0,0,0,0,0,0,0,0,0,0,0,0,0,0,0,0,0,0,0,0,0,0,0,0,0,0,0,0,0,0,0,0,0,0,0,0,0,0,0,0,0,0,0,0,0,0,0,0,0,0,0,0,0,0,0,0,0,502,503,504,0,0,0,0,0,0,0,0,0,0,0,0,0,0,0,0,0,0,0,0,0,0,0,0,0,0,0,0,0,0,0,0,0,0,0,0,0,0,0,0,0,0,0,0,0,0,0,0,0,0,0,0,0,0,0,0,0,0,0,0,0,0,0,0,0,0,0,0,0,0,0,0,0,0,0,0,0,0,0,0,0,0,0,0,0,0,0,0,0,0,0,0,0,0,0,0,0,0,0,0,0,0,0,0,0,0,0,0,0,0,0,0,0,0,0,0,0,0,0,0,0,0,0,0,0,0,0,0,0,0,0,0,0,0,0,0,0,0,0,0,0,0,0,0,0,0,0,0,0,0,0,0,0,0,0,0,0,0,0,0,0,0,0,0,0,0,0,0,0,0,0,0,0,0,0,0,0,0,0,0,0,0,0,0,0,0,0,0,0,0,0,0,0,0,0,0,0,0,0,0,0,0,0,0,0,0,0,0,0,0,0,0,0,0,0,0,0,0,0,0,0,0,0,0,0,0,0,0,0,0,0,0,0,0,0,0,0,0,0,0,0,0,0,0,0,0,0,0,0,0,0,0,0,0,0,0,0,0,0,0,0,0,0,0,0,0,0,0,0,0,0,0,0,0,0,0,0,0,0,0,0,0,0,0,0,0,0,0,0,0,0,0,0,0,0,0,0,0,0,0,0,0,0,0,0,0,0,0,0,0,0,0,0,0,0,0,0,0,0,0,0,0,0,0,0,0,0,0,0,0,0,0,0,0,0,0,0,0,0,0,0,0,0,0,0,0,0,0,0,0,0,0,0,0,0,0,0,0,0,0,0,0,0,0,0,0,0,0,0,0,0,0,0,0,0,0,0,0,0,0,0,0,0,0,0,0,0,0,0,0,0,0,0,0,0,0,0,0,0,0,0,0,0,0,0,0,0,0,0,0,0,0,0,0,0,0,0,0,0,0,0,0,0,0,0,0,0,0,0,0,0,0,0,0,0,0,0,0,0,0,0,0,0]},{"type":"tilelayer","name":"Decor","id":4,"x":0,"y":0,"width":80,"height":45,"opacity":1,"visible":true,"data":[0,0,0,0,0,0,0,0,0,0,0,0,0,0,0,0,0,0,0,0,0,0,0,0,0,0,0,0,0,0,0,0,0,0,0,0,0,0,0,0,0,0,0,0,0,0,0,0,0,0,0,0,0,0,0,0,0,0,0,0,0,0,0,0,0,0,0,0,0,0,0,0,0,0,0,0,0,0,0,0,0,0,0,0,0,0,0,0,0,0,0,0,0,0,0,0,0,0,0,0,0,0,0,0,0,0,0,0,0,0,0,0,0,0,0,0,0,0,0,0,0,0,0,0,0,0,0,0,0,0,0,0,0,0,0,0,0,0,0,0,0,0,0,0,0,0,0,0,0,0,0,0,0,0,0,0,0,0,0,0,0,0,0,0,0,0,0,0,0,0,0,0,0,0,0,0,0,0,0,0,0,0,0,0,0,0,0,0,0,0,0,0,0,0,0,0,0,0,0,0,0,0,0,0,0,0,0,0,0,0,0,0,0,0,0,0,0,0,0,0,0,0,0,0,0,0,0,0,0,0,0,0,0,0,0,0,0,0,0,0,0,0,0,0,0,0,0,0,0,0,0,0,0,0,0,0,0,0,0,0,0,0,0,0,0,0,0,0,0,0,0,0,0,0,0,604,605,606,607,0,0,0,0,0,0,0,0,0,0,0,0,0,0,0,0,0,0,0,0,0,0,0,0,0,0,0,0,0,0,0,0,0,0,0,0,0,0,0,0,0,0,0,0,0,0,0,0,0,0,0,0,0,0,0,0,0,0,0,0,0,0,0,0,0,0,0,0,0,0,0,0,0,0,0,0,628,629,630,631,0,0,0,0,0,0,0,0,0,0,0,0,0,0,0,0,0,0,0,0,0,0,0,0,0,0,0,0,0,0,0,0,0,0,0,0,0,0,0,0,0,0,0,0,0,0,0,0,0,0,0,0,0,0,0,0,0,0,0,0,0,0,0,0,0,0,0,0,0,0,0,0,0,0,0,0,652,653,654,655,0,0,0,0,0,0,0,0,0,0,0,0,0,0,0,0,0,0,0,0,0,0,0,0,0,0,0,0,0,0,0,0,0,0,0,0,0,0,0,0,0,0,0,0,0,0,0,0,0,0,0,0,0,0,0,0,0,0,0,0,0,0,0,0,0,0,0,0,0,0,0,604,605,606,607,0,0,568,569,0,0,0,0,0,0,0,0,0,0,0,0,0,0,0,0,0,0,0,0,0,0,0,0,0,0,0,0,0,0,0,0,0,0,0,0,0,0,0,0,0,0,0,0,0,0,0,0,0,0,0,0,0,0,0,0,0,0,0,0,0,0,0,0,0,0,0,0,0,0,0,0,628,629,630,631,0,0,592,593,0,0,0,0,0,0,0,0,0,0,0,0,0,0,0,0,0,0,0,0,0,0,0,0,0,0,0,0,0,0,0,0,0,0,0,0,0,0,0,0,0,0,0,0,0,0,0,0,0,0,0,0,0,0,0,0,0,0,0,0,0,0,0,0,0,0,0,0,0,0,0,0,652,653,654,655,0,0,0,0,0,0,0,0,0,0,0,0,0,0,0,0,0,0,0,0,0,0,0,0,0,0,0,0,0,0,0,0,0,0,0,0,0,0,0,0,0,0,0,0,0,0,0,0,0,0,0,0,0,0,0,0,0,0,0,0,0,0,0,0,0,0,0,0,0,0,0,0,0,0,0,0,0,0,0,0,0,780,0,0,0,0,0,0,0,0,0,0,0,0,0,0,0,0,0,0,0,0,0,0,0,0,0,0,0,0,0,0,0,0,0,0,0,0,0,0,0,0,0,0,0,0,0,0,0,0,0,0,0,0,0,0,0,0,0,0,0,0,0,0,0,0,0,0,0,0,0,0,780,0,780,0,0,822,0,0,0,0,0,0,0,0,0,0,0,0,0,0,0,0,0,0,0,0,0,0,0,0,0,0,0,0,0,0,0,0,0,0,0,0,0,0,0,0,0,0,0,0,0,0,0,0,0,0,0,0,0,0,0,0,0,0,0,0,0,0,0,0,0,0,0,0,780,0,0,819,0,0,0,0,0,0,0,0,0,0,822,0,0,0,0,0,0,0,0,0,0,0,0,0,0,0,0,0,0,0,0,0,0,0,0,0,0,0,0,0,0,0,0,0,0,0,0,0,0,0,0,0,0,0,0,0,0,0,0,0,0,0,0,0,0,0,0,0,0,0,0,0,0,0,0,0,0,0,0,0,0,0,0,0,0,0,0,0,0,0,0,0,0,0,0,0,0,0,0,798,817,0,0,0,0,0,0,0,0,0,0,0,0,0,0,0,0,0,804,0,0,0,0,0,0,0,0,0,0,0,0,0,0,0,0,0,0,0,0,0,0,0,0,0,0,0,0,0,0,0,0,0,0,0,0,0,0,0,0,0,0,0,0,0,0,0,0,0,0,0,0,0,0,0,0,0,0,0,0,0,0,0,0,0,0,0,0,0,0,0,0,0,0,0,0,0,0,0,0,604,605,606,607,0,0,0,0,0,0,0,0,0,0,0,0,0,0,0,0,0,0,0,0,0,0,0,0,0,0,0,0,0,0,0,0,0,0,0,0,0,0,0,0,0,0,0,0,0,0,0,0,0,0,0,0,0,0,0,0,0,0,0,816,0,0,0,0,0,0,0,0,0,0,0,0,0,0,0,0,628,629,630,631,0,0,0,0,0,0,0,0,0,0,0,0,0,0,0,0,0,0,0,0,0,0,0,0,0,0,0,0,0,0,0,0,0,0,0,0,0,0,0,0,0,0,0,0,0,0,0,0,0,0,0,0,0,0,794,0,0,0,0,0,0,0,0,0,0,0,0,0,0,0,0,0,0,0,0,0,652,653,654,655,0,0,0,0,0,0,0,0,0,0,0,0,0,0,0,0,0,0,0,0,0,0,0,0,0,0,0,0,0,0,0,0,0,0,0,0,0,0,0,0,0,0,0,0,0,0,0,0,0,0,0,0,0,0,0,0,0,568,569,0,0,0,0,0,0,0,0,0,0,795,0,0,0,0,0,0,0,0,0,0,0,0,0,0,0,0,0,0,0,0,0,0,0,0,0,0,0,0,0,0,0,0,0,0,0,0,0,0,0,0,0,0,0,0,0,560,561,0,0,0,0,0,0,0,0,0,0,0,0,0,0,0,0,0,0,0,0,592,593,0,0,0,0,0,0,0,0,0,792,0,564,565,0,0,0,0,0,0,0,0,0,0,0,0,0,0,0,0,0,0,0,0,0,0,0,0,0,0,0,0,0,0,0,0,558,559,554,555,0,0,0,0,0,0,0,584,585,0,0,0,0,0,0,0,0,0,0,0,0,0,0,0,0,0,0,0,0,0,0,0,0,0,0,0,0,757,758,0,0,0,588,589,0,0,0,0,0,0,0,0,0,786,0,801,0,0,0,0,0,0,0,0,0,0,0,0,0,0,0,0,0,0,0,0,582,583,578,579,0,0,0,0,0,0,0,0,0,0,0,0,0,0,0,0,0,792,0,0,0,0,0,0,0,0,0,0,0,0,0,0,0,0,0,0,0,781,782,0,792,0,0,0,0,0,0,0,0,0,0,0,0,0,0,0,0,0,0,0,0,0,0,0,0,0,0,0,0,0,0,0,0,0,0,0,0,0,0,0,0,0,0,0,0,0,0,0,0,0,0,0,0,0,0,0,0,0,0,0,0,0,0,0,0,0,0,0,0,0,0,0,0,0,0,0,780,0,0,0,0,0,0,0,0,0,0,554,555,0,0,0,0,0,0,0,0,0,0,0,0,0,0,0,0,0,0,0,0,0,0,0,0,0,0,0,0,0,0,0,0,0,0,0,0,0,0,0,0,0,0,0,0,0,0,0,0,0,0,0,0,0,0,0,0,0,0,0,0,0,0,0,0,0,0,0,0,0,0,0,0,0,0,0,0,0,0,578,579,0,0,0,0,0,0,0,0,0,0,0,0,0,0,0,0,0,0,0,0,0,0,0,0,0,0,0,0,0,0,0,0,0,0,0,0,0,0,0,0,0,0,0,0,0,0,0,0,0,0,0,0,0,0,0,0,0,0,0,0,0,0,0,0,0,0,0,0,0,0,0,0,0,0,0,0,0,0,825,0,0,0,0,0,0,0,0,0,0,0,0,0,0,0,0,0,0,0,0,0,0,0,0,0,0,0,0,0,0,0,0,0,0,0,0,0,0,0,0,0,0,0,0,0,0,0,0,0,0,0,0,0,0,0,0,0,0,0,0,0,0,0,0,0,556,557,0,0,0,0,0,0,0,0,0,0,0,0,0,0,0,0,0,0,0,0,0,0,0,0,0,0,0,0,0,0,0,0,0,0,0,0,0,0,0,0,0,0,0,0,0,0,0,0,0,0,0,0,0,0,0,0,0,0,0,0,0,0,0,0,0,0,0,0,0,0,0,0,0,0,0,819,0,0,580,581,0,0,0,0,0,0,0,0,0,0,0,0,0,0,0,0,0,0,0,0,0,0,0,0,0,0,0,0,0,0,0,0,0,0,0,0,0,0,0,0,0,0,0,0,0,0,0,0,0,0,0,0,0,0,0,0,0,0,0,0,0,0,0,0,0,0,0,0,0,0,0,0,0,0,0,562,563,0,0,0,0,0,0,0,0,0,0,0,0,0,0,0,0,0,0,0,0,0,0,0,0,0,0,0,0,0,0,0,0,0,0,0,0,0,0,0,0,0,0,0,0,0,0,0,0,0,0,0,0,0,0,0,0,0,0,0,0,780,0,0,0,0,0,0,0,0,0,0,0,0,0,0,0,0,0,586,587,0,0,0,0,0,0,0,566,567,604,605,606,607,0,0,0,0,0,0,0,0,0,0,0,0,0,0,0,0,0,0,0,0,0,0,0,0,0,0,0,0,0,0,0,0,0,0,0,0,0,0,0,0,0,0,0,0,0,0,0,0,0,0,0,0,0,0,0,608,609,610,611,0,0,0,0,0,0,0,0,0,0,780,0,0,0,0,590,591,628,629,630,631,0,0,564,565,0,0,0,0,0,0,0,0,0,0,0,0,0,0,0,0,0,0,0,0,0,0,0,0,0,0,0,0,0,0,0,0,0,0,0,0,0,0,0,0,0,0,0,0,0,760,761,0,0,0,0,632,633,634,635,0,0,0,0,757,758,0,0,0,0,0,0,0,0,0,0,0,652,653,654,655,800,0,588,589,0,0,0,0,0,0,0,0,0,0,0,0,0,0,0,0,0,0,0,0,0,0,0,0,0,0,0,0,0,0,0,0,0,0,0,0,0,0,0,0,0,0,0,0,0,784,785,0,0,0,0,656,657,658,659,0,0,0,0,781,782,0,0,0,0,0,0,0,0,0,0,0,0,0,0,0,0,0,0,0,0,0,0,0,0,0,0,0,0,0,0,0,0,0,0,0,0,0,0,0,0,0,0,0,0,0,0,0,0,0,0,0,0,0,0,0,0,0,0,0,0,0,0,798,0,0,566,567,0,0,560,561,0,0,0,0,0,0,0,0,0,0,0,0,0,0,0,0,0,0,0,0,0,0,0,0,0,0,0,0,0,0,0,0,0,0,0,0,0,0,0,0,0,0,0,0,0,0,0,0,0,0,0,0,0,0,0,0,0,0,0,0,0,0,0,0,0,0,0,0,0,0,0,0,0,0,590,591,0,0,584,585,794,0,0,0,0,0,0,0,0,0,0,0,0,0,0,0,0,0,0,0,0,0,0,0,0,0,0,0,0,0,0,0,0,0,0,0,0,0,0,0,0,0,0,0,0,0,0,0,0,0,0,0,0,0,0,0,0,0,0,0,0,0,0,0,0,0,0,0,0,0,0,0,0,0,0,562,563,556,557,0,0,0,0,0,0,562,563,0,783,0,0,0,0,0,0,0,0,0,0,0,0,0,0,0,0,0,0,0,0,0,0,0,0,0,0,0,0,0,0,0,0,0,0,0,0,0,0,0,0,0,0,0,0,0,0,0,0,0,0,0,0,0,0,0,0,0,0,0,0,0,0,0,0,0,0,586,587,580,581,0,0,0,0,0,0,586,587,0,0,0,0,0,0,0,0,0,0,0,0,0,0,0,0,0,0,0,0,0,0,0,0,0,0,0,0,0,0,0,0,0,0,0,0,0,0,0,0,0,0,0,0,0,0,0,0,0,0,0,0,0,0,0,0,0,0,0,0,0,0,0,0,0,0,0,0,0,0,0,0,0,0,0,0,0,0,0,0,0,0,0,0,0,0,0,0,0,0,0,0,0,0,0,0,0,0,0,0,0,0,0,0,0,0,0,0,0,0,0,0,0,0,0,0,0,0,0,0,0,0,0,0,0,0,0,0,0,0,0,0,0,0,0,0,0,0,0,0,0,0,0,0,0,0,0,0,0,0,566,567,0,0,0,0,0,0,0,796,0,0,0,0,0,0,0,0,0,783,0,0,0,0,0,0,0,0,0,0,0,0,0,0,0,0,0,0,0,0,0,0,0,0,0,0,0,0,0,0,0,0,0,0,0,0,0,0,0,0,0,0,0,0,0,0,0,0,0,0,0,0,0,0,0,0,0,0,0,0,590,591,0,0,0,0,0,0,0,0,0,0,0,0,0,0,0,0,0,0,0,0,0,0,0,0,0,0,0,0,0,0,0,0,0,0,0,0,0,0,0,0,0,0,0,0,0,0,0,0,0,0,0,0,0,0,0,0,0,0,0,0,0,0,0,0,0,0,0,0,0,0,0,0,0,0,0,0,0,0,560,561,794,0,0,0,0,0,0,0,0,0,0,0,0,0,0,0,0,0,0,0,0,0,0,0,0,0,0,0,0,0,0,0,0,0,0,0,0,0,0,0,0,0,0,0,0,0,0,0,0,0,0,0,0,0,0,0,0,0,0,0,0,0,0,0,0,0,0,0,0,0,0,0,0,0,0,0,0,0,584,585,760,761,0,0,0,0,0,0,0,0,0,0,0,0,0,0,0,0,0,0,0,0,0,0,0,0,0,0,0,0,0,0,0,0,0,0,0,0,0,0,0,0,0,0,0,0,0,0,0,0,0,0,0,0,0,0,0,0,0,0,0,0,0,0,0,0,0,0,0,0,0,0,0,0,0,0,0,0,0,0,784,785,0,0,0,0,0,0,0,0,0,0,0,0,0,0,0,0,0,0,0,0,0,0,0,0,0,0,0,0,0,0,0,0,0,0,0,0,0,0,0,0,0,0,0,0,0,0,0,0,0,0,0,0,0,0,0,0,0,0,0,0,0,0,0,0,0,0,0,0,0,0,0,0,0,0,0,0,0,0,0,0,0,0,0,0,0,0,0,0,0,0,0,0,0,0,0,0,0,0,0,0,0,0,0,0,0,0,0,0,0,0,0,0,0,0,0,0,0,0,0,0,0,0,0,0,0,0,0,0,0,0,0,0,0,0,0,0,0,0,0,0,0,0,0,0,0,0,0,0,0,0,0,0,0,0,0,0,0,0,0,0,0,0,0,0,0,0,0,0,0,0,0,0,0,0,0,0,0,0,0,0,0,0,0,0,0,0,0,0,0,0,0,0,0,0,0,0,0,0,0,0,0,0,0,0,0,0,0,0,0,0,0,0,0,0,0,0,0,0,0,0,0,0,0,0,0,0,0,0,0,0,0,0,0,0,0,0,0,0,0,0,0,0,0,0,0,0,0,0,0,0,0,0,0,0,0,0,0,0,0,0,0,0,0,0,0,0,0,0,0,0,0,0,0,0,0,0,0,0,0,0,0,0,0,0,0,0,0,0,0,0,0,0,0,0,0,0,0,0,0,0,0,0,0,0,0,0,0,0,0,0,0,0,0,0,0,0,0,0,0,0,0,0,0,0,0,0,0,0,0,0,0,0,0,0,0,0,0,0,0,0,0,0,0,0,0,0,0,0,0,0,0,0,0,0,0,0,0,0,0,0,0,0,0,0,0,0,0,0,0,0,0,0,0,0,0,0,0,0,0,0,0,0,0,0,0,0,0,0,0,0,0,0,0,0,0,0,0,0,0,0,0,0,0,0,0,0,0,0,0,0,0,0,0,0,0,0,0,0,0,0,0,0,0,0,0,0,0,0,0,0,0,0,0,0,0,0,0,0,0,0,0,0,0]},{"type":"objectgroup","name":"collisions-sea","id":6,"x":0,"y":0,"width":5120,"height":2880,"opacity":1,"visible":true,"draworder":"topdown","objects":[{"id":131,"name":"sea-sw","type":"","x":1152,"y":1664,"width":2368,"height":1216,"rotation":0,"visible":true,"polygon":[{"x":0,"y":0},{"x":320,"y":0},{"x":320,"y":64},{"x":384,"y":64},{"x":384,"y":128},{"x":448,"y":128},{"x":448,"y":256},{"x":512,"y":256},{"x":512,"y":384},{"x":640,"y":384},{"x":640,"y":448},{"x":704,"y":448},{"x":704,"y":512},{"x":768,"y":512},{"x":768,"y":768},{"x":832,"y":768},{"x":832,"y":832},{"x":896,"y":832},{"x":896,"y":896},{"x":960,"y":896},{"x":960,"y":960},{"x":1152,"y":960},{"x":1152,"y":1024},{"x":1216,"y":1024},{"x":1216,"y":1216},{"x":768,"y":1216},{"x":768,"y":1088},{"x":704,"y":1088},{"x":704,"y":832},{"x":448,"y":832},{"x":448,"y":768},{"x":384,"y":768},{"x":384,"y":512},{"x":320,"y":512},{"x":320,"y":448},{"x":256,"y":448},{"x":256,"y":384},{"x":192,"y":384},{"x":192,"y":320},{"x":128,"y":320},{"x":128,"y":384},{"x":64,"y":384},{"x":64,"y":576},{"x":128,"y":576},{"x":128,"y":704},{"x":192,"y":704},{"x":192,"y":832},{"x":320,"y":832},{"x":320,"y":896},{"x":384,"y":896},{"x":384,"y":1152},{"x":448,"y":1152},{"x":448,"y":1216},{"x":-1152,"y":1216},{"x":-1152,"y":64},{"x":-832,"y":64},{"x":-832,"y":128},{"x":-768,"y":128},{"x":-768,"y":320},{"x":-576,"y":320},{"x":-576,"y":256},{"x":-512,"y":256},{"x":-512,"y":192},{"x":-448,"y":192},{"x":-448,"y":128},{"x":-384,"y":128},{"x":-384,"y":64},{"x":0,"y":64}],"properties":[]},{"id":132,"name":"sea-se","type":"","x":4352,"y":1664,"width":2304,"height":1216,"rotation":0,"visible":true,"polygon":[{"x":0,"y":0},{"x":768,"y":0},{"x":768,"y":1216},{"x":-1536,"y":1216},{"x":-1536,"y":768},{"x":-1472,"y":768},{"x":-1472,"y":704},{"x":-1408,"y":704},{"x":-1408,"y":640},{"x":-1344,"y":640},{"x":-1344,"y":576},{"x":-1152,"y":576},{"x":-1152,"y":640},{"x":-1088,"y":640},{"x":-1088,"y":704},{"x":-1024,"y":704},{"x":-1024,"y":640},{"x":-832,"y":640},{"x":-832,"y":704},{"x":-704,"y":704},{"x":-704,"y":640},{"x":-640,"y":640},{"x":-640,"y":576},{"x":-704,"y":576},{"x":-704,"y":448},{"x":-768,"y":448},{"x":-768,"y":512},{"x":-896,"y":512},{"x":-896,"y":448},{"x":-1088,"y":448},{"x":-1088,"y":384},{"x":-1152,"y":384},{"x":-1152,"y":256},{"x":-896,"y":256},{"x":-896,"y":192},{"x":-704,"y":192},{"x":-704,"y":256},{"x":-448,"y":256},{"x":-448,"y":320},{"x":-192,"y":320},{"x":-192,"y":256},{"x":-128,"y":256},{"x":-128,"y":128},{"x":-64,"y":128},{"x":-64,"y":64},{"x":0,"y":64}],"properties":[]},{"id":133,"name":"hole-se","type":"","x":3840,"y":2688,"width":128,"height":128,"rotation":0,"visible":true,"polygon":[{"x":0,"y":0},{"x":0,"y":128},{"x":128,"y":128},{"x":128,"y":0}],"properties":[{"name":"hole","type":"bool","value":true}]},{"id":134,"name":"sea-nw","type":"","x":0,"y":0,"width":2368,"height":1280,"rotation":0,"visible":true,"polygon":[{"x":0,"y":0},{"x":2368,"y":0},{"x":2368,"y":64},{"x":2304,"y":64},{"x":2304,"y":128},{"x":2240,"y":128},{"x":2240,"y":192},{"x":2176,"y":192},{"x":2176,"y":256},{"x":2112,"y":256},{"x":2112,"y":320},{"x":2048,"y":320},{"x":2048,"y":384},{"x":1920,"y":384},{"x":1920,"y":448},{"x":1856,"y":448},{"x":1856,"y":512},{"x":1792,"y":512},{"x":1792,"y":576},{"x":1728,"y":576},{"x":1728,"y":640},{"x":1536,"y":640},{"x":1536,"y":576},{"x":1280,"y":576},{"x":1280,"y":384},{"x":1088,"y":384},{"x":1088,"y":576},{"x":1280,"y":576},{"x":1280,"y":768},{"x":1216,"y":768},{"x":1216,"y":960},{"x":1152,"y":960},{"x":1152,"y":1024},{"x":960,"y":1024},{"x":960,"y":960},{"x":896,"y":960},{"x":896,"y":832},{"x":576,"y":832},{"x":576,"y":1088},{"x":640,"y":1088},{"x":640,"y":1216},{"x":576,"y":1216},{"x":576,"y":1280},{"x":192,"y":1280},{"x":192,"y":1216},{"x":0,"y":1216}],"properties":[]},{"id":135,"name":"sea-ne","type":"","x":2880,"y":0,"width":2304,"height":1216,"rotation":0,"visible":true,"polygon":[{"x":0,"y":0},{"x":2240,"y":0},{"x":2240,"y":1216},{"x":1856,"y":1216},{"x":1856,"y":1152},{"x":1792,"y":1152},{"x":1792,"y":1088},{"x":1664,"y":1088},{"x":1664,"y":1024},{"x":1600,"y":1024},{"x":1600,"y":960},{"x":1536,"y":960},{"x":1536,"y":832},{"x":1472,"y":832},{"x":1472,"y":768},{"x":1408,"y":768},{"x":1408,"y":704},{"x":1344,"y":704},{"x":1344,"y":640},{"x":1152,"y":640},{"x":1152,"y":704},{"x":1088,"y":704},{"x":1088,"y":768},{"x":1024,"y":768},{"x":1024,"y":832},{"x":640,"y":832},{"x":640,"y":896},{"x":576,"y":896},{"x":576,"y":960},{"x":512,"y":960},{"x":512,"y":1024},{"x":320,"y":1024},{"x":320,"y":960},{"x":256,"y":960},{"x":256,"y":832},{"x":192,"y":832},{"x":192,"y":768},{"x":128,"y":768},{"x":128,"y":704},{"x":64,"y":704},{"x":64,"y":640},{"x":0,"y":640},{"x":0,"y":576},{"x":-64,"y":576},{"x":-64,"y":128},{"x":0,"y":128}],"properties":[]},{"id":136,"name":"hole-ne-1","type":"","x":3264,"y":320,"width":192,"height":256,"rotation":0,"visible":true,"polygon":[{"x":0,"y":0},{"x":0,"y":256},{"x":192,"y":256},{"x":192,"y":0}],"properties":[{"name":"hole","type":"bool","value":true}]},{"id":137,"name":"hole-ne-2","type":"","x":4992,"y":640,"width":192,"height":256,"rotation":0,"visible":true,"polygon":[{"x":0,"y":0},{"x":-64,"y":0},{"x":-64,"y":64},{"x":-128,"y":64},{"x":-128,"y":256},{"x":64,"y":256},{"x":64,"y":64},{"x":0,"y":64}],"properties":[{"name":"hole","type":"bool","value":true}]},{"id":138,"name":"lake","type":"","x":1728,"y":768,"width":512,"height":384,"rotation":0,"visible":true,"polygon":[{"x":0,"y":0},{"x":256,"y":0},{"x":256,"y":64},{"x":448,"y":64},{"x":448,"y":256},{"x":384,"y":256},{"x":384,"y":320},{"x":256,"y":320},{"x":256,"y":384},{"x":0,"y":384},{"x":0,"y":256},{"x":-64,"y":256},{"x":-64,"y":64},{"x":0,"y":64}],"properties":[]}]},{"type":"objectgroup","name":"collisions-objects","id":7,"x":0,"y":0,"width":5120,"height":2880,"opacity":1,"visible":true,"draworder":"topdown","objects":[{"id":139,"name":"tree-big-green","type":"","x":2304,"y":320,"width":128,"height":64,"rotation":0,"visible":true,"properties":[]},{"id":140,"name":"tree-green-dome","type":"","x":2304,"y":448,"width":128,"height":64,"rotation":0,"visible":true,"properties":[]},{"id":141,"name":"tree-big-green","type":"","x":1984,"y":512,"width":128,"height":64,"rotation":0,"visible":true,"properties":[]},{"id":142,"name":"tree-big-green","type":"","x":4096,"y":960,"width":128,"height":64,"rotation":0,"visible":true,"properties":[]},{"id":143,"name":"tree-green-dome","type":"","x":2816,"y":1088,"width":128,"height":64,"rotation":0,"visible":true,"properties":[]},{"id":144,"name":"tree-white-cone","type":"","x":1408,"y":1152,"width":128,"height":64,"rotation":0,"visible":true,"properties":[]},{"id":145,"name":"prop-big","type":"","x":3328,"y":1152,"width":128,"height":128,"rotation":0,"visible":true,"properties":[]},{"id":146,"name":"tree-white","type":"","x":3648,"y":1152,"width":128,"height":64,"rotation":0,"visible":true,"properties":[]},{"id":147,"name":"rock-small","type":"","x":4352,"y":1152,"width":64,"height":64,"rotation":0,"visible":true,"properties":[]},{"id":148,"name":"tree-green","type":"","x":704,"y":1216,"width":128,"height":64,"rotation":0,"visible":true,"properties":[]},{"id":149,"name":"tree-dark","type":"","x":832,"y":1216,"width":128,"height":64,"rotation":0,"visible":true,"properties":[]},{"id":150,"name":"tree-dark","type":"","x":3968,"y":1344,"width":128,"height":64,"rotation":0,"visible":true,"properties":[]},{"id":151,"name":"tree-bare","type":"","x":3072,"y":1536,"width":128,"height":64,"rotation":0,"visible":true,"properties":[]},{"id":152,"name":"tree-white-dome","type":"","x":2880,"y":1664,"width":128,"height":64,"rotation":0,"visible":true,"properties":[]},{"id":153,"name":"tree-pink","type":"","x":3456,"y":1728,"width":128,"height":64,"rotation":0,"visible":true,"properties":[]},{"id":154,"name":"rock-big","type":"","x":1856,"y":1792,"width":128,"height":128,"rotation":0,"visible":true,"properties":[]},{"id":155,"name":"prop-big","type":"","x":2752,"y":1792,"width":128,"height":128,"rotation":0,"visible":true,"properties":[]},{"id":156,"name":"tree-big-green","type":"","x":3648,"y":1792,"width":128,"height":64,"rotation":0,"visible":true,"properties":[]},{"id":157,"name":"tree-white","type":"","x":3968,"y":1792,"width":128,"height":64,"rotation":0,"visible":true,"properties":[]},{"id":158,"name":"tree-big-white","type":"","x":2304,"y":1856,"width":128,"height":64,"rotation":0,"visible":true,"properties":[]},{"id":159,"name":"tree-pink","type":"","x":1920,"y":1984,"width":128,"height":64,"rotation":0,"visible":true,"properties":[]},{"id":160,"name":"tree-white-cone","type":"","x":2176,"y":1984,"width":128,"height":64,"rotation":0,"visible":true,"properties":[]},{"id":161,"name":"stump","type":"","x":2816,"y":2048,"width":64,"height":64,"rotation":0,"visible":true,"properties":[]},{"id":162,"name":"tree-white-dome","type":"","x":1984,"y":2112,"width":128,"height":64,"rotation":0,"visible":true,"properties":[]},{"id":163,"name":"tree-bare","type":"","x":2112,"y":2112,"width":128,"height":64,"rotation":0,"visible":true,"properties":[]},{"id":164,"name":"tree-white-dome","type":"","x":2624,"y":2112,"width":128,"height":64,"rotation":0,"visible":true,"properties":[]},{"id":165,"name":"stump","type":"","x":3328,"y":2240,"width":64,"height":64,"rotation":0,"visible":true,"properties":[]},{"id":166,"name":"tree-pink","type":"","x":2112,"y":2304,"width":128,"height":64,"rotation":0,"visible":true,"properties":[]},{"id":167,"name":"tree-white-cone","type":"","x":2112,"y":2432,"width":128,"height":64,"rotation":0,"visible":true,"properties":[]},{"id":168,"name":"rock-big","type":"","x":2240,"y":2432,"width":128,"height":128,"rotation":0,"visible":true,"properties":[]}]}]}